; FLAVOR:UltiGCode 
; TIME:5524 
; MATERIAL:4478 
; MATERIAL2:0 
; NOZZLE_DIAMETER:0.4 
; Generated with Cura_SteamEngine 3.3.1 
M82 ; absolute extrusion mode 

G92 
G10 
; LAYER_COUNT:274 
; LAYER:0 
M107 
G1 X107.7240 Y90.6580 Z0.2700 F4320 
; TYPE:SKIRT 
G11 
G1 X108.0890 Y90.2380 F1800 E0.0526 
G1 X108.5110 Y89.8750 E0.1052 
G1 X108.9800 Y89.5760 E0.1578 
G1 X109.4870 Y89.3480 E0.2103 
G1 X110.0220 Y89.1940 E0.2629 
G1 X110.8210 Y89.1110 E0.3388 
G1 X112.1770 Y89.1110 E0.4669 
G1 X112.7320 Y89.1510 E0.5195 
G1 X113.2760 Y89.2700 E0.5722 
G1 X113.7960 Y89.4660 E0.6247 
G1 X114.2840 Y89.7340 E0.6773 
G1 X114.7280 Y90.0690 E0.7298 
G1 X115.1190 Y90.4650 E0.7824 
G1 X115.5640 Y91.1030 E0.8559 
G1 X118.6090 Y96.5810 E1.4482 
G1 X121.5190 Y101.1560 E1.9606 
G1 X124.6580 Y105.5300 E2.4694 
G1 X124.9490 Y106.0050 E2.5220 
G1 X125.1690 Y106.5150 E2.5745 
G1 X125.3140 Y107.0530 E2.6271 
G1 X125.3850 Y107.8150 E2.6995 
G1 X125.3110 Y119.0410 E3.7603 
G1 X125.3930 Y122.2180 E4.0607 
G1 X125.3940 Y122.3470 E4.0729 
G1 X125.3520 Y127.8460 E4.5925 
G1 X125.3080 Y128.4000 E4.6451 
G1 X125.1850 Y128.9430 E4.6977 
G1 X124.9850 Y129.4620 E4.7502 
G1 X124.7130 Y129.9480 E4.8029 
G1 X124.3740 Y130.3890 E4.8554 
G1 X123.9760 Y130.7780 E4.9080 
G1 X123.5260 Y131.1050 E4.9606 
G1 X123.0340 Y131.3650 E5.0132 
G1 X122.5100 Y131.5510 E5.0657 
G1 X121.9640 Y131.6600 E5.1183 
G1 X121.4850 Y131.6910 E5.1637 
G1 X116.4310 Y131.7010 E5.6413 
G1 X116.3270 Y131.7000 E5.6511 
G1 X113.0660 Y131.6190 E5.9594 
G1 X106.9420 Y131.7020 E6.5381 
G1 X106.8570 Y131.7020 E6.5462 
G1 X101.4590 Y131.6580 E7.0563 
G1 X100.9050 Y131.6130 E7.1088 
G1 X100.3620 Y131.4900 E7.1615 
G1 X99.8430 Y131.2900 E7.2140 
G1 X99.3580 Y131.0180 E7.2666 
G1 X98.9160 Y130.6790 E7.3192 
G1 X98.5280 Y130.2800 E7.3718 
G1 X98.2010 Y129.8300 E7.4244 
G1 X97.9420 Y129.3380 E7.4769 
G1 X97.7560 Y128.8140 E7.5294 
G1 X97.6460 Y128.2680 E7.5821 
G1 X97.6160 Y127.7580 E7.6304 
G1 X97.6900 Y116.5680 E8.6878 
G1 X97.6070 Y113.3500 E8.9920 
G1 X97.6060 Y113.2450 E9.0020 
G1 X97.6150 Y107.7860 E9.5178 
G1 X97.6560 Y107.2310 E9.5704 
G1 X97.7760 Y106.6870 E9.6231 
G1 X97.9720 Y106.1670 E9.6756 
G1 X98.3510 Y105.5200 E9.7464 
G1 X100.7610 Y102.1900 E10.1349 
G1 X103.7730 Y97.5890 E10.6546 
G1 X105.1340 Y95.3040 E10.9059 
G1 X107.4220 Y91.1250 E11.3561 
G1 X107.7240 Y90.6580 E11.4087 
G1 X108.0180 Y90.8480 F4320 
G1 X108.3710 Y90.4520 F1800 E11.4588 
G1 X108.7790 Y90.1130 E11.5090 
G1 X109.2340 Y89.8390 E11.5592 
G1 X109.7240 Y89.6360 E11.6093 
G1 X110.2390 Y89.5090 E11.6594 
G1 X110.8210 Y89.4610 E11.7146 
G1 X112.1770 Y89.4610 E11.8427 
G1 X112.7060 Y89.5010 E11.8929 
G1 X113.2230 Y89.6200 E11.9430 
G1 X113.7170 Y89.8150 E11.9932 
G1 X114.1750 Y90.0820 E12.0433 
G1 X114.5890 Y90.4150 E12.0935 
G1 X114.9470 Y90.8060 E12.1436 
G1 X115.2580 Y91.2730 E12.1966 
G1 X118.3060 Y96.7560 E12.7894 
G1 X121.2270 Y101.3500 E13.3039 
G1 X124.3740 Y105.7340 E13.8139 
G1 X124.6500 Y106.1880 E13.8641 
G1 X124.8550 Y106.6770 E13.9142 
G1 X124.9840 Y107.1920 E13.9643 
G1 X125.0350 Y107.8130 E14.0232 
G1 X124.9610 Y119.0480 E15.0850 
G1 X125.0430 Y122.2270 E15.3855 
G1 X125.0440 Y122.3440 E15.3965 
G1 X125.0020 Y127.8430 E15.9162 
G1 X124.9580 Y128.3720 E15.9664 
G1 X124.8350 Y128.8880 E16.0165 
G1 X124.6360 Y129.3800 E16.0666 
G1 X124.3660 Y129.8360 E16.1167 
G1 X124.0290 Y130.2470 E16.1669 
G1 X123.6360 Y130.6030 E16.2171 
G1 X123.1930 Y130.8950 E16.2672 
G1 X122.7110 Y131.1180 E16.3174 
G1 X122.2010 Y131.2660 E16.3676 
G1 X121.4840 Y131.3410 E16.4357 
G1 X116.4300 Y131.3510 E16.9133 
G1 X116.3350 Y131.3500 E16.9223 
G1 X113.0690 Y131.2690 E17.2310 
G1 X106.9370 Y131.3520 E17.8105 
G1 X106.8600 Y131.3520 E17.8178 
G1 X101.4620 Y131.3080 E18.3280 
G1 X100.9330 Y131.2640 E18.3781 
G1 X100.4170 Y131.1400 E18.4283 
G1 X99.9250 Y130.9410 E18.4784 
G1 X99.4690 Y130.6700 E18.5285 
G1 X99.0590 Y130.3340 E18.5786 
G1 X98.7030 Y129.9400 E18.6288 
G1 X98.4110 Y129.4970 E18.6790 
G1 X98.1880 Y129.0150 E18.7291 
G1 X98.0410 Y128.5060 E18.7792 
G1 X97.9660 Y127.7600 E18.8501 
G1 X98.0400 Y116.5610 E19.9084 
G1 X97.9570 Y113.3410 E20.2128 
G1 X97.9560 Y113.2450 E20.2218 
G1 X97.9650 Y107.7860 E20.7377 
G1 X98.0060 Y107.2570 E20.7879 
G1 X98.1260 Y106.7400 E20.8380 
G1 X98.3220 Y106.2470 E20.8882 
G1 X98.6340 Y105.7250 E20.9456 
G1 X101.0590 Y102.3730 E21.3366 
G1 X104.0690 Y97.7770 E21.8558 
G1 X105.4350 Y95.4830 E22.1081 
G1 X107.7290 Y91.2930 E22.5595 
G1 X108.0180 Y90.8480 E22.6096 
G1 X108.3120 Y91.0400 F4320 
G1 X108.6510 Y90.6680 F1800 E22.6572 
G1 X109.0450 Y90.3540 E22.7048 
G1 X109.4840 Y90.1060 E22.7524 
G1 X109.9560 Y89.9310 E22.8000 
G1 X110.4500 Y89.8330 E22.8476 
G1 X110.8210 Y89.8110 E22.8827 
G1 X112.1770 Y89.8110 E23.0109 
G1 X112.6790 Y89.8510 E23.0585 
G1 X113.1680 Y89.9700 E23.1060 
G1 X113.6330 Y90.1640 E23.1536 
G1 X114.0610 Y90.4300 E23.2013 
G1 X114.4410 Y90.7600 E23.2488 
G1 X114.7640 Y91.1460 E23.2964 
G1 X114.9520 Y91.4430 E23.3296 
G1 X118.0060 Y96.9360 E23.9235 
G1 X120.9460 Y101.5610 E24.4414 
G1 X124.0890 Y105.9390 E24.9507 
G1 X124.3500 Y106.3700 E24.9983 
G1 X124.5380 Y106.8360 E25.0458 
G1 X124.6510 Y107.3270 E25.0934 
G1 X124.6850 Y107.8110 E25.1393 
G1 X124.6110 Y119.0550 E26.2019 
G1 X124.6930 Y122.2360 E26.5026 
G1 X124.6940 Y122.3410 E26.5125 
G1 X124.6520 Y127.8400 E27.0322 
G1 X124.6080 Y128.3420 E27.0798 
G1 X124.4860 Y128.8300 E27.1273 
G1 X124.2870 Y129.2930 E27.1749 
G1 X124.0180 Y129.7190 E27.2225 
G1 X123.6860 Y130.0970 E27.2701 
G1 X123.2970 Y130.4170 E27.3177 
G1 X122.8630 Y130.6730 E27.3653 
G1 X122.3940 Y130.8560 E27.4129 
G1 X121.9020 Y130.9620 E27.4605 
G1 X121.4830 Y130.9910 E27.5001 
G1 X116.4290 Y131.0010 E27.9777 
G1 X116.3440 Y131.0000 E27.9858 
G1 X113.0730 Y130.9190 E28.2950 
G1 X106.9320 Y131.0020 E28.8754 
G1 X106.8630 Y131.0020 E28.8819 
G1 X101.4650 Y130.9580 E29.3920 
G1 X100.9630 Y130.9140 E29.4396 
G1 X100.4750 Y130.7910 E29.4872 
G1 X100.0120 Y130.5930 E29.5348 
G1 X99.5870 Y130.3230 E29.5824 
G1 X99.2090 Y129.9900 E29.6300 
G1 X98.8890 Y129.6020 E29.6775 
G1 X98.6340 Y129.1670 E29.7251 
G1 X98.4510 Y128.6980 E29.7727 
G1 X98.3440 Y128.2060 E29.8203 
G1 X98.3160 Y127.7620 E29.8623 
G1 X98.3900 Y116.5540 E30.9215 
G1 X98.3070 Y113.3320 E31.2261 
G1 X98.3060 Y113.2460 E31.2342 
G1 X98.3150 Y107.7870 E31.7501 
G1 X98.3560 Y107.2850 E31.7977 
G1 X98.4750 Y106.7960 E31.8453 
G1 X98.6710 Y106.3320 E31.8928 
G1 X98.9180 Y105.9310 E31.9374 
G1 X101.3420 Y102.5820 E32.3280 
G1 X104.3540 Y97.9810 E32.8477 
G1 X105.7470 Y95.6420 E33.1050 
G1 X108.0360 Y91.4610 E33.5554 
G1 X108.3120 Y91.0400 E33.6030 
G10 
G1 X110.3040 Y93.8320 F4320 
G1 X111.4840 Y93.5130 
; TYPE:WALL-INNER 
G11 
G1 X111.4800 Y93.5010 F1800 E33.6042 
G1 X111.5000 Y93.5010 E33.6043 
G1 X111.5190 Y93.5010 E33.6051 
G1 X111.5160 Y93.5110 
G1 X111.5000 Y93.5620 
G1 X111.4840 Y93.5130 
G1 X111.8840 Y93.3950 F4320 
; TYPE:WALL-OUTER 
G1 X111.8330 Y93.5880 F1800 E33.6239 
G1 X111.7370 Y93.8820 E33.6531 
G1 X111.6670 Y94.0440 E33.6698 
G1 X111.6370 Y94.1140 E33.6770 
G1 X111.5600 Y94.2330 E33.6904 
G1 X111.5510 Y94.2460 E33.6919 
G1 X111.5280 Y94.2690 E33.6950 
G1 X111.5000 Y94.2980 E33.6988 
G1 X111.4760 Y94.2730 
G1 X111.4400 Y94.2370 E33.6996 
G1 X111.3530 Y94.0980 E33.6997 
G1 X111.3240 Y94.0270 E33.7069 
G1 X111.2570 Y93.8670 E33.7233 
G1 X111.1620 Y93.5740 E33.7524 
G1 X111.1150 Y93.3940 E33.7700 
G1 X111.0600 Y93.1760 E33.7912 
G1 X111.2840 Y93.1760 E33.8040 
G1 X111.2850 Y93.1760 E33.8041 
G1 X111.7140 Y93.1760 E33.8447 
G1 X111.7150 Y93.1760 E33.8448 
G1 X111.9400 Y93.1760 E33.8660 
G1 X111.8850 Y93.3940 E33.8789 
G1 X111.8840 Y93.3950 E33.8790 
G1 X111.8330 Y93.5880 F4320 
G10 
G1 X110.4190 Y94.1850 
G1 X106.7450 Y107.0910 
G1 X106.7450 Y108.3270 
G1 X102.5300 Y108.6620 
; TYPE:WALL-INNER 
G11 
G1 X106.4090 Y108.6630 F1800 E34.2456 
G1 X106.4090 Y112.7160 E34.6286 
G1 X102.3560 Y112.7160 E35.0116 
G1 X102.3550 Y108.8370 E35.3782 
G1 X102.3550 Y108.6620 E35.3947 
G1 X102.5300 Y108.6620 E35.4054 
G1 X102.1800 Y108.3120 F4320 
G1 X106.7590 Y108.3130 F1800 E35.8381 
G1 X106.7590 Y113.0660 E36.2873 
G1 X102.0060 Y113.0660 E36.7364 
G1 X102.0050 Y108.4870 E37.1692 
G1 X102.0050 Y108.3120 E37.1857 
G1 X102.1800 Y108.3120 E37.1964 
G1 X101.8550 Y107.9870 F4320 
; TYPE:WALL-OUTER 
G1 X107.0840 Y107.9880 F1800 E37.6905 
G1 X107.0840 Y113.3910 E38.2011 
G1 X101.6810 Y113.3910 E38.7117 
G1 X101.6800 Y108.1620 E39.2058 
G1 X101.6800 Y107.9870 E39.2224 
G1 X101.8550 Y107.9870 E39.2331 
G1 X102.0550 Y107.9870 F4320 
G1 X102.0540 Y108.4120 
G1 X102.6950 Y109.0020 
; TYPE:SKIN 
G1 X106.0690 Y109.0030 F1800 E39.5519 
G1 X106.0690 Y112.3760 E39.8707 
G1 X102.6960 Y112.3760 E40.1894 
G1 X102.6950 Y109.0020 E40.5083 
G1 X105.9110 Y109.3750 F4320 
G1 X105.6950 Y109.1600 F1800 E40.5371 
G1 X105.2000 Y109.1600 F4320 
G1 X105.9110 Y109.8700 F1800 E40.6320 
G1 X105.9720 Y109.9310 
G1 X105.9110 Y110.3650 F4320 
G1 X104.7050 Y109.1600 F1800 E40.7931 
G1 X104.6440 Y109.0990 
G1 X104.2090 Y109.1590 F4320 
G1 X105.9110 Y110.8600 F1800 E41.0205 
G1 X105.9720 Y110.9210 
G1 X105.9110 Y111.3550 F4320 
G1 X103.7140 Y109.1590 F1800 E41.3141 
G1 X103.6530 Y109.0980 
G1 X103.2190 Y109.1590 F4320 
G1 X105.9110 Y111.8500 F1800 E41.6738 
G1 X105.9720 Y111.9110 
G1 X105.7820 Y112.2170 F4320 
G1 X102.8520 Y109.2870 F1800 E42.0653 
G1 X102.7910 Y109.2260 
G1 X102.8520 Y109.7820 F4320 
G1 X105.2870 Y112.2170 F1800 E42.3908 
G1 X105.3480 Y112.2780 
G1 X104.7920 Y112.2170 F4320 
G1 X102.8520 Y110.2770 F1800 E42.6500 
G1 X102.7910 Y110.2160 
G1 X102.8520 Y110.7720 F4320 
G1 X104.2970 Y112.2170 F1800 E42.8432 
G1 X104.3580 Y112.2780 
G1 X103.8020 Y112.2170 F4320 
G1 X102.8520 Y111.2670 F1800 E42.9701 
G1 X102.7910 Y111.2060 
G1 X102.8520 Y111.7620 F4320 
G1 X103.3070 Y112.2170 F1800 E43.0309 
G10 
G1 X106.7390 Y108.8370 F4320 
G1 X107.9800 Y108.8370 
G1 X115.0200 Y108.8370 
G1 X116.2610 Y108.8370 
G1 X120.6450 Y108.8370 
; TYPE:WALL-INNER 
G11 
G1 X120.6440 Y112.7160 F1800 E43.3975 
G1 X116.5910 Y112.7160 E43.7805 
G1 X116.5910 Y108.6630 E44.1635 
G1 X120.4700 Y108.6620 E44.5301 
G1 X120.6450 Y108.6620 E44.5466 
G1 X120.6450 Y108.8370 E44.5573 
G1 X120.9950 Y108.4870 F4320 
G1 X120.9940 Y113.0660 F1800 E44.9900 
G1 X116.2410 Y113.0660 E45.4392 
G1 X116.2410 Y108.3130 E45.8883 
G1 X120.8200 Y108.3120 E46.3210 
G1 X120.9950 Y108.3120 E46.3376 
G1 X120.9950 Y108.4870 E46.3483 
G1 X121.3200 Y108.1620 F4320 
; TYPE:WALL-OUTER 
G1 X121.3190 Y113.3910 F1800 E46.8424 
G1 X115.9160 Y113.3910 E47.3530 
G1 X115.9160 Y107.9880 E47.8636 
G1 X121.1450 Y107.9870 E48.3577 
G1 X121.3200 Y107.9870 E48.3743 
G1 X121.3200 Y108.1620 E48.3850 
G1 X121.3200 Y108.3620 F4320 
G1 X120.8950 Y108.3610 
G1 X120.3050 Y109.0020 
; TYPE:SKIN 
G1 X120.3040 Y112.3760 F1800 E48.7038 
G1 X116.9310 Y112.3760 E49.0226 
G1 X116.9310 Y109.0030 E49.3413 
G1 X120.3050 Y109.0020 E49.6602 
G1 X120.0970 Y109.2080 F4320 
G1 X119.8500 Y109.4560 F1800 E49.7058 
G1 X120.2060 Y109.8120 
G1 X120.1450 Y110.2460 F4320 
G1 X119.0600 Y109.1610 F1800 E49.8508 
G1 X118.9990 Y109.1000 
G1 X118.5650 Y109.1610 F4320 
G1 X120.1450 Y110.7410 F1800 E50.0620 
G1 X120.2060 Y110.8020 
G1 X120.1450 Y111.2360 F4320 
G1 X118.0700 Y109.1610 F1800 E50.3393 
G1 X118.0090 Y109.1000 
G1 X117.5750 Y109.1610 F4320 
G1 X120.1450 Y111.7310 F1800 E50.6827 
G1 X120.2060 Y111.7920 
G1 X120.1370 Y112.2170 F4320 
G1 X117.0870 Y109.1680 F1800 E51.0903 
G1 X117.0260 Y109.1070 
G1 X117.0870 Y109.6630 F4320 
G1 X119.6420 Y112.2170 F1800 E51.4317 
G1 X119.7030 Y112.2780 
G1 X119.1470 Y112.2170 F4320 
G1 X117.0870 Y110.1580 F1800 E51.7069 
G1 X117.0260 Y110.0970 
G1 X117.0870 Y110.6530 F4320 
G1 X118.6520 Y112.2170 F1800 E51.9160 
G1 X118.7130 Y112.2780 
G1 X118.1570 Y112.2170 F4320 
G1 X117.0870 Y111.1470 F1800 E52.0590 
G1 X117.0260 Y111.0860 
G1 X117.0870 Y111.6420 F4320 
G1 X117.6620 Y112.2170 F1800 E52.1358 
G1 X117.7230 Y112.2780 
G1 X117.1670 Y112.2170 F4320 
G1 X117.0870 Y112.1370 F1800 E52.1465 
G10 
G1 X120.6450 Y113.0460 F4320 
G1 X120.6450 Y114.2870 
G1 X120.6450 Y121.3270 
G1 X120.6460 Y122.5480 
G1 X120.6450 Y123.0720 
; TYPE:WALL-INNER 
G11 
G1 X120.6440 Y126.9510 F1800 E52.5131 
G1 X116.5910 Y126.9510 E52.8961 
G1 X116.5910 Y122.8980 E53.2791 
G1 X120.4700 Y122.8970 E53.6457 
G1 X120.6450 Y122.8970 E53.6622 
G1 X120.6450 Y123.0720 E53.6729 
G1 X120.9950 Y122.7220 F4320 
G1 X120.9940 Y127.3010 F1800 E54.1056 
G1 X116.2410 Y127.3010 E54.5548 
G1 X116.2410 Y122.5480 E55.0040 
G1 X120.8200 Y122.5470 E55.4367 
G1 X120.9950 Y122.5470 E55.4532 
G1 X120.9950 Y122.7220 E55.4639 
G1 X121.3200 Y122.3970 F4320 
; TYPE:WALL-OUTER 
G1 X121.3190 Y127.6260 F1800 E55.9581 
G1 X115.9160 Y127.6260 E56.4686 
G1 X115.9160 Y122.2230 E56.9792 
G1 X121.1450 Y122.2220 E57.4734 
G1 X121.3200 Y122.2220 E57.4899 
G1 X121.3200 Y122.3970 E57.5006 
G1 X121.3200 Y122.5970 F4320 
G1 X120.8950 Y122.5960 
G1 X120.3050 Y123.2370 
; TYPE:SKIN 
G1 X120.3040 Y126.6110 F1800 E57.8194 
G1 X116.9310 Y126.6110 E58.1382 
G1 X116.9310 Y123.2380 E58.4569 
G1 X120.3050 Y123.2370 E58.7758 
G1 X119.9300 Y123.3950 F4320 
G1 X120.1470 Y123.6120 F1800 E58.8048 
G1 X120.1470 Y124.1070 F4320 
G1 X119.4350 Y123.3950 F1800 E58.8999 
G1 X119.3740 Y123.3340 
G1 X118.9400 Y123.3950 F4320 
G1 X120.1470 Y124.6020 F1800 E59.0612 
G1 X120.2080 Y124.6630 
G1 X120.1460 Y125.0960 F4320 
G1 X118.4450 Y123.3950 F1800 E59.2886 
G1 X118.3840 Y123.3340 
G1 X117.9500 Y123.3950 F4320 
G1 X120.1460 Y125.5910 F1800 E59.5821 
G1 X120.2070 Y125.6520 
G1 X120.1460 Y126.0860 F4320 
G1 X117.4550 Y123.3950 F1800 E59.9417 
G1 X117.3940 Y123.3340 
G1 X117.0890 Y123.5230 F4320 
G1 X120.0170 Y126.4510 F1800 E60.3330 
G1 X120.0780 Y126.5120 
G1 X119.5220 Y126.4510 F4320 
G1 X117.0890 Y124.0180 F1800 E60.6581 
G1 X117.0280 Y123.9570 
G1 X117.0890 Y124.5130 F4320 
G1 X119.0270 Y126.4510 F1800 E60.9171 
G1 X119.0880 Y126.5120 
G1 X118.5320 Y126.4510 F4320 
G1 X117.0890 Y125.0080 F1800 E61.1100 
G1 X117.0280 Y124.9470 
G1 X117.0890 Y125.5030 F4320 
G1 X118.0370 Y126.4510 F1800 E61.2367 
G1 X118.0980 Y126.5120 
G1 X117.5420 Y126.4510 F4320 
G1 X117.0890 Y125.9980 F1800 E61.2972 
G10 
G1 X116.2610 Y126.7770 F4320 
G1 X115.0200 Y126.7770 
G1 X107.9800 Y126.7770 
G1 X106.7590 Y126.7780 
G1 X106.4100 Y126.7770 
; TYPE:WALL-INNER 
G11 
G1 X106.4100 Y126.9520 F1800 E61.3138 
G1 X106.2350 Y126.9520 E61.3245 
G1 X102.3560 Y126.9510 E61.6910 
G1 X102.3560 Y122.8980 E62.0740 
G1 X106.4090 Y122.8980 E62.4571 
G1 X106.4100 Y126.7770 E62.8236 
G1 X106.7600 Y127.1270 F4320 
G1 X106.7600 Y127.3020 F1800 E62.8402 
G1 X106.5850 Y127.3020 E62.8509 
G1 X102.0060 Y127.3010 E63.2836 
G1 X102.0060 Y122.5480 E63.7327 
G1 X106.7590 Y122.5480 E64.1819 
G1 X106.7600 Y127.1270 E64.6146 
G1 X107.0850 Y127.4520 F4320 
; TYPE:WALL-OUTER 
G1 X107.0850 Y127.6270 F1800 E64.6311 
G1 X106.9100 Y127.6270 E64.6418 
G1 X101.6810 Y127.6260 E65.1360 
G1 X101.6810 Y122.2230 E65.6466 
G1 X107.0840 Y122.2230 E66.1572 
G1 X107.0850 Y127.4520 E66.6513 
G1 X107.0850 Y127.6270 F4320 
G1 X107.0600 Y127.6270 
G1 X106.6900 Y127.2320 
G1 X106.0700 Y126.6120 
; TYPE:SKIN 
G1 X102.6960 Y126.6110 F1800 E66.9701 
G1 X102.6960 Y123.2380 E67.2889 
G1 X106.0690 Y123.2380 E67.6076 
G1 X106.0700 Y126.6120 E67.9265 
G1 X105.9110 Y123.7300 F4320 
G1 X105.5750 Y123.3950 F1800 E67.9713 
G1 X105.0810 Y123.3950 F4320 
G1 X105.9110 Y124.2250 F1800 E68.0822 
G1 X105.9720 Y124.2860 
G1 X105.9110 Y124.7200 F4320 
G1 X104.5860 Y123.3950 F1800 E68.2593 
G1 X104.5250 Y123.3340 
G1 X104.0910 Y123.3950 F4320 
G1 X105.9110 Y125.2150 F1800 E68.5025 
G1 X105.9720 Y125.2760 
G1 X105.9110 Y125.7100 F4320 
G1 X103.5960 Y123.3950 F1800 E68.8119 
G1 X103.5350 Y123.3340 
G1 X103.1010 Y123.3950 F4320 
G1 X105.9110 Y126.2050 F1800 E69.1875 
G1 X105.9720 Y126.2660 
G1 X105.6630 Y126.4520 F4320 
G1 X102.8530 Y123.6420 F1800 E69.5630 
G1 X102.7920 Y123.5810 
G1 X102.8530 Y124.1370 F4320 
G1 X105.1680 Y126.4520 F1800 E69.8724 
G1 X105.2290 Y126.5130 
G1 X104.6730 Y126.4520 F4320 
G1 X102.8530 Y124.6320 F1800 E70.1156 
G1 X102.7920 Y124.5710 
G1 X102.8530 Y125.1270 F4320 
G1 X104.1780 Y126.4520 F1800 E70.2927 
G1 X104.2390 Y126.5130 
G1 X103.6830 Y126.4520 F4320 
G1 X102.8530 Y125.6220 F1800 E70.4036 
G1 X102.7920 Y125.5610 
G1 X102.8530 Y126.1170 F4320 
G1 X103.1880 Y126.4520 F1800 E70.4484 
G10 
G1 X106.7450 Y122.5620 F4320 
G1 X106.7450 Y121.3270 
G1 X107.9680 Y114.2750 
G1 X110.4190 Y94.1850 
G1 X111.5000 Y93.5430 
G1 X111.4980 Y93.5510 
G1 X111.6110 Y93.8940 
; TIME_ELAPSED:34.305752 
; LAYER:1 
M106 
G1 X111.6110 Y93.8940 Z0.3700 F5760 
; TYPE:WALL-INNER 
G11 
G1 X111.5960 Y93.9490 F2100 E70.4504 
G1 X111.5200 Y94.2270 E70.4605 
G1 X111.5000 Y94.2980 E70.4630 
G1 X111.4720 Y94.2130 
G1 X111.4030 Y93.9480 
G1 X111.3890 Y93.8940 
G1 X111.3070 Y93.5010 E70.4771 
G1 X111.6940 Y93.5010 E70.4906 
G1 X111.6110 Y93.8940 E70.5034 
G1 X111.5140 Y93.8710 F5760 
G1 X111.3840 Y93.5640 
G1 X110.9790 Y93.5220 
; TYPE:WALL-OUTER 
G1 X110.9200 Y93.1760 F1800 E70.5157 
G1 X110.9790 Y93.1760 
G1 X110.9810 Y93.1760 E70.5157 
G1 X112.0200 Y93.1760 E70.5521 
G1 X112.0210 Y93.1760 E70.5521 
G1 X112.0800 Y93.1760 E70.5542 
G1 X112.0210 Y93.5230 E70.5581 
G1 X111.9290 Y93.9620 E70.5738 
G1 X111.8380 Y94.3090 E70.5864 
G1 X111.7430 Y94.6020 E70.5972 
G1 X111.6720 Y94.7720 E70.6036 
G1 X111.6450 Y94.8370 E70.6061 
G1 X111.5600 Y94.9720 E70.6117 
G1 X111.5220 Y95.0090 E70.6135 
G1 X111.4990 Y95.0310 E70.6146 
G1 X111.4740 Y95.0060 
G1 X111.4400 Y94.9710 
G1 X111.3550 Y94.8360 
G1 X111.3280 Y94.7710 E70.6171 
G1 X111.2570 Y94.6010 E70.6235 
G1 X111.1620 Y94.3080 E70.6343 
G1 X111.0710 Y93.9610 E70.6469 
G1 X110.9790 Y93.5230 E70.6625 
G1 X110.9790 Y93.5220 E70.6626 
G1 X110.9460 Y93.3250 F5760 
G10 
G1 X111.3840 Y93.5640 
G1 X111.4080 Y93.8900 
G1 X110.3040 Y94.5660 
G1 X106.7810 Y107.0820 
G1 X106.7810 Y108.3180 
G1 X102.5210 Y108.6530 
; TYPE:WALL-INNER 
G11 
G1 X106.4450 Y108.6540 F2100 E70.7999 
G1 X106.4450 Y112.7520 E70.9433 
G1 X102.3470 Y112.7520 E71.0868 
G1 X102.3460 Y108.8280 E71.2241 
G1 X102.3460 Y108.6530 E71.2302 
G1 X102.5210 Y108.6530 E71.2342 
G1 X102.1710 Y108.3030 F5760 
G1 X106.7950 Y108.3040 F2100 E71.3961 
G1 X106.7950 Y113.1020 E71.5640 
G1 X101.9970 Y113.1020 E71.7319 
G1 X101.9960 Y108.4780 E71.8937 
G1 X101.9960 Y108.3030 E71.8999 
G1 X102.1710 Y108.3030 E71.9038 
G1 X101.8460 Y107.9780 F5760 
; TYPE:WALL-OUTER 
G1 X107.1200 Y107.9790 F1800 E72.0884 
G1 X107.1200 Y113.4270 E72.2791 
G1 X101.6720 Y113.4270 E72.4698 
G1 X101.6710 Y108.1530 E72.6544 
G1 X101.6710 Y107.9780 E72.6605 
G1 X101.8460 Y107.9780 E72.6645 
G1 X102.0460 Y107.9780 F5760 
G1 X102.0450 Y108.4030 
G1 X102.6860 Y108.9930 
; TYPE:SKIN 
G1 X106.1050 Y108.9940 F1500 E72.7841 
G1 X106.1050 Y112.4120 E72.9038 
G1 X102.6870 Y112.4120 E73.0234 
G1 X102.6860 Y108.9930 E73.1431 
G1 X102.8440 Y109.4990 F5760 
G1 X103.1930 Y109.1500 F1500 E73.1603 
G1 X103.6880 Y109.1500 F5760 
G1 X102.8440 Y109.9940 F1500 E73.2021 
G1 X102.7830 Y110.0550 
G1 X102.8440 Y110.4890 F5760 
G1 X104.1830 Y109.1500 F1500 E73.2684 
G1 X104.2440 Y109.0890 
G1 X104.6780 Y109.1500 F5760 
G1 X102.8440 Y110.9840 F1500 E73.3592 
G1 X102.7830 Y111.0450 
G1 X102.8440 Y111.4790 F5760 
G1 X105.1730 Y109.1500 F1500 E73.4744 
G1 X105.2340 Y109.0890 
G1 X105.6680 Y109.1500 F5760 
G1 X102.8440 Y111.9740 F1500 E73.6142 
G1 X102.7830 Y112.0350 
G1 X103.0600 Y112.2530 F5760 
G1 X105.9460 Y109.3670 F1500 E73.7571 
G1 X106.0070 Y109.3060 
G1 X105.9460 Y109.8620 F5760 
G1 X103.5550 Y112.2530 F1500 E73.8754 
G1 X103.4940 Y112.3140 
G1 X104.0500 Y112.2530 F5760 
G1 X105.9460 Y110.3570 F1500 E73.9693 
G1 X106.0070 Y110.2960 
G1 X105.9460 Y110.8520 F5760 
G1 X104.5450 Y112.2530 F1500 E74.0386 
G1 X104.4840 Y112.3140 
G1 X105.0400 Y112.2530 F5760 
G1 X105.9460 Y111.3470 F1500 E74.0835 
G1 X106.0070 Y111.2860 
G1 X105.9460 Y111.8420 F5760 
G1 X105.5350 Y112.2530 F1500 E74.1038 
G10 
G1 X106.7750 Y108.8280 F5760 
G1 X108.0160 Y108.8280 
G1 X114.9840 Y108.8280 
G1 X116.2250 Y108.8280 
G1 X120.6540 Y108.8280 
; TYPE:WALL-INNER 
G11 
G1 X120.6530 Y112.7520 F2100 E74.2411 
G1 X116.5550 Y112.7520 E74.3846 
G1 X116.5550 Y108.6540 E74.5280 
G1 X120.4790 Y108.6530 E74.6653 
G1 X120.6540 Y108.6530 E74.6715 
G1 X120.6540 Y108.8280 E74.6754 
G1 X121.0040 Y108.4780 F5760 
G1 X121.0030 Y113.1020 F2100 E74.8373 
G1 X116.2050 Y113.1020 E75.0052 
G1 X116.2050 Y108.3040 E75.1731 
G1 X120.8290 Y108.3030 E75.3350 
G1 X121.0040 Y108.3030 E75.3411 
G1 X121.0040 Y108.4780 E75.3451 
G1 X121.3290 Y108.1530 F5760 
; TYPE:WALL-OUTER 
G1 X121.3280 Y113.4270 F1800 E75.5297 
G1 X115.8800 Y113.4270 E75.7203 
G1 X115.8800 Y107.9790 E75.9110 
G1 X121.1540 Y107.9780 E76.0956 
G1 X121.3290 Y107.9780 E76.1017 
G1 X121.3290 Y108.1530 E76.1057 
G1 X121.3290 Y108.3530 F5760 
G1 X120.9040 Y108.3520 
G1 X120.3140 Y108.9930 
; TYPE:SKIN 
G1 X120.3130 Y112.4120 F1500 E76.2254 
G1 X116.8950 Y112.4120 E76.3450 
G1 X116.8950 Y108.9940 E76.4646 
G1 X120.3140 Y108.9930 E76.5843 
G1 X117.5460 Y109.1510 F5760 
G1 X117.0520 Y109.6460 F1500 E76.6088 
G1 X117.0520 Y110.1410 F5760 
G1 X118.0410 Y109.1510 F1500 E76.6577 
G1 X118.1020 Y109.0900 
G1 X118.5360 Y109.1510 F5760 
G1 X117.0520 Y110.6360 F1500 E76.7312 
G1 X116.9910 Y110.6970 
G1 X117.0520 Y111.1310 F5760 
G1 X119.0320 Y109.1510 F1500 E76.8292 
G1 X119.0930 Y109.0900 
G1 X119.5270 Y109.1510 F5760 
G1 X117.0520 Y111.6250 F1500 E76.9517 
G1 X116.9910 Y111.6860 
G1 X117.0520 Y112.1200 F5760 
G1 X120.0220 Y109.1510 F1500 E77.0987 
G1 X120.0830 Y109.0900 
G1 X120.1540 Y109.5130 F5760 
G1 X117.4140 Y112.2530 F1500 E77.2343 
G1 X117.3530 Y112.3140 
G1 X117.9090 Y112.2530 F5760 
G1 X120.1540 Y110.0080 F1500 E77.3454 
G1 X120.2150 Y109.9470 
G1 X120.1540 Y110.5030 F5760 
G1 X118.4040 Y112.2530 F1500 E77.4321 
G1 X118.3430 Y112.3140 
G1 X118.8990 Y112.2530 F5760 
G1 X120.1530 Y110.9990 F1500 E77.4941 
G1 X120.2140 Y110.9380 
G1 X120.1530 Y111.4940 F5760 
G1 X119.3940 Y112.2530 F1500 E77.5317 
G1 X119.3330 Y112.3140 
G1 X119.8890 Y112.2530 F5760 
G1 X120.1530 Y111.9890 F1500 E77.5447 
G10 
G1 X120.6540 Y113.0820 F5760 
G1 X120.6540 Y114.3230 
G1 X120.6540 Y121.2910 
G1 X120.6550 Y122.5120 
G1 X120.6540 Y123.0360 
; TYPE:WALL-INNER 
G11 
G1 X120.6530 Y126.9600 F2100 E77.6821 
G1 X116.5550 Y126.9600 E77.8255 
G1 X116.5550 Y122.8620 E77.9690 
G1 X120.4790 Y122.8610 E78.1063 
G1 X120.6540 Y122.8610 E78.1124 
G1 X120.6540 Y123.0360 E78.1164 
G1 X121.0040 Y122.6860 F5760 
G1 X121.0030 Y127.3100 F2100 E78.2782 
G1 X116.2050 Y127.3100 E78.4462 
G1 X116.2050 Y122.5120 E78.6141 
G1 X120.8290 Y122.5110 E78.7759 
G1 X121.0040 Y122.5110 E78.7820 
G1 X121.0040 Y122.6860 E78.7860 
G1 X121.3290 Y122.3610 F5760 
; TYPE:WALL-OUTER 
G1 X121.3280 Y127.6350 F1800 E78.9706 
G1 X115.8800 Y127.6350 E79.1613 
G1 X115.8800 Y122.1870 E79.3520 
G1 X121.1540 Y122.1860 E79.5366 
G1 X121.3290 Y122.1860 E79.5427 
G1 X121.3290 Y122.3610 E79.5466 
G1 X121.3290 Y122.5610 F5760 
G1 X120.9040 Y122.5600 
G1 X120.3140 Y123.2010 
; TYPE:SKIN 
G1 X120.3130 Y126.6200 F1500 E79.6663 
G1 X116.8950 Y126.6200 E79.7859 
G1 X116.8950 Y123.2020 E79.9056 
G1 X120.3140 Y123.2010 E80.0252 
G1 X117.0530 Y123.5040 F5760 
G1 X117.1260 Y123.4310 
G1 X117.3730 Y123.6780 F1500 E80.0447 
G1 X116.9920 Y124.0600 
G1 X117.0530 Y124.4940 F5760 
G1 X118.1890 Y123.3580 F1500 E80.1009 
G1 X118.2500 Y123.2970 
G1 X118.6840 Y123.3580 F5760 
G1 X117.0530 Y124.9890 F1500 E80.1816 
G1 X116.9920 Y125.0500 
G1 X117.0530 Y125.4840 F5760 
G1 X119.1790 Y123.3580 F1500 E80.2868 
G1 X119.2400 Y123.2970 
G1 X119.6740 Y123.3580 F5760 
G1 X117.0530 Y125.9790 F1500 E80.4166 
G1 X116.9920 Y126.0400 
G1 X117.0650 Y126.4610 F5760 
G1 X120.1550 Y123.3710 F1500 E80.5695 
G1 X120.2160 Y123.3100 
G1 X120.1550 Y123.8660 F5760 
G1 X117.5600 Y126.4610 F1500 E80.6980 
G1 X117.4990 Y126.5220 
G1 X118.0550 Y126.4610 F5760 
G1 X120.1550 Y124.3610 F1500 E80.8019 
G1 X120.2160 Y124.3000 
G1 X120.1550 Y124.8560 F5760 
G1 X118.5500 Y126.4610 F1500 E80.8814 
G1 X118.4890 Y126.5220 
G1 X119.0450 Y126.4610 F5760 
G1 X120.1550 Y125.3520 F1500 E80.9363 
G1 X120.2160 Y125.2910 
G1 X120.1550 Y125.8470 F5760 
G1 X119.5400 Y126.4610 F1500 E80.9667 
G1 X119.4790 Y126.5220 
G1 X120.0350 Y126.4610 F5760 
G1 X120.1550 Y126.3420 F1500 E80.9726 
G10 
G1 X116.2250 Y126.7860 F5760 
G1 X114.9840 Y126.7860 
G1 X108.0160 Y126.7860 
G1 X106.7950 Y126.7870 
G1 X106.4460 Y126.7860 
; TYPE:WALL-INNER 
G11 
G1 X106.4460 Y126.9610 F2100 E80.9787 
G1 X106.2710 Y126.9610 E80.9827 
G1 X102.3470 Y126.9600 E81.1200 
G1 X102.3470 Y122.8620 E81.2635 
G1 X106.4450 Y122.8620 E81.4069 
G1 X106.4460 Y126.7860 E81.5442 
G1 X106.7960 Y127.1360 F5760 
G1 X106.7960 Y127.3110 F2100 E81.5504 
G1 X106.6210 Y127.3110 E81.5543 
G1 X101.9970 Y127.3100 E81.7162 
G1 X101.9970 Y122.5120 E81.8841 
G1 X106.7950 Y122.5120 E82.0520 
G1 X106.7960 Y127.1360 E82.2139 
G1 X107.1210 Y127.4610 F5760 
; TYPE:WALL-OUTER 
G1 X107.1210 Y127.6360 F1800 E82.2200 
G1 X106.9460 Y127.6360 E82.2240 
G1 X101.6720 Y127.6350 E82.4085 
G1 X101.6720 Y122.1870 E82.5992 
G1 X107.1200 Y122.1870 E82.7899 
G1 X107.1210 Y127.4610 E82.9745 
G1 X107.1210 Y127.6360 F5760 
G1 X107.0960 Y127.6360 
G1 X106.7260 Y127.2410 
G1 X106.1060 Y126.6210 
; TYPE:SKIN 
G1 X102.6870 Y126.6200 F1500 E83.0942 
G1 X102.6870 Y123.2020 E83.2138 
G1 X106.1050 Y123.2020 E83.3334 
G1 X106.1060 Y126.6210 E83.4531 
G1 X105.6800 Y126.4620 F5760 
G1 X105.9470 Y126.1950 F1500 E83.4663 
G1 X105.9470 Y125.7000 F5760 
G1 X105.1850 Y126.4620 F1500 E83.5040 
G1 X105.1240 Y126.5230 
G1 X104.6900 Y126.4620 F5760 
G1 X105.9470 Y125.2050 F1500 E83.5662 
G1 X106.0080 Y125.1440 
G1 X105.9470 Y124.7110 F5760 
G1 X104.1960 Y126.4610 F1500 E83.6529 
G1 X104.1350 Y126.5220 
G1 X103.7010 Y126.4610 F5760 
G1 X105.9470 Y124.2160 F1500 E83.7640 
G1 X106.0080 Y124.1550 
G1 X105.9470 Y123.7210 F5760 
G1 X103.2060 Y126.4610 F1500 E83.8997 
G1 X103.1450 Y126.5220 
G1 X102.8450 Y126.3280 F5760 
G1 X105.8140 Y123.3590 F1500 E84.0466 
G1 X105.8750 Y123.2980 
G1 X105.3190 Y123.3590 F5760 
G1 X102.8450 Y125.8330 F1500 E84.1691 
G1 X102.7840 Y125.8940 
G1 X102.8450 Y125.3380 F5760 
G1 X104.8240 Y123.3590 F1500 E84.2670 
G1 X104.8850 Y123.2980 
G1 X104.3290 Y123.3590 F5760 
G1 X102.8450 Y124.8430 F1500 E84.3405 
G1 X102.7840 Y124.9040 
G1 X102.8450 Y124.3480 F5760 
G1 X103.8340 Y123.3590 F1500 E84.3894 
G1 X103.8950 Y123.2980 
G1 X103.3390 Y123.3590 F5760 
G1 X102.8450 Y123.8530 F1500 E84.4139 
G10 
G1 X106.7810 Y122.5260 F5760 
G1 X106.7810 Y121.2910 
G1 X108.0040 Y114.3110 
G1 X110.4190 Y94.9190 
G1 X111.5000 Y94.2790 
G1 X111.4990 Y94.1990 
G1 X111.4040 Y94.6820 
; TIME_ELAPSED:53.251542 
; LAYER:2 
G1 X111.4040 Y94.6820 Z0.4700 F7200 
; TYPE:WALL-INNER 
G11 
G1 X111.3890 Y94.6270 F2400 E84.4159 
G1 X111.3270 Y94.3290 E84.4266 
G1 X111.2970 Y94.1880 E84.4316 
G1 X111.2270 Y93.7930 E84.4456 
G1 X111.2140 Y93.7140 E84.4484 
G1 X111.1850 Y93.5010 E84.4560 
G1 X111.2140 Y93.5010 
G1 X111.2950 Y93.5010 E84.4584 
G1 X111.7060 Y93.5010 E84.4728 
G1 X111.7860 Y93.5010 E84.4756 
G1 X111.8150 Y93.5010 E84.4766 
G1 X111.7860 Y93.7150 E84.4788 
G1 X111.7730 Y93.7930 E84.4811 
G1 X111.7030 Y94.1890 E84.4952 
G1 X111.6730 Y94.3290 E84.5002 
G1 X111.6110 Y94.6270 E84.5090 
G1 X111.5960 Y94.6820 E84.5110 
G1 X111.5210 Y94.9550 E84.5193 
G1 X111.5000 Y95.0310 E84.5220 
G1 X111.4710 Y94.9410 
G1 X111.4040 Y94.6820 
G1 X111.5000 Y94.6580 F7200 
G1 X111.4990 Y94.9310 
G1 X111.6720 Y95.5050 
; TYPE:WALL-OUTER 
G1 X111.6450 Y95.5700 F1800 E84.5245 
G1 X111.5600 Y95.7050 E84.5301 
G1 X111.5220 Y95.7420 E84.5320 
G1 X111.4990 Y95.7640 E84.5331 
G1 X111.4740 Y95.7390 
G1 X111.4400 Y95.7040 
G1 X111.3550 Y95.5690 
G1 X111.3280 Y95.5040 E84.5355 
G1 X111.2570 Y95.3340 E84.5420 
G1 X111.1620 Y95.0420 E84.5527 
G1 X111.0710 Y94.6940 E84.5653 
G1 X110.9790 Y94.2550 E84.5810 
G1 X110.8940 Y93.7700 E84.5982 
G1 X110.8400 Y93.3740 E84.6122 
G1 X110.8130 Y93.1760 E84.6192 
G1 X111.0120 Y93.1760 E84.6236 
G1 X111.0130 Y93.1760 E84.6236 
G1 X111.9870 Y93.1760 E84.6577 
G1 X111.9880 Y93.1760 E84.6577 
G1 X112.1870 Y93.1760 E84.6647 
G1 X112.1600 Y93.3740 E84.6691 
G1 X112.1060 Y93.7710 E84.6831 
G1 X112.0210 Y94.2560 E84.7003 
G1 X111.9290 Y94.6950 E84.7160 
G1 X111.8380 Y95.0430 E84.7286 
G1 X111.7430 Y95.3350 E84.7394 
G1 X111.6720 Y95.5050 E84.7458 
G1 X111.6450 Y95.5700 F7200 
G1 X111.5760 Y95.6800 
G1 X111.4990 Y94.9310 
G1 X111.5230 Y94.1990 
G1 X111.4920 Y94.1680 
G1 X111.4850 Y93.9140 F1200 E84.7484 
G1 X111.5450 Y93.7260 E84.7516 
G1 X111.5710 Y93.7230 F7200 
G10 
G1 X111.4080 Y94.6230 
G1 X110.3040 Y95.3000 
G1 X106.8180 Y107.0730 
G1 X106.8180 Y108.3090 
G1 X102.5120 Y108.6440 
; TYPE:WALL-INNER 
G11 
G1 X106.4820 Y108.6450 F2400 E84.8906 
G1 X106.4820 Y112.7890 E85.0356 
G1 X102.3380 Y112.7890 E85.1806 
G1 X102.3370 Y108.8190 E85.3196 
G1 X102.3370 Y108.6440 E85.3257 
G1 X102.5120 Y108.6440 E85.3297 
G1 X102.1620 Y108.2940 F7200 
G1 X106.8320 Y108.2950 F2400 E85.4931 
G1 X106.8320 Y113.1390 E85.6627 
G1 X101.9880 Y113.1390 E85.8322 
G1 X101.9870 Y108.4690 E85.9957 
G1 X101.9870 Y108.2940 E86.0018 
G1 X102.1620 Y108.2940 E86.0058 
G1 X101.8370 Y107.9690 F7200 
; TYPE:WALL-OUTER 
G1 X107.1570 Y107.9700 F1800 E86.1920 
G1 X107.1570 Y113.4640 E86.3842 
G1 X101.6630 Y113.4640 E86.5765 
G1 X101.6620 Y108.1440 E86.7627 
G1 X101.6620 Y107.9690 E86.7689 
G1 X101.8370 Y107.9690 E86.7728 
G1 X102.0370 Y107.9690 F7200 
G1 X102.0360 Y108.3940 
G1 X102.6770 Y108.9840 
; TYPE:SKIN 
G1 X106.1420 Y108.9850 F1200 E86.8941 
G1 X106.1420 Y112.4490 E87.0153 
G1 X102.6780 Y112.4490 E87.1366 
G1 X102.6770 Y108.9840 E87.2579 
G1 X105.9830 Y109.4480 F7200 
G1 X105.6770 Y109.1410 F1200 E87.2730 
G1 X105.1820 Y109.1410 F7200 
G1 X105.9830 Y109.9430 F1200 E87.3127 
G1 X106.0440 Y110.0040 
G1 X105.9830 Y110.4380 F7200 
G1 X104.6870 Y109.1410 F1200 E87.3769 
G1 X104.6260 Y109.0800 
G1 X104.1920 Y109.1410 F7200 
G1 X105.9830 Y110.9330 F1200 E87.4655 
G1 X106.0440 Y110.9940 
G1 X105.9830 Y111.4280 F7200 
G1 X103.6970 Y109.1410 F1200 E87.5787 
G1 X103.6360 Y109.0800 
G1 X103.2020 Y109.1410 F7200 
G1 X105.9830 Y111.9230 F1200 E87.7164 
G1 X106.0440 Y111.9840 
G1 X105.8550 Y112.2890 F7200 
G1 X102.8350 Y109.2690 F1200 E87.8659 
G1 X102.7740 Y109.2080 
G1 X102.8350 Y109.7640 F7200 
G1 X105.3600 Y112.2890 F1200 E87.9909 
G1 X105.4210 Y112.3500 
G1 X104.8650 Y112.2890 F7200 
G1 X102.8350 Y110.2590 F1200 E88.0913 
G1 X102.7740 Y110.1980 
G1 X102.8350 Y110.7540 F7200 
G1 X104.3700 Y112.2890 F1200 E88.1673 
G1 X104.4310 Y112.3500 
G1 X103.8750 Y112.2890 F7200 
G1 X102.8350 Y111.2490 F1200 E88.2188 
G1 X102.7740 Y111.1880 
G1 X102.8350 Y111.7440 F7200 
G1 X103.3800 Y112.2890 F1200 E88.2458 
G1 X103.4410 Y112.3500 
G1 X102.8850 Y112.2890 F7200 
G1 X102.8350 Y112.2390 F1200 E88.2482 
G10 
G1 X106.8120 Y108.8190 F7200 
G1 X108.0530 Y108.8190 
G1 X114.9470 Y108.8190 
G1 X116.1880 Y108.8190 
G1 X120.6630 Y108.8190 
; TYPE:WALL-INNER 
G11 
G1 X120.6620 Y112.7890 F2400 E88.3872 
G1 X116.5180 Y112.7890 E88.5322 
G1 X116.5180 Y108.6450 E88.6773 
G1 X120.4880 Y108.6440 E88.8162 
G1 X120.6630 Y108.6440 E88.8224 
G1 X120.6630 Y108.8190 E88.8263 
G1 X121.0130 Y108.4690 F7200 
G1 X121.0120 Y113.1390 F2400 E88.9898 
G1 X116.1680 Y113.1390 E89.1593 
G1 X116.1680 Y108.2950 E89.3289 
G1 X120.8380 Y108.2940 E89.4923 
G1 X121.0130 Y108.2940 E89.4984 
G1 X121.0130 Y108.4690 E89.5024 
G1 X121.3380 Y108.1440 F7200 
; TYPE:WALL-OUTER 
G1 X121.3370 Y113.4640 F1800 E89.6886 
G1 X115.8430 Y113.4640 E89.8809 
G1 X115.8430 Y107.9700 E90.0732 
G1 X121.1630 Y107.9690 E90.2594 
G1 X121.3380 Y107.9690 E90.2655 
G1 X121.3380 Y108.1440 E90.2695 
G1 X121.3380 Y108.3440 F7200 
G1 X120.9130 Y108.3430 
G1 X120.3230 Y108.9840 
; TYPE:SKIN 
G1 X120.3220 Y112.4490 F1200 E90.3907 
G1 X116.8580 Y112.4490 E90.5120 
G1 X116.8580 Y108.9850 E90.6332 
G1 X120.3230 Y108.9840 E90.7545 
G1 X120.0980 Y109.2080 F7200 
G1 X119.8500 Y109.4550 F1200 E90.7733 
G1 X120.2250 Y109.8300 
G1 X120.1640 Y110.2640 F7200 
G1 X119.0420 Y109.1420 F1200 E90.8288 
G1 X118.9810 Y109.0810 
G1 X118.5470 Y109.1420 F7200 
G1 X120.1640 Y110.7590 F1200 E90.9088 
G1 X120.2250 Y110.8200 
G1 X120.1640 Y111.2540 F7200 
G1 X118.0520 Y109.1420 F1200 E91.0134 
G1 X117.9910 Y109.0810 
G1 X117.5570 Y109.1420 F7200 
G1 X120.1640 Y111.7490 F1200 E91.1424 
G1 X120.2250 Y111.8100 
G1 X120.1640 Y112.2440 F7200 
G1 X117.0620 Y109.1420 F1200 E91.2959 
G1 X117.0010 Y109.0810 
G1 X117.0150 Y109.5900 F7200 
G1 X119.7150 Y112.2900 F1200 E91.4296 
G1 X119.7760 Y112.3510 
G1 X119.2200 Y112.2900 F7200 
G1 X117.0150 Y110.0850 F1200 E91.5387 
G1 X116.9540 Y110.0240 
G1 X117.0150 Y110.5800 F7200 
G1 X118.7250 Y112.2900 F1200 E91.6234 
G1 X118.7860 Y112.3510 
G1 X118.2300 Y112.2900 F7200 
G1 X117.0150 Y111.0750 F1200 E91.6835 
G1 X116.9540 Y111.0140 
G1 X117.0150 Y111.5700 F7200 
G1 X117.7350 Y112.2900 F1200 E91.7191 
G1 X117.7960 Y112.3510 
G1 X117.2400 Y112.2900 F7200 
G1 X117.0150 Y112.0650 F1200 E91.7303 
G10 
G1 X120.6630 Y113.1190 F7200 
G1 X120.6630 Y114.3600 
G1 X120.6630 Y121.2540 
G1 X120.6640 Y122.4750 
G1 X120.6630 Y122.9990 
; TYPE:WALL-INNER 
G11 
G1 X120.6620 Y126.9690 F2400 E91.8692 
G1 X116.5180 Y126.9690 E92.0143 
G1 X116.5180 Y122.8250 E92.1593 
G1 X120.4880 Y122.8240 E92.2983 
G1 X120.6630 Y122.8240 E92.3044 
G1 X120.6630 Y122.9990 E92.3084 
G1 X121.0130 Y122.6490 F7200 
G1 X121.0120 Y127.3190 F2400 E92.4718 
G1 X116.1680 Y127.3190 E92.6413 
G1 X116.1680 Y122.4750 E92.8109 
G1 X120.8380 Y122.4740 E92.9743 
G1 X121.0130 Y122.4740 E92.9805 
G1 X121.0130 Y122.6490 E92.9844 
G1 X121.3380 Y122.3240 F7200 
; TYPE:WALL-OUTER 
G1 X121.3370 Y127.6440 F1800 E93.1706 
G1 X115.8430 Y127.6440 E93.3629 
G1 X115.8430 Y122.1500 E93.5552 
G1 X121.1630 Y122.1490 E93.7414 
G1 X121.3380 Y122.1490 E93.7475 
G1 X121.3380 Y122.3240 E93.7515 
G1 X121.3380 Y122.5240 F7200 
G1 X120.9130 Y122.5230 
G1 X120.3230 Y123.1640 
; TYPE:SKIN 
G1 X120.3220 Y126.6290 F1200 E93.8728 
G1 X116.8580 Y126.6290 E93.9940 
G1 X116.8580 Y123.1650 E94.1152 
G1 X120.3230 Y123.1640 E94.2365 
G1 X120.1650 Y123.6290 F7200 
G1 X119.8570 Y123.3220 F1200 E94.2517 
G1 X119.3620 Y123.3220 F7200 
G1 X120.1650 Y124.1240 F1200 E94.2915 
G1 X120.2260 Y124.1850 
G1 X120.1650 Y124.6190 F7200 
G1 X118.8670 Y123.3220 F1200 E94.3557 
G1 X118.8060 Y123.2610 
G1 X118.3720 Y123.3220 F7200 
G1 X120.1650 Y125.1140 F1200 E94.4444 
G1 X120.2260 Y125.1750 
G1 X120.1650 Y125.6090 F7200 
G1 X117.8770 Y123.3220 F1200 E94.5576 
G1 X117.8160 Y123.2610 
G1 X117.3820 Y123.3220 F7200 
G1 X120.1650 Y126.1040 F1200 E94.6954 
G1 X120.2260 Y126.1650 
G1 X120.0350 Y126.4700 F7200 
G1 X117.0160 Y123.4500 F1200 E94.8448 
G1 X116.9550 Y123.3890 
G1 X117.0160 Y123.9450 F7200 
G1 X119.5400 Y126.4700 F1200 E94.9698 
G1 X119.6010 Y126.5310 
G1 X119.0450 Y126.4700 F7200 
G1 X117.0160 Y124.4400 F1200 E95.0702 
G1 X116.9550 Y124.3790 
G1 X117.0160 Y124.9350 F7200 
G1 X118.5500 Y126.4700 F1200 E95.1462 
G1 X118.6110 Y126.5310 
G1 X118.0550 Y126.4700 F7200 
G1 X117.0160 Y125.4300 F1200 E95.1976 
G1 X116.9550 Y125.3690 
G1 X117.0160 Y125.9250 F7200 
G1 X117.5600 Y126.4700 F1200 E95.2246 
G1 X117.6210 Y126.5310 
G1 X117.0650 Y126.4700 F7200 
G1 X117.0160 Y126.4200 F1200 E95.2270 
G10 
G1 X116.1880 Y126.7950 F7200 
G1 X114.9470 Y126.7950 
G1 X108.0530 Y126.7950 
G1 X106.8320 Y126.7960 
G1 X106.4830 Y126.7950 
; TYPE:WALL-INNER 
G11 
G1 X106.4830 Y126.9700 F2400 E95.2332 
G1 X106.3080 Y126.9700 E95.2371 
G1 X102.3380 Y126.9690 E95.3761 
G1 X102.3380 Y122.8250 E95.5211 
G1 X106.4820 Y122.8250 E95.6662 
G1 X106.4830 Y126.7950 E95.8051 
G1 X106.8330 Y127.1450 F7200 
G1 X106.8330 Y127.3200 F2400 E95.8112 
G1 X106.6580 Y127.3200 E95.8152 
G1 X101.9880 Y127.3190 E95.9786 
G1 X101.9880 Y122.4750 E96.1482 
G1 X106.8320 Y122.4750 E96.3177 
G1 X106.8330 Y127.1450 E96.4812 
G1 X107.1580 Y127.4700 F7200 
; TYPE:WALL-OUTER 
G1 X107.1580 Y127.6450 F1800 E96.4873 
G1 X106.9830 Y127.6450 E96.4913 
G1 X101.6630 Y127.6440 E96.6775 
G1 X101.6630 Y122.1500 E96.8697 
G1 X107.1570 Y122.1500 E97.0620 
G1 X107.1580 Y127.4700 E97.2482 
G1 X107.1580 Y127.6450 F7200 
G1 X107.1330 Y127.6450 
G1 X106.7630 Y127.2500 
G1 X106.1430 Y126.6300 
; TYPE:SKIN 
G1 X102.6780 Y126.6290 F1200 E97.3695 
G1 X102.6780 Y123.1650 E97.4908 
G1 X106.1420 Y123.1650 E97.6120 
G1 X106.1430 Y126.6300 E97.7333 
G1 X105.9840 Y123.8030 F7200 
G1 X105.5030 Y123.3220 F1200 E97.7571 
G1 X105.0080 Y123.3220 F7200 
G1 X105.9840 Y124.2980 F1200 E97.8054 
G1 X106.0450 Y124.3590 
G1 X105.9840 Y124.7930 F7200 
G1 X104.5130 Y123.3220 F1200 E97.8782 
G1 X104.4520 Y123.2610 
G1 X104.0180 Y123.3220 F7200 
G1 X105.9840 Y125.2880 F1200 E97.9755 
G1 X106.0450 Y125.3490 
G1 X105.9840 Y125.7830 F7200 
G1 X103.5230 Y123.3220 F1200 E98.0973 
G1 X103.4620 Y123.2610 
G1 X103.0280 Y123.3220 F7200 
G1 X105.9840 Y126.2780 F1200 E98.2436 
G1 X106.0450 Y126.3390 
G1 X105.6810 Y126.4700 F7200 
G1 X102.8350 Y123.6240 F1200 E98.3845 
G1 X102.7740 Y123.5630 
G1 X102.8350 Y124.1190 F7200 
G1 X105.1860 Y126.4700 F1200 E98.5009 
G1 X105.2470 Y126.5310 
G1 X104.6910 Y126.4700 F7200 
G1 X102.8350 Y124.6140 F1200 E98.5927 
G1 X102.7740 Y124.5530 
G1 X102.8350 Y125.1090 F7200 
G1 X104.1960 Y126.4700 F1200 E98.6601 
G1 X104.2570 Y126.5310 
G1 X103.7010 Y126.4700 F7200 
G1 X102.8350 Y125.6040 F1200 E98.7030 
G1 X102.7740 Y125.5430 
G1 X102.8350 Y126.0990 F7200 
G1 X103.2060 Y126.4700 F1200 E98.7213 
G10 
G1 X106.8180 Y122.4890 F7200 
G1 X106.8180 Y121.2540 
G1 X108.0410 Y114.3480 
G1 X110.4190 Y95.6520 
G1 X111.5000 Y95.0110 
G1 X111.4970 Y93.6010 
G1 X111.4970 Y93.5730 
; TIME_ELAPSED:73.758656 
; LAYER:3 
G1 X111.4970 Y93.5730 Z0.5700 
; TYPE:WALL-INNER 
G11 
G1 X111.5860 Y93.5370 F2400 E98.7247 
G1 X111.6750 Y93.5010 E98.7281 
G1 X111.9150 Y93.5010 E98.7365 
G1 X111.9110 Y93.5320 
G1 X111.8990 Y93.6270 E98.7394 
G1 X111.7860 Y94.4490 E98.7684 
G1 X111.7030 Y94.9230 E98.7852 
G1 X111.6730 Y95.0630 E98.7902 
G1 X111.6110 Y95.3610 E98.8009 
G1 X111.5960 Y95.4160 E98.8029 
G1 X111.5200 Y95.6930 E98.8129 
G1 X111.5000 Y95.7650 E98.8156 
G1 X111.4720 Y95.6790 
G1 X111.4030 Y95.4150 
G1 X111.3890 Y95.3610 
G1 X111.3270 Y95.0630 E98.8243 
G1 X111.2970 Y94.9220 E98.8294 
G1 X111.2160 Y94.4570 E98.8459 
G1 X111.1030 Y93.6320 E98.8750 
G1 X111.0900 Y93.5320 E98.8785 
G1 X111.0850 Y93.5010 E98.8796 
G1 X111.3210 Y93.5010 E98.8825 
G1 X111.4140 Y93.5390 E98.8855 
G1 X111.4970 Y93.5730 E98.8886 
G1 X111.4980 Y93.2220 F7200 
; TYPE:WALL-OUTER 
G1 X111.6110 Y93.1760 F1800 E98.8929 
G1 X112.1730 Y93.1760 E98.9126 
G1 X112.2600 Y93.1760 E98.9156 
G1 X112.2780 Y93.1760 E98.9163 
G1 X112.2600 Y93.3740 E98.9181 
G1 X112.2490 Y93.4600 E98.9207 
G1 X112.1060 Y94.5050 E98.9576 
G1 X112.0210 Y94.9900 E98.9748 
G1 X111.9290 Y95.4290 E98.9905 
G1 X111.8380 Y95.7760 E99.0031 
G1 X111.7390 Y96.0810 E99.0143 
G1 X111.6720 Y96.2380 E99.0203 
G1 X111.6480 Y96.2970 E99.0225 
G1 X111.5650 Y96.4290 E99.0280 
G1 X111.5580 Y96.4410 E99.0285 
G1 X111.5250 Y96.4730 E99.0301 
G1 X111.4990 Y96.4980 E99.0313 
G1 X111.4720 Y96.4710 
G1 X111.4420 Y96.4400 
G1 X111.4360 Y96.4300 
G1 X111.3520 Y96.2960 E99.0314 
G1 X111.3280 Y96.2370 E99.0336 
G1 X111.2610 Y96.0800 E99.0396 
G1 X111.1620 Y95.7750 E99.0508 
G1 X111.0710 Y95.4280 E99.0633 
G1 X110.9790 Y94.9890 E99.0790 
G1 X110.8940 Y94.5040 E99.0963 
G1 X110.7510 Y93.4600 E99.1332 
G1 X110.7400 Y93.3740 E99.1362 
G1 X110.7220 Y93.1760 E99.1432 
G1 X110.7400 Y93.1760 
G1 X110.8270 Y93.1760 E99.1457 
G1 X111.3860 Y93.1760 E99.1653 
G1 X111.4980 Y93.2220 E99.1695 
G1 X111.6110 Y93.1760 F7200 
G1 X111.6890 Y93.1760 
G1 X111.5240 Y93.8890 
G1 X111.5200 Y94.1410 F1200 E99.1779 
G1 X111.5160 Y94.3920 E99.1846 
G1 X111.5120 Y94.6430 E99.1894 
G1 X111.5050 Y94.8980 E99.1920 
G1 X111.4740 Y94.9290 F7200 
G1 X111.3080 Y93.8580 
; TYPE:SKIN 
G1 X111.4320 Y93.7340 F1200 E99.1951 
G1 X111.4970 Y93.9230 F7200 
G10 
G1 X111.4080 Y95.3570 
G1 X110.3040 Y96.0330 
G1 X106.8540 Y107.0650 
G1 X106.8540 Y108.3010 
G1 X102.5040 Y108.6360 
; TYPE:WALL-INNER 
G11 
G1 X106.5180 Y108.6370 F2400 E99.3356 
G1 X106.5180 Y112.8250 E99.4821 
G1 X102.3300 Y112.8250 E99.6287 
G1 X102.3290 Y108.8110 E99.7692 
G1 X102.3290 Y108.6360 E99.7753 
G1 X102.5040 Y108.6360 E99.7793 
G1 X102.1540 Y108.2860 F7200 
G1 X106.8680 Y108.2870 F2400 E99.9443 
G1 X106.8680 Y113.1750 E100.1154 
G1 X101.9800 Y113.1750 E100.2865 
G1 X101.9790 Y108.4610 E100.4514 
G1 X101.9790 Y108.2860 E100.4576 
G1 X102.1540 Y108.2860 E100.4615 
G1 X101.8290 Y107.9610 F7200 
; TYPE:WALL-OUTER 
G1 X107.1930 Y107.9620 F1800 E100.6493 
G1 X107.1930 Y113.5000 E100.8431 
G1 X101.6550 Y113.5000 E101.0369 
G1 X101.6540 Y108.1360 E101.2247 
G1 X101.6540 Y107.9610 E101.2308 
G1 X101.8290 Y107.9610 E101.2348 
G1 X102.0290 Y107.9610 F7200 
G1 X102.0280 Y108.3860 
G1 X102.6690 Y108.9760 
; TYPE:SKIN 
G1 X106.1780 Y108.9770 F1200 E101.3576 
G1 X106.1780 Y112.4850 E101.4804 
G1 X102.6700 Y112.4850 E101.6031 
G1 X102.6690 Y108.9760 E101.7259 
G1 X102.8280 Y109.5150 F7200 
G1 X103.2100 Y109.1330 F1200 E101.7448 
G1 X103.7050 Y109.1330 F7200 
G1 X102.8280 Y110.0100 F1200 E101.7883 
G1 X102.7670 Y110.0710 
G1 X102.8280 Y110.5050 F7200 
G1 X104.2000 Y109.1330 F1200 E101.8562 
G1 X104.2610 Y109.0720 
G1 X104.6950 Y109.1330 F7200 
G1 X102.8280 Y111.0000 F1200 E101.9486 
G1 X102.7670 Y111.0610 
G1 X102.8280 Y111.4950 F7200 
G1 X105.1900 Y109.1330 F1200 E102.0655 
G1 X105.2510 Y109.0720 
G1 X105.6850 Y109.1330 F7200 
G1 X102.8280 Y111.9900 F1200 E102.2069 
G1 X102.7670 Y112.0510 
G1 X102.9870 Y112.3260 F7200 
G1 X106.0200 Y109.2930 F1200 E102.3570 
G1 X106.0810 Y109.2320 
G1 X106.0200 Y109.7880 F7200 
G1 X103.4820 Y112.3260 F1200 E102.4827 
G1 X103.4210 Y112.3870 
G1 X103.9770 Y112.3260 F7200 
G1 X106.0200 Y110.2830 F1200 E102.5838 
G1 X106.0810 Y110.2220 
G1 X106.0200 Y110.7780 F7200 
G1 X104.4720 Y112.3260 F1200 E102.6604 
G1 X104.4110 Y112.3870 
G1 X104.9670 Y112.3260 F7200 
G1 X106.0200 Y111.2730 F1200 E102.7125 
G1 X106.0810 Y111.2120 
G1 X106.0200 Y111.7680 F7200 
G1 X105.4620 Y112.3260 F1200 E102.7401 
G1 X105.4010 Y112.3870 
G1 X105.9570 Y112.3260 F7200 
G1 X106.0200 Y112.2630 F1200 E102.7433 
G10 
G1 X106.8480 Y108.8110 F7200 
G1 X108.0890 Y108.8110 
G1 X114.9110 Y108.8110 
G1 X116.1520 Y108.8110 
G1 X120.6710 Y108.8110 
; TYPE:WALL-INNER 
G11 
G1 X120.6700 Y112.8250 F2400 E102.8838 
G1 X116.4820 Y112.8250 E103.0303 
G1 X116.4820 Y108.6370 E103.1769 
G1 X120.4960 Y108.6360 E103.3174 
G1 X120.6710 Y108.6360 E103.3235 
G1 X120.6710 Y108.8110 E103.3275 
G1 X121.0210 Y108.4610 F7200 
G1 X121.0200 Y113.1750 F2400 E103.4925 
G1 X116.1320 Y113.1750 E103.6636 
G1 X116.1320 Y108.2870 E103.8346 
G1 X120.8460 Y108.2860 E103.9996 
G1 X121.0210 Y108.2860 E104.0058 
G1 X121.0210 Y108.4610 E104.0097 
G1 X121.3460 Y108.1360 F7200 
; TYPE:WALL-OUTER 
G1 X121.3450 Y113.5000 F1800 E104.1975 
G1 X115.8070 Y113.5000 E104.3913 
G1 X115.8070 Y107.9620 E104.5851 
G1 X121.1710 Y107.9610 E104.7729 
G1 X121.3460 Y107.9610 E104.7790 
G1 X121.3460 Y108.1360 E104.7829 
G1 X121.3460 Y108.3360 F7200 
G1 X120.9210 Y108.3350 
G1 X120.3310 Y108.9760 
; TYPE:SKIN 
G1 X120.3300 Y112.4850 F1200 E104.9058 
G1 X116.8220 Y112.4850 E105.0285 
G1 X116.8220 Y108.9770 E105.1513 
G1 X120.3310 Y108.9760 E105.2741 
G1 X116.9790 Y109.2230 F7200 
G1 X117.0240 Y109.1780 
G1 X117.2710 Y109.4260 F1200 E105.2908 
G1 X116.9180 Y109.7790 
G1 X116.9790 Y110.2130 F7200 
G1 X118.0590 Y109.1340 F1200 E105.3442 
G1 X118.1200 Y109.0730 
G1 X118.5540 Y109.1340 F7200 
G1 X116.9790 Y110.7080 F1200 E105.4221 
G1 X116.9180 Y110.7690 
G1 X116.9790 Y111.2030 F7200 
G1 X119.0490 Y109.1340 F1200 E105.5246 
G1 X119.1100 Y109.0730 
G1 X119.5440 Y109.1340 F7200 
G1 X116.9790 Y111.6980 F1200 E105.6515 
G1 X116.9180 Y111.7590 
G1 X116.9790 Y112.1930 F7200 
G1 X120.0390 Y109.1340 F1200 E105.8029 
G1 X120.1000 Y109.0730 
G1 X120.1710 Y109.4960 F7200 
G1 X117.3410 Y112.3260 F1200 E105.9430 
G1 X117.2800 Y112.3870 
G1 X117.8360 Y112.3260 F7200 
G1 X120.1710 Y109.9910 F1200 E106.0586 
G1 X120.2320 Y109.9300 
G1 X120.1710 Y110.4860 F7200 
G1 X118.3310 Y112.3260 F1200 E106.1497 
G1 X118.2700 Y112.3870 
G1 X118.8260 Y112.3260 F7200 
G1 X120.1710 Y110.9810 F1200 E106.2163 
G1 X120.2320 Y110.9200 
G1 X120.1710 Y111.4760 F7200 
G1 X119.3210 Y112.3260 F1200 E106.2583 
G1 X119.2600 Y112.3870 
G1 X119.8160 Y112.3260 F7200 
G1 X120.1710 Y111.9710 F1200 E106.2759 
G10 
G1 X120.6710 Y113.1550 F7200 
G1 X120.6710 Y114.3960 
G1 X120.6710 Y121.2180 
G1 X120.6710 Y122.4590 
G1 X120.6710 Y126.8020 
; TYPE:WALL-INNER 
G11 
G1 X120.6710 Y126.9770 F2400 E106.2820 
G1 X120.4960 Y126.9770 E106.2860 
G1 X116.4820 Y126.9770 E106.4265 
G1 X116.4820 Y122.7890 E106.5730 
G1 X120.6700 Y122.7890 E106.7196 
G1 X120.6710 Y126.8020 E106.8601 
G1 X121.0210 Y127.1520 F7200 
G1 X121.0210 Y127.3270 F2400 E106.8662 
G1 X120.8460 Y127.3270 E106.8702 
G1 X116.1320 Y127.3270 E107.0352 
G1 X116.1320 Y122.4390 E107.2062 
G1 X121.0200 Y122.4390 E107.3773 
G1 X121.0210 Y127.1520 E107.5423 
G1 X121.3460 Y127.4770 F7200 
; TYPE:WALL-OUTER 
G1 X121.3460 Y127.6520 F1800 E107.5484 
G1 X121.1710 Y127.6520 E107.5524 
G1 X115.8070 Y127.6520 E107.7401 
G1 X115.8070 Y122.1140 E107.9339 
G1 X121.3450 Y122.1140 E108.1278 
G1 X121.3460 Y127.4770 E108.3155 
G1 X121.3460 Y127.6520 F7200 
G1 X121.3210 Y127.6520 
G1 X120.9510 Y127.2570 
G1 X120.3310 Y126.6370 
; TYPE:SKIN 
G1 X116.8220 Y126.6370 F1200 E108.4383 
G1 X116.8220 Y123.1290 E108.5611 
G1 X120.3300 Y123.1290 E108.6839 
G1 X120.3310 Y126.6370 E108.8066 
G1 X120.0950 Y126.4010 F7200 
G1 X119.8470 Y126.1540 F1200 E108.8264 
G1 X120.2330 Y125.7690 
G1 X120.1720 Y125.3350 F7200 
G1 X119.0280 Y126.4780 F1200 E108.8830 
G1 X118.9670 Y126.5390 
G1 X118.5330 Y126.4780 F7200 
G1 X120.1720 Y124.8400 F1200 E108.9641 
G1 X120.2330 Y124.7790 
G1 X120.1720 Y124.3450 F7200 
G1 X118.0380 Y126.4780 F1200 E109.0697 
G1 X117.9770 Y126.5390 
G1 X117.5430 Y126.4780 F7200 
G1 X120.1720 Y123.8500 F1200 E109.1998 
G1 X120.2330 Y123.7890 
G1 X120.1720 Y123.3550 F7200 
G1 X117.0480 Y126.4780 F1200 E109.3544 
G1 X116.9870 Y126.5390 
G1 X116.9800 Y126.0520 F7200 
G1 X119.7460 Y123.2860 F1200 E109.4914 
G1 X119.8070 Y123.2250 
G1 X119.2510 Y123.2860 F7200 
G1 X116.9800 Y125.5570 F1200 E109.6038 
G1 X116.9190 Y125.6180 
G1 X116.9800 Y125.0620 F7200 
G1 X118.7560 Y123.2860 F1200 E109.6917 
G1 X118.8170 Y123.2250 
G1 X118.2610 Y123.2860 F7200 
G1 X116.9800 Y124.5670 F1200 E109.7551 
G1 X116.9190 Y124.6280 
G1 X116.9800 Y124.0720 F7200 
G1 X117.7660 Y123.2860 F1200 E109.7940 
G1 X117.8270 Y123.2250 
G1 X117.2710 Y123.2860 F7200 
G1 X116.9800 Y123.5770 F1200 E109.8084 
G10 
G1 X116.1520 Y126.9770 F7200 
G1 X114.9110 Y126.9770 
G1 X108.0890 Y126.9770 
G1 X106.8680 Y126.9780 
G1 X102.5040 Y126.9770 
; TYPE:WALL-INNER 
G11 
G1 X102.3290 Y126.9770 F2400 E109.8145 
G1 X102.3290 Y126.8020 E109.8185 
G1 X102.3300 Y122.7890 E109.9589 
G1 X106.5180 Y122.7890 E110.1055 
G1 X106.5190 Y126.8030 E110.2460 
G1 X106.5190 Y126.9780 E110.2521 
G1 X106.3440 Y126.9780 E110.2561 
G1 X102.5040 Y126.9770 E110.3905 
G1 X102.1540 Y127.3270 F7200 
G1 X101.9790 Y127.3270 F2400 E110.3966 
G1 X101.9790 Y127.1520 E110.4006 
G1 X101.9800 Y122.4390 E110.5655 
G1 X106.8680 Y122.4390 E110.7366 
G1 X106.8690 Y127.1530 E110.9016 
G1 X106.8690 Y127.3280 E110.9077 
G1 X106.6940 Y127.3280 E110.9117 
G1 X102.1540 Y127.3270 E111.0706 
G1 X101.8290 Y127.6520 F7200 
; TYPE:WALL-OUTER 
G1 X101.6540 Y127.6520 F1800 E111.0767 
G1 X101.6540 Y127.4770 E111.0807 
G1 X101.6550 Y122.1140 E111.2684 
G1 X107.1930 Y122.1140 E111.4622 
G1 X107.1940 Y127.4780 E111.6500 
G1 X107.1940 Y127.6530 E111.6561 
G1 X107.0190 Y127.6530 E111.6600 
G1 X101.8290 Y127.6520 E111.8417 
G1 X101.6540 Y127.6520 F7200 
G1 X101.6540 Y127.6270 
G1 X102.0490 Y127.2570 
G1 X102.6690 Y126.6370 
; TYPE:SKIN 
G1 X102.6700 Y123.1290 F1200 E111.9645 
G1 X106.1780 Y123.1290 E112.0873 
G1 X106.1790 Y126.6380 E112.2101 
G1 X102.6690 Y126.6370 E112.3329 
G1 X102.8280 Y123.3750 F7200 
G1 X102.8720 Y123.3300 
G1 X103.1200 Y123.5780 F1200 E112.3496 
G1 X102.7670 Y123.9310 
G1 X102.8280 Y124.3650 F7200 
G1 X103.9070 Y123.2860 F1200 E112.4030 
G1 X103.9680 Y123.2250 
G1 X104.4020 Y123.2860 F7200 
G1 X102.8280 Y124.8600 F1200 E112.4809 
G1 X102.7670 Y124.9210 
G1 X102.8270 Y125.3550 F7200 
G1 X104.8970 Y123.2860 F1200 E112.5834 
G1 X104.9580 Y123.2250 
G1 X105.3920 Y123.2860 F7200 
G1 X102.8270 Y125.8500 F1200 E112.7103 
G1 X102.7660 Y125.9110 
G1 X102.8270 Y126.3450 F7200 
G1 X105.8870 Y123.2860 F1200 E112.8618 
G1 X105.9480 Y123.2250 
G1 X106.0200 Y123.6480 F7200 
G1 X103.1890 Y126.4780 F1200 E113.0019 
G1 X103.1280 Y126.5390 
G1 X103.6840 Y126.4780 F7200 
G1 X106.0200 Y124.1430 F1200 E113.1175 
G1 X106.0810 Y124.0820 
G1 X106.0200 Y124.6380 F7200 
G1 X104.1790 Y126.4780 F1200 E113.2086 
G1 X104.1180 Y126.5390 
G1 X104.6730 Y126.4790 F7200 
G1 X106.0200 Y125.1320 F1200 E113.2752 
G1 X106.0810 Y125.0710 
G1 X106.0200 Y125.6270 F7200 
G1 X105.1680 Y126.4790 F1200 E113.3174 
G1 X105.1070 Y126.5400 
G1 X105.6630 Y126.4790 F7200 
G1 X106.0200 Y126.1220 F1200 E113.3351 
G10 
G1 X106.8540 Y122.4530 F7200 
G1 X106.8540 Y121.2180 
G1 X108.0770 Y114.3840 
G1 X110.4190 Y96.3870 
G1 X111.5000 Y95.7460 
G1 X111.5000 Y94.6850 
; TIME_ELAPSED:94.665488 
; LAYER:4 
G1 X111.5000 Y94.6850 Z0.6700 
; TYPE:WALL-INNER 
G11 
G1 X111.4970 Y94.6650 F2400 E113.3358 
G1 X111.5030 Y94.6640 E113.3360 
G1 X111.5000 Y94.6850 
G1 X111.4930 Y94.2970 F7200 
G1 X111.6370 Y94.2470 F2400 E113.3413 
G1 X111.8510 Y94.1740 E113.3492 
G1 X111.9340 Y94.0900 E113.3534 
G1 X111.9220 Y94.1830 
G1 X111.8920 Y94.4060 E113.3586 
G1 X111.7860 Y95.1820 E113.3860 
G1 X111.7030 Y95.6570 E113.4029 
G1 X111.6730 Y95.7970 E113.4079 
G1 X111.6110 Y96.0940 E113.4185 
G1 X111.5960 Y96.1490 E113.4205 
G1 X111.5210 Y96.4220 E113.4304 
G1 X111.5000 Y96.4980 E113.4332 
G1 X111.4710 Y96.4080 
G1 X111.4040 Y96.1490 
G1 X111.3890 Y96.0940 E113.4336 
G1 X111.3270 Y95.7970 E113.4423 
G1 X111.2970 Y95.6560 E113.4473 
G1 X111.2140 Y95.1820 E113.4642 
G1 X111.1090 Y94.4100 E113.4915 
G1 X111.0780 Y94.1800 E113.4996 
G1 X111.0660 Y94.0910 E113.5027 
G1 X111.1460 Y94.1710 
G1 X111.3650 Y94.2500 E113.5081 
G1 X111.4930 Y94.2970 E113.5128 
G1 X111.4960 Y93.9520 F7200 
; TYPE:WALL-OUTER 
G1 X111.6740 Y93.8910 F1800 E113.5194 
G1 X111.7880 Y93.7770 E113.5251 
G1 X111.8740 Y93.6360 E113.5308 
G1 X111.9430 Y93.4730 E113.5370 
G1 X111.9800 Y93.3630 E113.5411 
G1 X112.0100 Y93.2720 E113.5444 
G1 X112.0350 Y93.1760 E113.5479 
G1 X112.3480 Y93.1760 E113.5589 
G1 X112.3460 Y93.2030 
G1 X112.3370 Y93.3020 
G1 X112.3280 Y93.3970 E113.5621 
G1 X112.2600 Y94.1080 E113.5871 
G1 X112.1060 Y95.2380 E113.6270 
G1 X112.0210 Y95.7240 E113.6443 
G1 X111.9290 Y96.1620 E113.6600 
G1 X111.8380 Y96.5100 E113.6726 
G1 X111.7390 Y96.8140 E113.6837 
G1 X111.6720 Y96.9710 E113.6897 
G1 X111.6480 Y97.0300 E113.6919 
G1 X111.5660 Y97.1620 E113.6974 
G1 X111.5570 Y97.1770 E113.6980 
G1 X111.5160 Y97.2130 E113.6999 
G1 X111.4970 Y97.2300 E113.7008 
G1 X111.4730 Y97.2060 
G1 X111.4430 Y97.1760 
G1 X111.4350 Y97.1630 
G1 X111.3520 Y97.0290 
G1 X111.3280 Y96.9700 E113.7030 
G1 X111.2610 Y96.8130 E113.7090 
G1 X111.1620 Y96.5090 E113.7202 
G1 X111.0710 Y96.1610 E113.7328 
G1 X110.9790 Y95.7230 E113.7484 
G1 X110.8940 Y95.2380 E113.7657 
G1 X110.7400 Y94.1080 E113.8056 
G1 X110.6720 Y93.3930 E113.8307 
G1 X110.6550 Y93.2060 E113.8373 
G1 X110.6520 Y93.1760 E113.8384 
G1 X110.9650 Y93.1760 E113.8434 
G1 X111.0200 Y93.3560 E113.8496 
G1 X111.0570 Y93.4730 E113.8539 
G1 X111.1300 Y93.6430 E113.8604 
G1 X111.2120 Y93.7770 E113.8659 
G1 X111.3250 Y93.8900 E113.8715 
G1 X111.4960 Y93.9520 E113.8779 
G1 X111.6740 Y93.8910 F7200 
G1 X111.6820 Y93.8830 
G1 X111.5560 Y94.2760 
G10 
G1 X111.5870 Y94.3700 
G1 X111.4080 Y96.0900 
G1 X110.3040 Y96.7670 
G1 X106.8910 Y107.0560 
G1 X106.8910 Y108.2920 
G1 X102.4950 Y108.6270 
; TYPE:WALL-INNER 
G11 
G1 X106.5550 Y108.6280 F2400 E114.0200 
G1 X106.5550 Y112.8620 E114.1682 
G1 X102.3210 Y112.8620 E114.3163 
G1 X102.3200 Y108.8020 E114.4584 
G1 X102.3200 Y108.6270 E114.4646 
G1 X102.4950 Y108.6270 E114.4685 
G1 X102.1450 Y108.2770 F7200 
G1 X106.9050 Y108.2780 F2400 E114.6351 
G1 X106.9050 Y113.2120 E114.8078 
G1 X101.9710 Y113.2120 E114.9805 
G1 X101.9700 Y108.4520 E115.1471 
G1 X101.9700 Y108.2770 E115.1532 
G1 X102.1450 Y108.2770 E115.1572 
G1 X101.8200 Y107.9520 F7200 
; TYPE:WALL-OUTER 
G1 X107.2300 Y107.9530 F1800 E115.3466 
G1 X107.2300 Y113.5370 E115.5420 
G1 X101.6460 Y113.5370 E115.7374 
G1 X101.6450 Y108.1270 E115.9268 
G1 X101.6450 Y107.9520 E115.9329 
G1 X101.8200 Y107.9520 E115.9369 
G1 X102.0200 Y107.9520 F7200 
G1 X102.0190 Y108.3770 
G1 X102.6600 Y108.9670 
; TYPE:SKIN 
G1 X106.2150 Y108.9680 F1200 E116.0613 
G1 X106.2150 Y112.5220 E116.1857 
G1 X102.6610 Y112.5220 E116.3101 
G1 X102.6600 Y108.9670 E116.4345 
G1 X106.0560 Y109.5210 F7200 
G1 X105.6600 Y109.1250 F1200 E116.4541 
G1 X105.1650 Y109.1250 F7200 
G1 X106.0560 Y110.0160 F1200 E116.4982 
G1 X106.1170 Y110.0770 
G1 X106.0560 Y110.5110 F7200 
G1 X104.6700 Y109.1250 F1200 E116.5668 
G1 X104.6090 Y109.0640 
G1 X104.1750 Y109.1240 F7200 
G1 X106.0560 Y111.0060 F1200 E116.6599 
G1 X106.1170 Y111.0670 
G1 X106.0560 Y111.5010 F7200 
G1 X103.6800 Y109.1240 F1200 E116.7776 
G1 X103.6190 Y109.0630 
G1 X103.1850 Y109.1240 F7200 
G1 X106.0560 Y111.9960 F1200 E116.9197 
G1 X106.1170 Y112.0570 
G1 X105.9280 Y112.3620 F7200 
G1 X102.8180 Y109.2520 F1200 E117.0736 
G1 X102.7570 Y109.1910 
G1 X102.8180 Y109.7470 F7200 
G1 X105.4330 Y112.3620 F1200 E117.2031 
G1 X105.4940 Y112.4230 
G1 X104.9380 Y112.3620 F7200 
G1 X102.8180 Y110.2420 F1200 E117.3080 
G1 X102.7570 Y110.1810 
G1 X102.8180 Y110.7370 F7200 
G1 X104.4430 Y112.3620 F1200 E117.3885 
G1 X104.5040 Y112.4230 
G1 X103.9480 Y112.3620 F7200 
G1 X102.8180 Y111.2320 F1200 E117.4444 
G1 X102.7570 Y111.1710 
G1 X102.8180 Y111.7270 F7200 
G1 X103.4530 Y112.3620 F1200 E117.4758 
G1 X103.5140 Y112.4230 
G1 X102.9580 Y112.3620 F7200 
G1 X102.8180 Y112.2220 F1200 E117.4827 
G10 
G1 X106.8850 Y108.8020 F7200 
G1 X108.1260 Y108.8020 
G1 X114.8740 Y108.8020 
G1 X116.1150 Y108.8020 
G1 X120.6800 Y108.8020 
; TYPE:WALL-INNER 
G11 
G1 X120.6790 Y112.8620 F2400 E117.6248 
G1 X116.4450 Y112.8620 E117.7730 
G1 X116.4450 Y108.6280 E117.9212 
G1 X120.5050 Y108.6270 E118.0633 
G1 X120.6800 Y108.6270 E118.0695 
G1 X120.6800 Y108.8020 E118.0734 
G1 X121.0300 Y108.4520 F7200 
G1 X121.0290 Y113.2120 F2400 E118.2400 
G1 X116.0950 Y113.2120 E118.4127 
G1 X116.0950 Y108.2780 E118.5854 
G1 X120.8550 Y108.2770 E118.7520 
G1 X121.0300 Y108.2770 E118.7581 
G1 X121.0300 Y108.4520 E118.7621 
G1 X121.3550 Y108.1270 F7200 
; TYPE:WALL-OUTER 
G1 X121.3540 Y113.5370 F1800 E118.9514 
G1 X115.7700 Y113.5370 E119.1469 
G1 X115.7700 Y107.9530 E119.3423 
G1 X121.1800 Y107.9520 E119.5317 
G1 X121.3550 Y107.9520 E119.5378 
G1 X121.3550 Y108.1270 E119.5417 
G1 X121.3550 Y108.3270 F7200 
G1 X120.9300 Y108.3260 
G1 X120.3400 Y108.9670 
; TYPE:SKIN 
G1 X120.3390 Y112.5220 F1200 E119.6662 
G1 X116.7850 Y112.5220 E119.7906 
G1 X116.7850 Y108.9680 E119.9150 
G1 X120.3400 Y108.9670 E120.0394 
G1 X120.0980 Y109.2080 F7200 
G1 X119.8500 Y109.4550 F1200 E120.0598 
G1 X120.2420 Y109.8470 
G1 X120.1810 Y110.2810 F7200 
G1 X119.0250 Y109.1250 F1200 E120.1170 
G1 X118.9640 Y109.0640 
G1 X118.5300 Y109.1250 F7200 
G1 X120.1810 Y110.7760 F1200 E120.1988 
G1 X120.2420 Y110.8370 
G1 X120.1810 Y111.2710 F7200 
G1 X118.0350 Y109.1250 F1200 E120.3050 
G1 X117.9740 Y109.0640 
G1 X117.5400 Y109.1250 F7200 
G1 X120.1810 Y111.7660 F1200 E120.4357 
G1 X120.2420 Y111.8270 
G1 X120.1810 Y112.2610 F7200 
G1 X117.0450 Y109.1250 F1200 E120.5909 
G1 X116.9840 Y109.0640 
G1 X116.9420 Y109.5170 F7200 
G1 X119.7880 Y112.3640 F1200 E120.7318 
G1 X119.8490 Y112.4250 
G1 X119.2930 Y112.3640 F7200 
G1 X116.9420 Y110.0120 F1200 E120.8482 
G1 X116.8810 Y109.9510 
G1 X116.9420 Y110.5070 F7200 
G1 X118.7980 Y112.3640 F1200 E120.9401 
G1 X118.8590 Y112.4250 
G1 X118.3030 Y112.3640 F7200 
G1 X116.9420 Y111.0020 F1200 E121.0075 
G1 X116.8810 Y110.9410 
G1 X116.9420 Y111.4970 F7200 
G1 X117.8080 Y112.3640 F1200 E121.0504 
G1 X117.8690 Y112.4250 
G1 X117.3130 Y112.3640 F7200 
G1 X116.9420 Y111.9920 F1200 E121.0688 
G10 
G1 X120.6800 Y113.1920 F7200 
G1 X120.6800 Y114.4330 
G1 X120.6800 Y121.1810 
G1 X120.6810 Y122.4020 
G1 X120.6800 Y122.9260 
; TYPE:WALL-INNER 
G11 
G1 X120.6790 Y126.9860 F2400 E121.2109 
G1 X116.4450 Y126.9860 E121.3591 
G1 X116.4450 Y122.7520 E121.5073 
G1 X120.5050 Y122.7510 E121.6494 
G1 X120.6800 Y122.7510 E121.6555 
G1 X120.6800 Y122.9260 E121.6594 
G1 X121.0300 Y122.5760 F7200 
G1 X121.0290 Y127.3360 F2400 E121.8260 
G1 X116.0950 Y127.3360 E121.9987 
G1 X116.0950 Y122.4020 E122.1714 
G1 X120.8550 Y122.4010 E122.3380 
G1 X121.0300 Y122.4010 E122.3441 
G1 X121.0300 Y122.5760 E122.3481 
G1 X121.3550 Y122.2510 F7200 
; TYPE:WALL-OUTER 
G1 X121.3540 Y127.6610 F1800 E122.5375 
G1 X115.7700 Y127.6610 E122.7329 
G1 X115.7700 Y122.0770 E122.9283 
G1 X121.1800 Y122.0760 E123.1177 
G1 X121.3550 Y122.0760 E123.1238 
G1 X121.3550 Y122.2510 E123.1278 
G1 X121.3550 Y122.4510 F7200 
G1 X120.9300 Y122.4500 
G1 X120.3400 Y123.0910 
; TYPE:SKIN 
G1 X120.3390 Y126.6460 F1200 E123.2522 
G1 X116.7850 Y126.6460 E123.3766 
G1 X116.7850 Y123.0920 E123.5010 
G1 X120.3400 Y123.0910 E123.6254 
G1 X120.1810 Y123.6460 F7200 
G1 X119.7830 Y123.2480 F1200 E123.6451 
G1 X119.2880 Y123.2480 F7200 
G1 X120.1810 Y124.1410 F1200 E123.6893 
G1 X120.2420 Y124.2020 
G1 X120.1810 Y124.6360 F7200 
G1 X118.7930 Y123.2480 F1200 E123.7580 
G1 X118.7320 Y123.1870 
G1 X118.2990 Y123.2490 F7200 
G1 X120.1810 Y125.1310 F1200 E123.8512 
G1 X120.2420 Y125.1920 
G1 X120.1810 Y125.6260 F7200 
G1 X117.8040 Y123.2490 F1200 E123.9688 
G1 X117.7430 Y123.1880 
G1 X117.3090 Y123.2490 F7200 
G1 X120.1810 Y126.1210 F1200 E124.1110 
G1 X120.2420 Y126.1820 
G1 X120.0520 Y126.4870 F7200 
G1 X116.9420 Y123.3770 F1200 E124.2649 
G1 X116.8810 Y123.3160 
G1 X116.9420 Y123.8720 F7200 
G1 X119.5570 Y126.4870 F1200 E124.3944 
G1 X119.6180 Y126.5480 
G1 X119.0620 Y126.4870 F7200 
G1 X116.9420 Y124.3670 F1200 E124.4993 
G1 X116.8810 Y124.3060 
G1 X116.9420 Y124.8620 F7200 
G1 X118.5670 Y126.4870 F1200 E124.5797 
G1 X118.6280 Y126.5480 
G1 X118.0720 Y126.4870 F7200 
G1 X116.9420 Y125.3570 F1200 E124.6357 
G1 X116.8810 Y125.2960 
G1 X116.9420 Y125.8520 F7200 
G1 X117.5770 Y126.4870 F1200 E124.6671 
G1 X117.6380 Y126.5480 
G1 X117.0820 Y126.4870 F7200 
G1 X116.9420 Y126.3470 F1200 E124.6740 
G10 
G1 X116.1150 Y126.8120 F7200 
G1 X114.8740 Y126.8120 
G1 X108.1260 Y126.8120 
G1 X106.9050 Y126.8130 
G1 X106.5560 Y126.8120 
; TYPE:WALL-INNER 
G11 
G1 X106.5560 Y126.9870 F2400 E124.6801 
G1 X106.3810 Y126.9870 E124.6841 
G1 X102.3210 Y126.9860 E124.8262 
G1 X102.3210 Y122.7520 E124.9744 
G1 X106.5550 Y122.7520 E125.1226 
G1 X106.5560 Y126.8120 E125.2647 
G1 X106.9060 Y127.1620 F7200 
G1 X106.9060 Y127.3370 F2400 E125.2708 
G1 X106.7310 Y127.3370 E125.2748 
G1 X101.9710 Y127.3360 E125.4414 
G1 X101.9710 Y122.4020 E125.6141 
G1 X106.9050 Y122.4020 E125.7867 
G1 X106.9060 Y127.1620 E125.9534 
G1 X107.2310 Y127.4870 F7200 
; TYPE:WALL-OUTER 
G1 X107.2310 Y127.6620 F1800 E125.9595 
G1 X107.0560 Y127.6620 E125.9634 
G1 X101.6460 Y127.6610 E126.1528 
G1 X101.6460 Y122.0770 E126.3482 
G1 X107.2300 Y122.0770 E126.5437 
G1 X107.2310 Y127.4870 E126.7330 
G1 X107.2310 Y127.6620 F7200 
G1 X107.2060 Y127.6620 
G1 X106.8360 Y127.2670 
G1 X106.2160 Y126.6470 
; TYPE:SKIN 
G1 X102.6610 Y126.6460 F1200 E126.8575 
G1 X102.6610 Y123.0920 E126.9818 
G1 X106.2150 Y123.0920 E127.1062 
G1 X106.2160 Y126.6470 E127.2306 
G1 X106.0570 Y123.3810 F7200 
G1 X105.9910 Y123.3150 
G1 X105.7430 Y123.5620 F1200 E127.2494 
G1 X106.1180 Y123.9370 
G1 X106.0570 Y124.3710 F7200 
G1 X104.9350 Y123.2490 F1200 E127.3050 
G1 X104.8740 Y123.1880 
G1 X104.4400 Y123.2490 F7200 
G1 X106.0570 Y124.8660 F1200 E127.3850 
G1 X106.1180 Y124.9270 
G1 X106.0580 Y125.3620 F7200 
G1 X103.9450 Y123.2490 F1200 E127.4896 
G1 X103.8840 Y123.1880 
G1 X103.4500 Y123.2490 F7200 
G1 X106.0580 Y125.8570 F1200 E127.6187 
G1 X106.1190 Y125.9180 
G1 X106.0580 Y126.3520 F7200 
G1 X102.9550 Y123.2490 F1200 E127.7722 
G1 X102.8940 Y123.1880 
G1 X102.8180 Y123.6070 F7200 
G1 X105.6980 Y126.4870 F1200 E127.9148 
G1 X105.7590 Y126.5480 
G1 X105.2030 Y126.4870 F7200 
G1 X102.8180 Y124.1020 F1200 E128.0329 
G1 X102.7570 Y124.0410 
G1 X102.8180 Y124.5970 F7200 
G1 X104.7080 Y126.4870 F1200 E128.1264 
G1 X104.7690 Y126.5480 
G1 X104.2130 Y126.4870 F7200 
G1 X102.8180 Y125.0920 F1200 E128.1955 
G1 X102.7570 Y125.0310 
G1 X102.8180 Y125.5870 F7200 
G1 X103.7180 Y126.4870 F1200 E128.2400 
G1 X103.7790 Y126.5480 
G1 X103.2230 Y126.4870 F7200 
G1 X102.8180 Y126.0820 F1200 E128.2601 
G10 
G1 X106.8910 Y122.4160 F7200 
G1 X106.8910 Y121.1810 
G1 X107.9910 Y115.0970 
G1 X110.4200 Y97.1200 
G1 X111.5000 Y96.4780 
G1 X111.5000 Y95.0320 
; TIME_ELAPSED:115.855063 
; LAYER:5 
G1 X111.5000 Y95.0320 Z0.7700 
; TYPE:WALL-INNER 
G11 
G1 X111.6380 Y94.9800 F2400 E128.2652 
G1 X111.8640 Y94.8970 E128.2736 
G1 X111.9340 Y94.8250 E128.2772 
G1 X111.9240 Y94.9040 
G1 X111.8920 Y95.1420 E128.2826 
G1 X111.7860 Y95.9160 E128.3099 
G1 X111.7030 Y96.3900 E128.3268 
G1 X111.6730 Y96.5300 E128.3318 
G1 X111.6110 Y96.8270 E128.3424 
G1 X111.5960 Y96.8820 E128.3444 
G1 X111.5210 Y97.1560 E128.3543 
G1 X111.5000 Y97.2320 E128.3571 
G1 X111.4710 Y97.1420 
G1 X111.4040 Y96.8820 
G1 X111.3890 Y96.8270 E128.3575 
G1 X111.3270 Y96.5300 E128.3662 
G1 X111.2970 Y96.3890 E128.3713 
G1 X111.2160 Y95.9240 E128.3878 
G1 X111.1100 Y95.1440 E128.4153 
G1 X111.0790 Y94.9140 E128.4235 
G1 X111.0660 Y94.8230 E128.4267 
G1 X111.1460 Y94.9040 
G1 X111.3650 Y94.9830 E128.4320 
G1 X111.5000 Y95.0320 E128.4370 
G1 X111.4990 Y94.6860 F7200 
; TYPE:WALL-OUTER 
G1 X111.6820 Y94.6180 F1800 E128.4439 
G1 X111.7890 Y94.5080 E128.4492 
G1 X111.8770 Y94.3630 E128.4552 
G1 X111.9430 Y94.2060 E128.4611 
G1 X111.9790 Y94.0970 E128.4652 
G1 X112.0120 Y93.9950 E128.4689 
G1 X112.0690 Y93.7780 E128.4768 
G1 X112.1260 Y93.5050 E128.4865 
G1 X112.1280 Y93.4910 E128.4870 
G1 X112.1840 Y93.1760 E128.4982 
G1 X112.4060 Y93.1760 E128.5060 
G1 X112.4060 Y93.1900 
G1 X112.3840 Y93.5220 E128.5140 
G1 X112.3830 Y93.5350 E128.5142 
G1 X112.3580 Y93.8040 E128.5216 
G1 X112.3370 Y94.0260 E128.5285 
G1 X112.3270 Y94.1320 E128.5321 
G1 X112.2600 Y94.8410 E128.5570 
G1 X112.1060 Y95.9720 E128.5969 
G1 X112.0210 Y96.4570 E128.6142 
G1 X111.9290 Y96.8950 E128.6298 
G1 X111.8380 Y97.2440 E128.6425 
G1 X111.7390 Y97.5480 E128.6537 
G1 X111.6720 Y97.7050 E128.6596 
G1 X111.6480 Y97.7640 E128.6619 
G1 X111.5660 Y97.8960 E128.6673 
G1 X111.5570 Y97.9110 E128.6679 
G1 X111.5230 Y97.9430 E128.6695 
G1 X111.5000 Y97.9650 E128.6707 
G1 X111.4770 Y97.9430 
G1 X111.4430 Y97.9100 
G1 X111.4350 Y97.8970 
G1 X111.3520 Y97.7630 
G1 X111.3280 Y97.7040 E128.6729 
G1 X111.2610 Y97.5470 E128.6789 
G1 X111.1620 Y97.2430 E128.6901 
G1 X111.0710 Y96.8940 E128.7027 
G1 X110.9790 Y96.4560 E128.7183 
G1 X110.8940 Y95.9710 E128.7356 
G1 X110.7400 Y94.8410 E128.7755 
G1 X110.6750 Y94.1400 E128.8001 
G1 X110.6650 Y94.0300 E128.8040 
G1 X110.6430 Y93.8040 E128.8119 
G1 X110.6170 Y93.5350 E128.8214 
G1 X110.6160 Y93.5140 E128.8221 
G1 X110.5950 Y93.1900 E128.8335 
G1 X110.5940 Y93.1760 E128.8340 
G1 X110.8200 Y93.1760 E128.8366 
G1 X110.8720 Y93.4970 E128.8444 
G1 X110.9310 Y93.7780 E128.8523 
G1 X110.9890 Y93.9990 E128.8595 
G1 X111.0230 Y94.1040 E128.8632 
G1 X111.0570 Y94.2070 E128.8670 
G1 X111.1320 Y94.3810 E128.8736 
G1 X111.2120 Y94.5100 E128.8789 
G1 X111.3250 Y94.6230 E128.8845 
G1 X111.4990 Y94.6860 E128.8910 
G1 X111.6820 Y94.6180 F7200 
G1 X111.6850 Y94.6150 
G1 X111.5240 Y95.3740 
G1 X111.5200 Y95.6260 F1200 E128.8993 
G1 X111.5170 Y95.8760 E128.9058 
G1 X111.5110 Y96.1290 E128.9104 
G1 X111.5050 Y96.3830 E128.9128 
G1 X111.4780 Y96.4110 F7200 
G1 X111.3090 Y95.3420 
; TYPE:SKIN 
G1 X111.4530 Y95.1980 F1200 E128.9164 
G1 X111.5010 Y95.3820 F7200 
G10 
G1 X111.4080 Y96.8230 
G1 X110.3040 Y97.5010 
G1 X106.9270 Y107.0470 
G1 X106.9270 Y108.2830 
G1 X102.4860 Y108.6180 
; TYPE:WALL-INNER 
G11 
G1 X106.5910 Y108.6190 F2400 E129.0600 
G1 X106.5910 Y112.8980 E129.2098 
G1 X102.3120 Y112.8980 E129.3596 
G1 X102.3110 Y108.7930 E129.5032 
G1 X102.3110 Y108.6180 E129.5094 
G1 X102.4860 Y108.6180 E129.5133 
G1 X102.1360 Y108.2680 F7200 
G1 X106.9410 Y108.2690 F2400 E129.6815 
G1 X106.9410 Y113.2480 E129.8558 
G1 X101.9620 Y113.2480 E130.0300 
G1 X101.9610 Y108.4430 E130.1982 
G1 X101.9610 Y108.2680 E130.2043 
G1 X102.1360 Y108.2680 E130.2083 
G1 X101.8110 Y107.9430 F7200 
; TYPE:WALL-OUTER 
G1 X107.2660 Y107.9440 F1800 E130.3992 
G1 X107.2660 Y113.5730 E130.5962 
G1 X101.6370 Y113.5730 E130.7933 
G1 X101.6360 Y108.1180 E130.9842 
G1 X101.6360 Y107.9430 E130.9903 
G1 X101.8110 Y107.9430 E130.9943 
G1 X102.0110 Y107.9430 F7200 
G1 X102.0100 Y108.3680 
G1 X102.6510 Y108.9580 
; TYPE:SKIN 
G1 X106.2510 Y108.9590 F1200 E131.1203 
G1 X106.2510 Y112.5580 E131.2462 
G1 X102.6520 Y112.5580 E131.3722 
G1 X102.6510 Y108.9580 E131.4982 
G1 X102.8090 Y109.5340 F7200 
G1 X103.2290 Y109.1150 F1200 E131.5190 
G1 X103.7240 Y109.1150 F7200 
G1 X102.8090 Y110.0290 F1200 E131.5642 
G1 X102.7480 Y110.0900 
G1 X102.8090 Y110.5240 F7200 
G1 X104.2190 Y109.1150 F1200 E131.6340 
G1 X104.2800 Y109.0540 
G1 X104.7130 Y109.1150 F7200 
G1 X102.8090 Y111.0190 F1200 E131.7282 
G1 X102.7480 Y111.0800 
G1 X102.8090 Y111.5140 F7200 
G1 X105.2080 Y109.1150 F1200 E131.8470 
G1 X105.2690 Y109.0540 
G1 X105.7030 Y109.1150 F7200 
G1 X102.8090 Y112.0090 F1200 E131.9902 
G1 X102.7480 Y112.0700 
G1 X102.9140 Y112.3990 F7200 
G1 X106.0920 Y109.2210 F1200 E132.1475 
G1 X106.1530 Y109.1600 
G1 X106.0920 Y109.7160 F7200 
G1 X103.4090 Y112.3990 F1200 E132.2803 
G1 X103.3480 Y112.4600 
G1 X103.9040 Y112.3990 F7200 
G1 X106.0920 Y110.2110 F1200 E132.3886 
G1 X106.1530 Y110.1500 
G1 X106.0920 Y110.7060 F7200 
G1 X104.3990 Y112.3990 F1200 E132.4724 
G1 X104.3380 Y112.4600 
G1 X104.8940 Y112.3990 F7200 
G1 X106.0920 Y111.2010 F1200 E132.5317 
G1 X106.1530 Y111.1400 
G1 X106.0920 Y111.6960 F7200 
G1 X105.3890 Y112.3990 F1200 E132.5665 
G1 X105.3280 Y112.4600 
G1 X105.8840 Y112.3990 F7200 
G1 X106.0920 Y112.1900 F1200 E132.5768 
G10 
G1 X106.9210 Y108.7930 F7200 
G1 X108.1620 Y108.7930 
G1 X114.8380 Y108.7930 
G1 X116.0790 Y108.7930 
G1 X120.6890 Y108.7930 
; TYPE:WALL-INNER 
G11 
G1 X120.6880 Y112.8980 F2400 E132.7205 
G1 X116.4090 Y112.8980 E132.8703 
G1 X116.4090 Y108.6190 E133.0200 
G1 X120.5140 Y108.6180 E133.1637 
G1 X120.6890 Y108.6180 E133.1698 
G1 X120.6890 Y108.7930 E133.1738 
G1 X121.0390 Y108.4430 F7200 
G1 X121.0380 Y113.2480 F2400 E133.3420 
G1 X116.0590 Y113.2480 E133.5163 
G1 X116.0590 Y108.2690 E133.6905 
G1 X120.8640 Y108.2680 E133.8587 
G1 X121.0390 Y108.2680 E133.8648 
G1 X121.0390 Y108.4430 E133.8688 
G1 X121.3640 Y108.1180 F7200 
; TYPE:WALL-OUTER 
G1 X121.3630 Y113.5730 F1800 E134.0597 
G1 X115.7340 Y113.5730 E134.2567 
G1 X115.7340 Y107.9440 E134.4537 
G1 X121.1890 Y107.9430 E134.6447 
G1 X121.3640 Y107.9430 E134.6508 
G1 X121.3640 Y108.1180 E134.6548 
G1 X121.3640 Y108.3180 F7200 
G1 X120.9390 Y108.3170 
G1 X120.3490 Y108.9580 
; TYPE:SKIN 
G1 X120.3480 Y112.5580 F1200 E134.7808 
G1 X116.7490 Y112.5580 E134.9067 
G1 X116.7490 Y108.9590 E135.0327 
G1 X120.3490 Y108.9580 E135.1587 
G1 X116.9060 Y109.2960 F7200 
G1 X117.0860 Y109.1160 F1200 E135.1676 
G1 X117.5810 Y109.1160 F7200 
G1 X116.9060 Y109.7910 F1200 E135.2010 
G1 X116.8450 Y109.8520 
G1 X116.9060 Y110.2860 F7200 
G1 X118.0760 Y109.1160 F1200 E135.2589 
G1 X118.1370 Y109.0550 
G1 X118.5720 Y109.1150 F7200 
G1 X116.9060 Y110.7810 F1200 E135.3414 
G1 X116.8450 Y110.8420 
G1 X116.9060 Y111.2760 F7200 
G1 X119.0670 Y109.1150 F1200 E135.4483 
G1 X119.1280 Y109.0540 
G1 X119.5620 Y109.1150 F7200 
G1 X116.9060 Y111.7710 F1200 E135.5798 
G1 X116.8450 Y111.8320 
G1 X116.9060 Y112.2660 F7200 
G1 X120.0570 Y109.1150 F1200 E135.7358 
G1 X120.1180 Y109.0540 
G1 X120.1890 Y109.4780 F7200 
G1 X117.2680 Y112.4000 F1200 E135.8804 
G1 X117.2070 Y112.4610 
G1 X117.7620 Y112.4000 F7200 
G1 X120.1890 Y109.9730 F1200 E136.0005 
G1 X120.2500 Y109.9120 
G1 X120.1890 Y110.4680 F7200 
G1 X118.2570 Y112.4000 F1200 E136.0961 
G1 X118.1960 Y112.4610 
G1 X118.7520 Y112.4000 F7200 
G1 X120.1890 Y110.9640 F1200 E136.1672 
G1 X120.2500 Y110.9030 
G1 X120.1890 Y111.4590 F7200 
G1 X119.2470 Y112.4000 F1200 E136.2138 
G1 X119.1860 Y112.4610 
G1 X119.7420 Y112.4000 F7200 
G1 X120.1890 Y111.9540 F1200 E136.2359 
G10 
G1 X120.6890 Y113.2280 F7200 
G1 X120.6890 Y114.4690 
G1 X120.6890 Y121.1450 
G1 X120.6900 Y122.3660 
G1 X120.6890 Y122.8900 
; TYPE:WALL-INNER 
G11 
G1 X120.6880 Y126.9950 F2400 E136.3796 
G1 X116.4090 Y126.9950 E136.5294 
G1 X116.4090 Y122.7160 E136.6791 
G1 X120.5140 Y122.7150 E136.8228 
G1 X120.6890 Y122.7150 E136.8289 
G1 X120.6890 Y122.8900 E136.8329 
G1 X121.0390 Y122.5400 F7200 
G1 X121.0380 Y127.3450 F2400 E137.0011 
G1 X116.0590 Y127.3450 E137.1754 
G1 X116.0590 Y122.3660 E137.3496 
G1 X120.8640 Y122.3650 E137.5178 
G1 X121.0390 Y122.3650 E137.5239 
G1 X121.0390 Y122.5400 E137.5279 
G1 X121.3640 Y122.2150 F7200 
; TYPE:WALL-OUTER 
G1 X121.3630 Y127.6620 F1800 E137.7185 
G1 X121.3550 Y127.6700 E137.7189 
G1 X115.7340 Y127.6700 E137.9157 
G1 X115.7340 Y122.0410 E138.1127 
G1 X121.1890 Y122.0400 E138.3036 
G1 X121.3640 Y122.0400 E138.3097 
G1 X121.3640 Y122.2150 E138.3137 
G1 X121.3640 Y122.4150 F7200 
G1 X120.9390 Y122.4140 
G1 X120.3490 Y123.0550 
; TYPE:SKIN 
G1 X120.3480 Y126.6550 F1200 E138.4397 
G1 X116.7490 Y126.6550 E138.5657 
G1 X116.7490 Y123.0560 E138.6916 
G1 X120.3490 Y123.0550 E138.8176 
G1 X116.9070 Y123.6500 F7200 
G1 X117.3450 Y123.2120 F1200 E138.8393 
G1 X117.8400 Y123.2120 F7200 
G1 X116.9070 Y124.1450 F1200 E138.8855 
G1 X116.8460 Y124.2060 
G1 X116.9070 Y124.6400 F7200 
G1 X118.3350 Y123.2120 F1200 E138.9562 
G1 X118.3960 Y123.1510 
G1 X118.8300 Y123.2110 F7200 
G1 X116.9070 Y125.1350 F1200 E139.0514 
G1 X116.8460 Y125.1960 
G1 X116.9070 Y125.6300 F7200 
G1 X119.3250 Y123.2110 F1200 E139.1711 
G1 X119.3860 Y123.1500 
G1 X119.8200 Y123.2110 F7200 
G1 X116.9070 Y126.1250 F1200 E139.3153 
G1 X116.8460 Y126.1860 
G1 X117.0310 Y126.4960 F7200 
G1 X120.1900 Y123.3370 F1200 E139.4717 
G1 X120.2510 Y123.2760 
G1 X120.1900 Y123.8320 F7200 
G1 X117.5260 Y126.4960 F1200 E139.6035 
G1 X117.4650 Y126.5570 
G1 X118.0210 Y126.4960 F7200 
G1 X120.1900 Y124.3270 F1200 E139.7109 
G1 X120.2510 Y124.2660 
G1 X120.1900 Y124.8220 F7200 
G1 X118.5160 Y126.4960 F1200 E139.7937 
G1 X118.4550 Y126.5570 
G1 X119.0110 Y126.4960 F7200 
G1 X120.1900 Y125.3160 F1200 E139.8521 
G1 X120.2510 Y125.2550 
G1 X120.1900 Y125.8110 F7200 
G1 X119.5050 Y126.4960 F1200 E139.8860 
G1 X119.4440 Y126.5570 
G1 X120.0000 Y126.4960 F7200 
G1 X120.1900 Y126.3060 F1200 E139.8954 
G10 
G1 X116.0790 Y126.8210 F7200 
G1 X114.8380 Y126.8210 
G1 X108.1620 Y126.8210 
G1 X106.9410 Y126.8220 
G1 X106.5920 Y126.8210 
; TYPE:WALL-INNER 
G11 
G1 X106.5920 Y126.9960 F2400 E139.9015 
G1 X106.4170 Y126.9960 E139.9055 
G1 X102.3120 Y126.9950 E140.0492 
G1 X102.3120 Y122.7160 E140.1989 
G1 X106.5910 Y122.7160 E140.3487 
G1 X106.5920 Y126.8210 E140.4924 
G1 X106.9420 Y127.1710 F7200 
G1 X106.9420 Y127.3460 F2400 E140.4985 
G1 X106.7670 Y127.3460 E140.5025 
G1 X101.9620 Y127.3450 E140.6707 
G1 X101.9620 Y122.3660 E140.8449 
G1 X106.9410 Y122.3660 E141.0192 
G1 X106.9420 Y127.1710 E141.1874 
G1 X107.2670 Y127.4960 F7200 
; TYPE:WALL-OUTER 
G1 X107.2670 Y127.6710 F1800 E141.1935 
G1 X107.0920 Y127.6710 E141.1975 
G1 X101.6450 Y127.6700 E141.3881 
G1 X101.6370 Y127.6620 E141.3885 
G1 X101.6370 Y122.0410 E141.5852 
G1 X107.2660 Y122.0410 E141.7822 
G1 X107.2670 Y127.4960 E141.9732 
G1 X107.2670 Y127.6710 F7200 
G1 X107.2420 Y127.6710 
G1 X106.8720 Y127.2760 
G1 X106.2520 Y126.6560 
; TYPE:SKIN 
G1 X102.6520 Y126.6550 F1200 E142.0992 
G1 X102.6520 Y123.0560 E142.2251 
G1 X106.2510 Y123.0560 E142.3511 
G1 X106.2520 Y126.6560 E142.4771 
G1 X105.6450 Y126.4970 F7200 
G1 X106.0930 Y126.0490 F1200 E142.4993 
G1 X106.0930 Y125.5540 F7200 
G1 X105.1510 Y126.4970 F1200 E142.5459 
G1 X105.0900 Y126.5580 
G1 X104.6560 Y126.4970 F7200 
G1 X106.0930 Y125.0590 F1200 E142.6171 
G1 X106.1540 Y124.9980 
G1 X106.0920 Y124.5650 F7200 
G1 X104.1610 Y126.4970 F1200 E142.7127 
G1 X104.1000 Y126.5580 
G1 X103.6660 Y126.4970 F7200 
G1 X106.0920 Y124.0700 F1200 E142.8328 
G1 X106.1530 Y124.0090 
G1 X106.0920 Y123.5750 F7200 
G1 X103.1710 Y126.4970 F1200 E142.9774 
G1 X103.1100 Y126.5580 
G1 X102.8100 Y126.3620 F7200 
G1 X105.9590 Y123.2130 F1200 E143.1333 
G1 X106.0200 Y123.1520 
G1 X105.4640 Y123.2130 F7200 
G1 X102.8100 Y125.8670 F1200 E143.2646 
G1 X102.7490 Y125.9280 
G1 X102.8100 Y125.3720 F7200 
G1 X104.9700 Y123.2130 F1200 E143.3715 
G1 X105.0310 Y123.1520 
G1 X104.4750 Y123.2130 F7200 
G1 X102.8100 Y124.8770 F1200 E143.4539 
G1 X102.7490 Y124.9380 
G1 X102.8100 Y124.3820 F7200 
G1 X103.9800 Y123.2130 F1200 E143.5118 
G1 X104.0410 Y123.1520 
G1 X103.4850 Y123.2130 F7200 
G1 X102.8100 Y123.8870 F1200 E143.5452 
G1 X102.7490 Y123.9480 
G1 X102.8100 Y123.3920 F7200 
G1 X102.9900 Y123.2130 F1200 E143.5541 
G10 
G1 X106.9270 Y122.3800 F7200 
G1 X106.9270 Y121.1450 
G1 X108.0270 Y115.1260 
G1 X110.4200 Y97.8540 
G1 X111.5000 Y97.2120 
G1 X111.5050 Y95.7660 
; TIME_ELAPSED:137.522911 
; LAYER:6 
G1 X111.5050 Y95.7660 Z0.8700 
; TYPE:WALL-INNER 
G11 
G1 X111.6360 Y95.7150 F2400 E143.5590 
G1 X111.8660 Y95.6260 E143.5676 
G1 X111.9340 Y95.5570 E143.5710 
G1 X111.9240 Y95.6330 
G1 X111.8910 Y95.8770 E143.5765 
G1 X111.7860 Y96.6500 E143.6038 
G1 X111.7030 Y97.1240 E143.6207 
G1 X111.6730 Y97.2640 E143.6257 
G1 X111.6140 Y97.5460 E143.6358 
G1 X111.5990 Y97.6020 E143.6378 
G1 X111.5170 Y97.9030 E143.6487 
G1 X111.5000 Y97.9650 E143.6510 
G1 X111.4760 Y97.8920 
G1 X111.4010 Y97.6020 
G1 X111.3860 Y97.5450 E143.6516 
G1 X111.3270 Y97.2630 E143.6599 
G1 X111.2970 Y97.1230 E143.6649 
G1 X111.2160 Y96.6580 E143.6815 
G1 X111.1090 Y95.8770 E143.7090 
G1 X111.0790 Y95.6500 E143.7171 
G1 X111.0660 Y95.5560 E143.7204 
G1 X111.1490 Y95.6390 
G1 X111.3660 Y95.7160 E143.7257 
G1 X111.5050 Y95.7660 E143.7309 
G1 X111.5000 Y95.4190 F7200 
; TYPE:WALL-OUTER 
G1 X111.6840 Y95.3480 F1800 E143.7378 
G1 X111.7890 Y95.2420 E143.7430 
G1 X111.8790 Y95.0900 E143.7492 
G1 X111.9440 Y94.9390 E143.7549 
G1 X111.9790 Y94.8290 E143.7590 
G1 X112.0140 Y94.7200 E143.7630 
G1 X112.0690 Y94.5110 E143.7705 
G1 X112.1260 Y94.2380 E143.7803 
G1 X112.1280 Y94.2250 E143.7808 
G1 X112.1850 Y93.8990 E143.7923 
G1 X112.2800 Y93.1760 E143.8179 
G1 X112.4520 Y93.1760 E143.8239 
G1 X112.4060 Y93.9120 E143.8387 
G1 X112.3840 Y94.2540 E143.8469 
G1 X112.3830 Y94.2680 E143.8471 
G1 X112.3580 Y94.5370 E143.8545 
G1 X112.3380 Y94.7500 E143.8612 
G1 X112.3280 Y94.8640 E143.8651 
G1 X112.2600 Y95.5740 E143.8900 
G1 X112.1060 Y96.7060 E143.9300 
G1 X112.0210 Y97.1910 E143.9472 
G1 X111.9290 Y97.6280 E143.9629 
G1 X111.8380 Y97.9780 E143.9755 
G1 X111.7390 Y98.2810 E143.9867 
G1 X111.6720 Y98.4380 E143.9927 
G1 X111.6480 Y98.4970 E143.9949 
G1 X111.5660 Y98.6290 E144.0003 
G1 X111.5570 Y98.6440 E144.0009 
G1 X111.5230 Y98.6760 E144.0026 
G1 X111.5000 Y98.6980 E144.0037 
G1 X111.4770 Y98.6760 
G1 X111.4430 Y98.6430 
G1 X111.4350 Y98.6300 
G1 X111.3520 Y98.4960 
G1 X111.3280 Y98.4370 E144.0059 
G1 X111.2610 Y98.2800 E144.0119 
G1 X111.1620 Y97.9770 E144.0231 
G1 X111.0710 Y97.6270 E144.0357 
G1 X110.9790 Y97.1900 E144.0513 
G1 X110.8940 Y96.7050 E144.0686 
G1 X110.7400 Y95.5740 E144.1085 
G1 X110.6740 Y94.8720 E144.1332 
G1 X110.6630 Y94.7500 E144.1375 
G1 X110.6170 Y94.2680 E144.1544 
G1 X110.6160 Y94.2370 E144.1555 
G1 X110.5980 Y93.9520 E144.1655 
G1 X110.5490 Y93.1860 E144.1924 
G1 X110.5480 Y93.1760 E144.1927 
G1 X110.7190 Y93.1760 E144.1942 
G1 X110.8200 Y93.9370 E144.2093 
G1 X110.8690 Y94.2210 E144.2161 
G1 X110.9840 Y94.7190 E144.2310 
G1 X111.0220 Y94.8360 E144.2351 
G1 X111.0570 Y94.9400 E144.2390 
G1 X111.1340 Y95.1180 E144.2458 
G1 X111.2120 Y95.2440 E144.2509 
G1 X111.3260 Y95.3570 E144.2566 
G1 X111.5000 Y95.4190 E144.2630 
G1 X111.6840 Y95.3480 F7200 
G1 X111.6860 Y95.3460 
G1 X111.6090 Y96.0180 
G1 X111.4740 Y96.1290 F1200 E144.2694 
G1 X111.4790 Y96.3820 E144.2776 
G1 X111.4820 Y96.6320 E144.2840 
G1 X111.4870 Y96.8850 E144.2885 
G1 X111.4940 Y97.1390 E144.2908 
G1 X111.6420 Y97.0640 F7200 
G10 
G1 X111.6140 Y97.0580 
G1 X111.5000 Y97.9450 
G1 X110.4200 Y98.5870 
G1 X106.9630 Y107.0380 
G1 X106.9630 Y108.2740 
G1 X102.4770 Y108.6090 
; TYPE:WALL-INNER 
G11 
G1 X106.6270 Y108.6100 F2400 E144.4360 
G1 X106.6270 Y112.9340 E144.5873 
G1 X102.3030 Y112.9340 E144.7387 
G1 X102.3020 Y108.7840 E144.8839 
G1 X102.3020 Y108.6090 E144.8901 
G1 X102.4770 Y108.6090 E144.8940 
G1 X102.1270 Y108.2590 F7200 
G1 X106.9770 Y108.2600 F2400 E145.0638 
G1 X106.9770 Y113.2840 E145.2396 
G1 X101.9530 Y113.2840 E145.4155 
G1 X101.9520 Y108.4340 E145.5852 
G1 X101.9520 Y108.2590 E145.5913 
G1 X102.1270 Y108.2590 E145.5953 
G1 X101.8020 Y107.9340 F7200 
; TYPE:WALL-OUTER 
G1 X107.3020 Y107.9350 F1800 E145.7878 
G1 X107.3020 Y113.6090 E145.9864 
G1 X101.6280 Y113.6090 E146.1850 
G1 X101.6270 Y108.1090 E146.3775 
G1 X101.6270 Y107.9340 E146.3836 
G1 X101.8020 Y107.9340 E146.3876 
G1 X102.0020 Y107.9340 F7200 
G1 X102.0010 Y108.3590 
G1 X102.6420 Y108.9490 
; TYPE:SKIN 
G1 X106.2870 Y108.9500 F1200 E146.5152 
G1 X106.2870 Y112.5940 E146.6427 
G1 X102.6430 Y112.5940 E146.7702 
G1 X102.6420 Y108.9490 E146.8978 
G1 X106.1280 Y109.5930 F7200 
G1 X105.6420 Y109.1070 F1200 E146.9219 
G1 X105.1470 Y109.1070 F7200 
G1 X106.1280 Y110.0880 F1200 E146.9704 
G1 X106.1890 Y110.1490 
G1 X106.1280 Y110.5830 F7200 
G1 X104.6520 Y109.1070 F1200 E147.0435 
G1 X104.5910 Y109.0460 
G1 X104.1560 Y109.1060 F7200 
G1 X106.1280 Y111.0780 F1200 E147.1411 
G1 X106.1890 Y111.1390 
G1 X106.1280 Y111.5730 F7200 
G1 X103.6610 Y109.1060 F1200 E147.2632 
G1 X103.6000 Y109.0450 
G1 X103.1660 Y109.1060 F7200 
G1 X106.1280 Y112.0680 F1200 E147.4098 
G1 X106.1890 Y112.1290 
G1 X106.0000 Y112.4340 F7200 
G1 X102.7990 Y109.2340 F1200 E147.5682 
G1 X102.7380 Y109.1730 
G1 X102.7990 Y109.7290 F7200 
G1 X105.5050 Y112.4340 F1200 E147.7021 
G1 X105.5660 Y112.4950 
G1 X105.0100 Y112.4340 F7200 
G1 X102.7990 Y110.2240 F1200 E147.8116 
G1 X102.7380 Y110.1630 
G1 X102.7990 Y110.7190 F7200 
G1 X104.5150 Y112.4340 F1200 E147.8965 
G1 X104.5760 Y112.4950 
G1 X104.0200 Y112.4340 F7200 
G1 X102.8000 Y111.2150 F1200 E147.9568 
G1 X102.7390 Y111.1540 
G1 X102.8000 Y111.7100 F7200 
G1 X103.5250 Y112.4340 F1200 E147.9927 
G1 X103.5860 Y112.4950 
G1 X103.0300 Y112.4340 F7200 
G1 X102.8000 Y112.2050 F1200 E148.0040 
G10 
G1 X106.9570 Y108.7840 F7200 
G1 X108.1980 Y108.7840 
G1 X114.8020 Y108.7840 
G1 X116.0430 Y108.7840 
G1 X120.6980 Y108.7840 
; TYPE:WALL-INNER 
G11 
G1 X120.6970 Y112.9340 F2400 E148.1493 
G1 X116.3730 Y112.9340 E148.3006 
G1 X116.3730 Y108.6100 E148.4520 
G1 X120.5230 Y108.6090 E148.5972 
G1 X120.6980 Y108.6090 E148.6034 
G1 X120.6980 Y108.7840 E148.6073 
G1 X121.0480 Y108.4340 F7200 
G1 X121.0470 Y113.2840 F2400 E148.7771 
G1 X116.0230 Y113.2840 E148.9529 
G1 X116.0230 Y108.2600 E149.1287 
G1 X120.8730 Y108.2590 E149.2985 
G1 X121.0480 Y108.2590 E149.3046 
G1 X121.0480 Y108.4340 E149.3086 
G1 X121.3730 Y108.1090 F7200 
; TYPE:WALL-OUTER 
G1 X121.3720 Y113.6090 F1800 E149.5011 
G1 X115.6980 Y113.6090 E149.6997 
G1 X115.6980 Y107.9350 E149.8983 
G1 X121.1980 Y107.9340 E150.0908 
G1 X121.3730 Y107.9340 E150.0969 
G1 X121.3730 Y108.1090 E150.1009 
G1 X121.3730 Y108.3090 F7200 
G1 X120.9480 Y108.3080 
G1 X120.3580 Y108.9490 
; TYPE:SKIN 
G1 X120.3570 Y112.5940 F1200 E150.2284 
G1 X116.7130 Y112.5940 E150.3560 
G1 X116.7130 Y108.9500 E150.4835 
G1 X120.3580 Y108.9490 E150.6111 
G1 X120.1980 Y109.3090 F7200 
G1 X119.9970 Y109.1070 F1200 E150.6210 
G1 X119.5020 Y109.1070 F7200 
G1 X120.1980 Y109.8040 F1200 E150.6555 
G1 X120.2590 Y109.8650 
G1 X120.1980 Y110.2990 F7200 
G1 X119.0070 Y109.1070 F1200 E150.7145 
G1 X118.9460 Y109.0460 
G1 X118.5120 Y109.1070 F7200 
G1 X120.1980 Y110.7940 F1200 E150.7980 
G1 X120.2590 Y110.8550 
G1 X120.1980 Y111.2890 F7200 
G1 X118.0170 Y109.1070 F1200 E150.9060 
G1 X117.9560 Y109.0460 
G1 X117.5220 Y109.1070 F7200 
G1 X120.1980 Y111.7840 F1200 E151.0384 
G1 X120.2590 Y111.8450 
G1 X120.1980 Y112.2790 F7200 
G1 X117.0270 Y109.1070 F1200 E151.1954 
G1 X116.9660 Y109.0460 
G1 X116.8700 Y109.4450 F7200 
G1 X119.8600 Y112.4350 F1200 E151.3434 
G1 X119.9210 Y112.4960 
G1 X119.3650 Y112.4350 F7200 
G1 X116.8700 Y109.9400 F1200 E151.4669 
G1 X116.8090 Y109.8790 
G1 X116.8700 Y110.4350 F7200 
G1 X118.8700 Y112.4350 F1200 E151.5659 
G1 X118.9310 Y112.4960 
G1 X118.3750 Y112.4350 F7200 
G1 X116.8700 Y110.9300 F1200 E151.6404 
G1 X116.8090 Y110.8690 
G1 X116.8700 Y111.4250 F7200 
G1 X117.8800 Y112.4350 F1200 E151.6904 
G1 X117.9410 Y112.4960 
G1 X117.3850 Y112.4350 F7200 
G1 X116.8700 Y111.9200 F1200 E151.7159 
G1 X116.8090 Y111.8590 
G10 
G1 X120.6980 Y113.2640 F7200 
G1 X120.6980 Y114.5050 
G1 X120.6980 Y121.1090 
G1 X120.6990 Y122.3300 
G1 X120.6980 Y122.8540 
; TYPE:WALL-INNER 
G11 
G1 X120.6970 Y127.0040 F2400 E151.8611 
G1 X116.3730 Y127.0040 E152.0125 
G1 X116.3730 Y122.6800 E152.1638 
G1 X120.5230 Y122.6790 E152.3091 
G1 X120.6980 Y122.6790 E152.3152 
G1 X120.6980 Y122.8540 E152.3192 
G1 X121.0480 Y122.5040 F7200 
G1 X121.0470 Y127.3540 F2400 E152.4889 
G1 X116.0230 Y127.3540 E152.6647 
G1 X116.0230 Y122.3300 E152.8406 
G1 X120.8730 Y122.3290 E153.0103 
G1 X121.0480 Y122.3290 E153.0165 
G1 X121.0480 Y122.5040 E153.0204 
G1 X121.3730 Y122.1790 F7200 
; TYPE:WALL-OUTER 
G1 X121.3720 Y127.6530 F1800 E153.2120 
G1 X121.3460 Y127.6790 E153.2133 
G1 X115.6980 Y127.6790 E153.4110 
G1 X115.6980 Y122.0050 E153.6096 
G1 X121.1980 Y122.0040 E153.8021 
G1 X121.3730 Y122.0040 E153.8082 
G1 X121.3730 Y122.1790 E153.8122 
G1 X121.3730 Y122.3790 F7200 
G1 X120.9480 Y122.3780 
G1 X120.3580 Y123.0190 
; TYPE:SKIN 
G1 X120.3570 Y126.6640 F1200 E153.9397 
G1 X116.7130 Y126.6640 E154.0673 
G1 X116.7130 Y123.0200 E154.1948 
G1 X120.3580 Y123.0190 E154.3224 
G1 X120.1990 Y123.6640 F7200 
G1 X119.7120 Y123.1770 F1200 E154.3465 
G1 X119.2170 Y123.1770 F7200 
G1 X120.1990 Y124.1590 F1200 E154.3951 
G1 X120.2600 Y124.2200 
G1 X120.1990 Y124.6540 F7200 
G1 X118.7220 Y123.1770 F1200 E154.4682 
G1 X118.6610 Y123.1160 
G1 X118.2270 Y123.1770 F7200 
G1 X120.1990 Y125.1490 F1200 E154.5658 
G1 X120.2600 Y125.2100 
G1 X120.1990 Y125.6440 F7200 
G1 X117.7320 Y123.1770 F1200 E154.6879 
G1 X117.6710 Y123.1160 
G1 X117.2370 Y123.1770 F7200 
G1 X120.1990 Y126.1390 F1200 E154.8345 
G1 X120.2600 Y126.2000 
G1 X120.0700 Y126.5040 F7200 
G1 X116.8710 Y123.3050 F1200 E154.9929 
G1 X116.8100 Y123.2440 
G1 X116.8710 Y123.8000 F7200 
G1 X119.5750 Y126.5040 F1200 E155.1267 
G1 X119.6360 Y126.5650 
G1 X119.0800 Y126.5040 F7200 
G1 X116.8710 Y124.2950 F1200 E155.2361 
G1 X116.8100 Y124.2340 
G1 X116.8710 Y124.7900 F7200 
G1 X118.5850 Y126.5040 F1200 E155.3209 
G1 X118.6460 Y126.5650 
G1 X118.0900 Y126.5040 F7200 
G1 X116.8710 Y125.2850 F1200 E155.3812 
G1 X116.8100 Y125.2240 
G1 X116.8710 Y125.7800 F7200 
G1 X117.5950 Y126.5040 F1200 E155.4171 
G1 X117.6560 Y126.5650 
G1 X117.1000 Y126.5040 F7200 
G1 X116.8710 Y126.2750 F1200 E155.4284 
G10 
G1 X116.0430 Y126.8300 F7200 
G1 X114.8020 Y126.8300 
G1 X108.1980 Y126.8300 
G1 X106.9770 Y126.8310 
G1 X106.6280 Y126.8300 
; TYPE:WALL-INNER 
G11 
G1 X106.6280 Y127.0050 F2400 E155.4345 
G1 X106.4530 Y127.0050 E155.4385 
G1 X102.3030 Y127.0040 E155.5838 
G1 X102.3030 Y122.6800 E155.7351 
G1 X106.6270 Y122.6800 E155.8864 
G1 X106.6280 Y126.8300 E156.0317 
G1 X106.9780 Y127.1800 F7200 
G1 X106.9780 Y127.3550 F2400 E156.0378 
G1 X106.8030 Y127.3550 E156.0418 
G1 X101.9530 Y127.3540 E156.2115 
G1 X101.9530 Y122.3300 E156.3874 
G1 X106.9770 Y122.3300 E156.5632 
G1 X106.9780 Y127.1800 E156.7329 
G1 X107.3030 Y127.5050 F7200 
; TYPE:WALL-OUTER 
G1 X107.3030 Y127.6800 F1800 E156.7391 
G1 X107.1280 Y127.6800 E156.7430 
G1 X101.6540 Y127.6790 E156.9346 
G1 X101.6280 Y127.6530 E156.9359 
G1 X101.6280 Y122.0050 E157.1336 
G1 X107.3020 Y122.0050 E157.3322 
G1 X107.3030 Y127.5050 E157.5247 
G1 X107.3030 Y127.6800 F7200 
G1 X107.2780 Y127.6800 
G1 X106.9080 Y127.2850 
G1 X106.2880 Y126.6650 
; TYPE:SKIN 
G1 X102.6430 Y126.6640 F1200 E157.6523 
G1 X102.6430 Y123.0200 E157.7798 
G1 X106.2870 Y123.0200 E157.9073 
G1 X106.2880 Y126.6650 E158.0349 
G1 X106.1290 Y123.4530 F7200 
G1 X105.8530 Y123.1770 F1200 E158.0486 
G1 X105.3580 Y123.1770 F7200 
G1 X106.1290 Y123.9480 F1200 E158.0867 
G1 X106.1900 Y124.0090 
G1 X106.1290 Y124.4430 F7200 
G1 X104.8630 Y123.1770 F1200 E158.1494 
G1 X104.8020 Y123.1160 
G1 X104.3680 Y123.1770 F7200 
G1 X106.1300 Y124.9390 F1200 E158.2366 
G1 X106.1910 Y125.0000 
G1 X106.1300 Y125.4340 F7200 
G1 X103.8730 Y123.1770 F1200 E158.3483 
G1 X103.8120 Y123.1160 
G1 X103.3780 Y123.1770 F7200 
G1 X106.1300 Y125.9290 F1200 E158.4846 
G1 X106.1910 Y125.9900 
G1 X106.1300 Y126.4240 F7200 
G1 X102.8830 Y123.1770 F1200 E158.6453 
G1 X102.8220 Y123.1160 
G1 X102.8010 Y123.5900 F7200 
G1 X105.7160 Y126.5050 F1200 E158.7896 
G1 X105.7770 Y126.5660 
G1 X105.2210 Y126.5050 F7200 
G1 X102.8010 Y124.0850 F1200 E158.9093 
G1 X102.7400 Y124.0240 
G1 X102.8010 Y124.5800 F7200 
G1 X104.7260 Y126.5050 F1200 E159.0046 
G1 X104.7870 Y126.5660 
G1 X104.2310 Y126.5040 F7200 
G1 X102.8010 Y125.0750 F1200 E159.0754 
G1 X102.7400 Y125.0140 
G1 X102.8010 Y125.5700 F7200 
G1 X103.7360 Y126.5040 F1200 E159.1216 
G1 X103.7970 Y126.5650 
G1 X103.2410 Y126.5040 F7200 
G1 X102.8010 Y126.0650 F1200 E159.1434 
G10 
G1 X106.9630 Y122.3440 F7200 
G1 X106.9630 Y121.1090 
G1 X108.0630 Y115.1550 
G1 X110.4200 Y98.5870 
G1 X111.5000 Y97.9450 
G1 X111.5000 Y96.8870 
; TIME_ELAPSED:159.509531 
; LAYER:7 
G1 X111.5000 Y96.8870 Z0.9700 
; TYPE:WALL-INNER 
G11 
G1 X111.4960 Y96.8570 F2400 E159.1445 
G1 X111.5050 Y96.8550 E159.1448 
G1 X111.5000 Y96.8870 
G1 X111.4840 Y96.4940 F7200 
G1 X111.6390 Y96.4450 F2400 E159.1505 
G1 X111.8410 Y96.3810 E159.1579 
G1 X111.9350 Y96.2890 E159.1625 
G1 X111.9220 Y96.3910 
G1 X111.8940 Y96.6010 E159.1675 
G1 X111.7860 Y97.3830 E159.1951 
G1 X111.7030 Y97.8570 E159.2120 
G1 X111.6730 Y97.9970 E159.2170 
G1 X111.6140 Y98.2790 E159.2270 
G1 X111.5990 Y98.3350 E159.2291 
G1 X111.5000 Y98.7000 E159.2423 
G1 X111.4020 Y98.3370 E159.2463 
G1 X111.3860 Y98.2780 E159.2473 
G1 X111.3270 Y97.9960 E159.2556 
G1 X111.2970 Y97.8560 E159.2606 
G1 X111.2140 Y97.3830 E159.2774 
G1 X111.1090 Y96.6100 E159.3047 
G1 X111.0780 Y96.3780 E159.3129 
G1 X111.0660 Y96.2900 E159.3160 
G1 X111.1450 Y96.3690 
G1 X111.3650 Y96.4500 E159.3214 
G1 X111.4840 Y96.4940 E159.3259 
G1 X111.4920 Y96.1510 F7200 
; TYPE:WALL-OUTER 
G1 X111.6690 Y96.0950 F1800 E159.3323 
G1 X111.7900 Y95.9760 E159.3383 
G1 X111.8810 Y95.8180 E159.3447 
G1 X111.9440 Y95.6720 E159.3502 
G1 X111.9800 Y95.5600 E159.3544 
G1 X112.0160 Y95.4440 E159.3586 
G1 X112.0690 Y95.2430 E159.3659 
G1 X112.1270 Y94.9690 E159.3757 
G1 X112.1890 Y94.6020 E159.3887 
G1 X112.2750 Y93.9770 E159.4108 
G1 X112.3170 Y93.5210 E159.4268 
G1 X112.3490 Y93.1760 E159.4389 
G1 X112.4880 Y93.1760 E159.4438 
G1 X112.4750 Y93.5350 E159.4493 
G1 X112.4470 Y93.9870 E159.4567 
G1 X112.4080 Y94.6160 E159.4690 
G1 X112.3850 Y94.9860 E159.4778 
G1 X112.3830 Y95.0020 E159.4783 
G1 X112.3590 Y95.2690 E159.4856 
G1 X112.3390 Y95.4740 E159.4921 
G1 X112.3280 Y95.5950 E159.4962 
G1 X112.2600 Y96.3080 E159.5213 
G1 X112.1060 Y97.4390 E159.5612 
G1 X112.0210 Y97.9240 E159.5784 
G1 X111.9290 Y98.3610 E159.5941 
G1 X111.8380 Y98.7110 E159.6067 
G1 X111.7410 Y99.0100 E159.6177 
G1 X111.6720 Y99.1730 E159.6239 
G1 X111.6460 Y99.2350 E159.6263 
G1 X111.5660 Y99.3650 E159.6316 
G1 X111.5580 Y99.3770 E159.6321 
G1 X111.5260 Y99.4080 E159.6337 
G1 X111.5020 Y99.4320 E159.6349 
G1 X111.4810 Y99.4130 
G1 X111.4420 Y99.3760 E159.6349 
G1 X111.4360 Y99.3660 
G1 X111.3540 Y99.2340 
G1 X111.3280 Y99.1720 E159.6373 
G1 X111.2590 Y99.0090 E159.6435 
G1 X111.1620 Y98.7100 E159.6545 
G1 X111.0710 Y98.3600 E159.6671 
G1 X110.9790 Y97.9230 E159.6828 
G1 X110.8940 Y97.4390 E159.7000 
G1 X110.7400 Y96.3080 E159.7399 
G1 X110.6740 Y95.6090 E159.7645 
G1 X110.6670 Y95.5280 E159.7673 
G1 X110.6200 Y95.0250 E159.7850 
G1 X110.6170 Y95.0020 E159.7858 
G1 X110.5940 Y94.6170 E159.7993 
G1 X110.5540 Y93.9880 E159.8214 
G1 X110.5250 Y93.5350 E159.8373 
G1 X110.5120 Y93.1760 E159.8499 
G1 X110.6540 Y93.1760 E159.8548 
G1 X110.6840 Y93.5200 E159.8599 
G1 X110.7240 Y93.9770 E159.8675 
G1 X110.8100 Y94.6030 E159.8797 
G1 X110.8720 Y94.9560 E159.8880 
G1 X110.8800 Y95.0010 E159.8889 
G1 X110.9970 Y95.4960 E159.9040 
G1 X111.0230 Y95.5740 E159.9068 
G1 X111.0570 Y95.6760 E159.9105 
G1 X111.1380 Y95.8550 E159.9174 
G1 X111.2120 Y95.9770 E159.9224 
G1 X111.3240 Y96.0890 E159.9280 
G1 X111.4920 Y96.1510 E159.9342 
G1 X111.6690 Y96.0950 F7200 
G1 X111.6790 Y96.0850 
G1 X111.5560 Y96.4870 
G10 
G1 X111.5800 Y96.5680 
G1 X111.4050 Y98.2740 
G1 X110.3040 Y98.9680 
G1 X107.0000 Y107.0300 
G1 X107.0000 Y108.2660 
G1 X102.4690 Y108.6010 
; TYPE:WALL-INNER 
G11 
G1 X106.6640 Y108.6020 F2400 E160.0811 
G1 X106.6640 Y112.9710 E160.2340 
G1 X102.2950 Y112.9710 E160.3869 
G1 X102.2940 Y108.7760 E160.5337 
G1 X102.2940 Y108.6010 E160.5398 
G1 X102.4690 Y108.6010 E160.5438 
G1 X102.1190 Y108.2510 F7200 
G1 X107.0140 Y108.2520 F2400 E160.7151 
G1 X107.0140 Y113.3210 E160.8925 
G1 X101.9450 Y113.3210 E161.0700 
G1 X101.9440 Y108.4260 E161.2413 
G1 X101.9440 Y108.2510 E161.2474 
G1 X102.1190 Y108.2510 E161.2514 
G1 X101.7940 Y107.9260 F7200 
; TYPE:WALL-OUTER 
G1 X107.3390 Y107.9270 F1800 E161.4454 
G1 X107.3390 Y113.6460 E161.6456 
G1 X101.6200 Y113.6460 E161.8458 
G1 X101.6190 Y108.1010 E162.0398 
G1 X101.6190 Y107.9260 E162.0460 
G1 X101.7940 Y107.9260 E162.0499 
G1 X101.9940 Y107.9260 F7200 
G1 X101.9930 Y108.3510 
G1 X102.6340 Y108.9410 
; TYPE:SKIN 
G1 X106.3240 Y108.9420 F1200 E162.1791 
G1 X106.3240 Y112.6310 E162.3082 
G1 X102.6350 Y112.6310 E162.4373 
G1 X102.6340 Y108.9410 E162.5665 
G1 X102.7920 Y109.5510 F7200 
G1 X103.2460 Y109.0980 F1200 E162.5889 
G1 X103.7410 Y109.0980 F7200 
G1 X102.7920 Y110.0460 F1200 E162.6359 
G1 X102.7310 Y110.1070 
G1 X102.7920 Y110.5410 F7200 
G1 X104.2360 Y109.0980 F1200 E162.7073 
G1 X104.2970 Y109.0370 
G1 X104.7300 Y109.0980 F7200 
G1 X102.7930 Y111.0350 F1200 E162.8032 
G1 X102.7320 Y111.0960 
G1 X102.7930 Y111.5300 F7200 
G1 X105.2250 Y109.0980 F1200 E162.9236 
G1 X105.2860 Y109.0370 
G1 X105.7200 Y109.0980 F7200 
G1 X102.7930 Y112.0250 F1200 E163.0684 
G1 X102.7320 Y112.0860 
G1 X102.8410 Y112.4720 F7200 
G1 X106.1660 Y109.1470 F1200 E163.2330 
G1 X106.2270 Y109.0860 
G1 X106.1660 Y109.6420 F7200 
G1 X103.3360 Y112.4720 F1200 E163.3731 
G1 X103.2750 Y112.5330 
G1 X103.8310 Y112.4720 F7200 
G1 X106.1660 Y110.1370 F1200 E163.4887 
G1 X106.2270 Y110.0760 
G1 X106.1660 Y110.6320 F7200 
G1 X104.3260 Y112.4720 F1200 E163.5797 
G1 X104.2650 Y112.5330 
G1 X104.8210 Y112.4720 F7200 
G1 X106.1660 Y111.1270 F1200 E163.6463 
G1 X106.2270 Y111.0660 
G1 X106.1660 Y111.6220 F7200 
G1 X105.3160 Y112.4720 F1200 E163.6884 
G1 X105.2550 Y112.5330 
G1 X105.8110 Y112.4720 F7200 
G1 X106.1660 Y112.1170 F1200 E163.7060 
G10 
G1 X106.9940 Y108.7760 F7200 
G1 X108.2350 Y108.7760 
G1 X114.7650 Y108.7760 
G1 X116.0060 Y108.7760 
G1 X120.7060 Y108.7760 
; TYPE:WALL-INNER 
G11 
G1 X120.7050 Y112.9710 F2400 E163.8528 
G1 X116.3360 Y112.9710 E164.0057 
G1 X116.3360 Y108.6020 E164.1586 
G1 X120.5310 Y108.6010 E164.3055 
G1 X120.7060 Y108.6010 E164.3116 
G1 X120.7060 Y108.7760 E164.3155 
G1 X121.0560 Y108.4260 F7200 
G1 X121.0550 Y113.3210 F2400 E164.4869 
G1 X115.9860 Y113.3210 E164.6643 
G1 X115.9860 Y108.2520 E164.8417 
G1 X120.8810 Y108.2510 E165.0130 
G1 X121.0560 Y108.2510 E165.0191 
G1 X121.0560 Y108.4260 E165.0231 
G1 X121.3810 Y108.1010 F7200 
; TYPE:WALL-OUTER 
G1 X121.3800 Y113.6460 F1800 E165.2172 
G1 X115.6610 Y113.6460 E165.4173 
G1 X115.6610 Y107.9270 E165.6175 
G1 X121.2060 Y107.9260 E165.8116 
G1 X121.3810 Y107.9260 E165.8177 
G1 X121.3810 Y108.1010 E165.8217 
G1 X121.3810 Y108.3010 F7200 
G1 X120.9560 Y108.3000 
G1 X120.3660 Y108.9410 
; TYPE:SKIN 
G1 X120.3650 Y112.6310 F1200 E165.9508 
G1 X116.6760 Y112.6310 E166.0799 
G1 X116.6760 Y108.9420 E166.2090 
G1 X120.3660 Y108.9410 E166.3382 
G1 X117.1030 Y109.0990 F7200 
G1 X116.8330 Y109.3700 F1200 E166.3516 
G1 X116.8330 Y109.8650 F7200 
G1 X117.5980 Y109.0990 F1200 E166.3895 
G1 X117.6590 Y109.0380 
G1 X118.0930 Y109.0990 F7200 
G1 X116.8330 Y110.3600 F1200 E166.4519 
G1 X116.7720 Y110.4210 
G1 X116.8330 Y110.8550 F7200 
G1 X118.5890 Y109.0980 F1200 E166.5388 
G1 X118.6500 Y109.0370 
G1 X119.0840 Y109.0980 F7200 
G1 X116.8330 Y111.3500 F1200 E166.6503 
G1 X116.7720 Y111.4110 
G1 X116.8330 Y111.8450 F7200 
G1 X119.5790 Y109.0980 F1200 E166.7862 
G1 X119.6400 Y109.0370 
G1 X120.0740 Y109.0980 F7200 
G1 X116.8330 Y112.3400 F1200 E166.9467 
G1 X116.7720 Y112.4010 
G1 X117.1950 Y112.4730 F7200 
G1 X120.2060 Y109.4610 F1200 E167.0957 
G1 X120.2670 Y109.4000 
G1 X120.2060 Y109.9560 F7200 
G1 X117.6900 Y112.4730 F1200 E167.2203 
G1 X117.6290 Y112.5340 
G1 X118.1850 Y112.4730 F7200 
G1 X120.2060 Y110.4510 F1200 E167.3203 
G1 X120.2670 Y110.3900 
G1 X120.2060 Y110.9470 F7200 
G1 X118.6800 Y112.4730 F1200 E167.3959 
G1 X118.6190 Y112.5340 
G1 X119.1750 Y112.4730 F7200 
G1 X120.2060 Y111.4420 F1200 E167.4469 
G1 X120.2670 Y111.3810 
G1 X120.2060 Y111.9370 F7200 
G1 X119.6700 Y112.4730 F1200 E167.4734 
G1 X119.6090 Y112.5340 
G10 
G1 X120.7060 Y113.3010 F7200 
G1 X120.7060 Y114.5420 
G1 X120.7060 Y121.0720 
G1 X120.7060 Y122.3130 
G1 X120.7060 Y126.8370 
; TYPE:WALL-INNER 
G11 
G1 X120.7060 Y127.0120 F2400 E167.4795 
G1 X120.5310 Y127.0120 E167.4835 
G1 X116.3360 Y127.0120 E167.6303 
G1 X116.3360 Y122.6430 E167.7833 
G1 X120.7050 Y122.6430 E167.9362 
G1 X120.7060 Y126.8370 E168.0830 
G1 X121.0560 Y127.1870 F7200 
G1 X121.0560 Y127.3620 F2400 E168.0891 
G1 X120.8810 Y127.3620 E168.0931 
G1 X115.9860 Y127.3620 E168.2644 
G1 X115.9860 Y122.2930 E168.4418 
G1 X121.0550 Y122.2930 E168.6192 
G1 X121.0560 Y127.1870 E168.7905 
G1 X121.3810 Y127.4990 F7200 
; TYPE:WALL-OUTER 
G1 X121.3810 Y127.6440 F1800 E168.7956 
G1 X121.3380 Y127.6870 E168.7977 
G1 X121.1930 Y127.6870 E168.8028 
G1 X115.6610 Y127.6870 E168.9964 
G1 X115.6610 Y121.9680 E169.1966 
G1 X121.3800 Y121.9680 E169.3967 
G1 X121.3810 Y127.4990 E169.5903 
G1 X121.3810 Y127.6440 F7200 
G1 X121.3420 Y127.6830 
G1 X120.9860 Y127.2920 
G1 X120.3660 Y126.6720 
; TYPE:SKIN 
G1 X116.6760 Y126.6720 F1200 E169.7195 
G1 X116.6760 Y122.9830 E169.8486 
G1 X120.3650 Y122.9830 E169.9777 
G1 X120.3660 Y126.6720 E170.1068 
G1 X119.9830 Y126.5130 F7200 
G1 X120.2070 Y126.2890 F1200 E170.1179 
G1 X120.2070 Y125.7950 F7200 
G1 X119.4890 Y126.5130 F1200 E170.1534 
G1 X119.4280 Y126.5740 
G1 X118.9940 Y126.5130 F7200 
G1 X120.2070 Y125.3000 F1200 E170.2135 
G1 X120.2680 Y125.2390 
G1 X120.2070 Y124.8050 F7200 
G1 X118.4990 Y126.5130 F1200 E170.2980 
G1 X118.4380 Y126.5740 
G1 X118.0040 Y126.5130 F7200 
G1 X120.2070 Y124.3100 F1200 E170.4071 
G1 X120.2680 Y124.2490 
G1 X120.2070 Y123.8150 F7200 
G1 X117.5090 Y126.5130 F1200 E170.5406 
G1 X117.4480 Y126.5740 
G1 X117.0140 Y126.5130 F7200 
G1 X120.2070 Y123.3200 F1200 E170.6986 
G1 X120.2680 Y123.2590 
G1 X119.8920 Y123.1390 F7200 
G1 X116.8340 Y126.1980 F1200 E170.8500 
G1 X116.7730 Y126.2590 
G1 X116.8340 Y125.7030 F7200 
G1 X119.3970 Y123.1390 F1200 E170.9769 
G1 X119.4580 Y123.0780 
G1 X118.9020 Y123.1390 F7200 
G1 X116.8340 Y125.2080 F1200 E171.0793 
G1 X116.7730 Y125.2690 
G1 X116.8340 Y124.7130 F7200 
G1 X118.4070 Y123.1390 F1200 E171.1572 
G1 X118.4680 Y123.0780 
G1 X117.9120 Y123.1390 F7200 
G1 X116.8340 Y124.2180 F1200 E171.2106 
G1 X116.7730 Y124.2790 
G1 X116.8340 Y123.7230 F7200 
G1 X117.4170 Y123.1390 F1200 E171.2395 
G1 X117.4780 Y123.0780 
G1 X116.9220 Y123.1390 F7200 
G1 X116.8340 Y123.2280 F1200 E171.2438 
G10 
G1 X116.0060 Y127.0120 F7200 
G1 X114.7650 Y127.0120 
G1 X108.2350 Y127.0120 
G1 X107.0140 Y127.0130 
G1 X102.4690 Y127.0120 
; TYPE:WALL-INNER 
G11 
G1 X102.2940 Y127.0120 F2400 E171.2500 
G1 X102.2940 Y126.8370 E171.2539 
G1 X102.2950 Y122.6430 E171.4007 
G1 X106.6640 Y122.6430 E171.5536 
G1 X106.6650 Y126.8380 E171.7005 
G1 X106.6650 Y127.0130 E171.7066 
G1 X106.4900 Y127.0130 E171.7105 
G1 X102.4690 Y127.0120 E171.8513 
G1 X102.1190 Y127.3620 F7200 
G1 X101.9440 Y127.3620 F2400 E171.8574 
G1 X101.9440 Y127.1870 E171.8614 
G1 X101.9450 Y122.2930 E172.0327 
G1 X107.0140 Y122.2930 E172.2101 
G1 X107.0150 Y127.1880 E172.3814 
G1 X107.0150 Y127.3630 E172.3875 
G1 X106.8400 Y127.3630 E172.3915 
G1 X102.1190 Y127.3620 E172.5567 
G1 X101.8070 Y127.6870 F7200 
; TYPE:WALL-OUTER 
G1 X101.6620 Y127.6870 F1800 E172.5618 
G1 X101.6190 Y127.6440 E172.5639 
G1 X101.6190 Y127.4990 E172.5690 
G1 X101.6200 Y121.9680 E172.7626 
G1 X107.3390 Y121.9680 E172.9627 
G1 X107.3400 Y127.5130 E173.1568 
G1 X107.3400 Y127.6880 E173.1629 
G1 X107.1650 Y127.6880 E173.1669 
G1 X101.8070 Y127.6870 E173.3544 
G1 X101.6620 Y127.6870 F7200 
G1 X101.6230 Y127.6480 
G1 X102.0140 Y127.2920 
G1 X102.6340 Y126.6720 
