;FLAVOR:UltiGCode
;TIME:1713
;MATERIAL:1405
;MATERIAL2:0
;NOZZLE_DIAMETER:0.4
;Generated with Cura_SteamEngine 3.3.1
M82 ;absolute extrusion mode

G92 E0
G10
;LAYER_COUNT:164
;LAYER:0
M107
G0 F4320 X105.12 Y95.321 Z0.27
;TYPE:SKIRT
G11
G1 F1800 X105.663 Y94.742 E0.07501
G1 X106.261 Y94.221 E0.14996
G1 X106.908 Y93.762 E0.22493
G1 X107.599 Y93.371 E0.29996
G1 X108.325 Y93.051 E0.37493
G1 X109.08 Y92.807 E0.44991
G1 X109.855 Y92.639 E0.52485
G1 X110.644 Y92.55 E0.59988
G1 X111.13 Y92.535 E0.64583
G1 X111.871 Y92.535 E0.71586
G1 X112.663 Y92.575 E0.7908
G1 X113.448 Y92.694 E0.86583
G1 X114.216 Y92.892 E0.94078
G1 X114.961 Y93.167 E1.01582
G1 X115.674 Y93.514 E1.09076
G1 X116.349 Y93.932 E1.16578
G1 X116.978 Y94.415 E1.24073
G1 X117.555 Y94.96 E1.31573
G1 X117.944 Y95.397 E1.37102
G1 X118.048 Y95.523 E1.38646
G1 X118.522 Y96.16 E1.46149
G1 X118.929 Y96.841 E1.53646
G1 X119.266 Y97.559 E1.61142
G1 X119.528 Y98.308 E1.6864
G1 X119.714 Y99.079 E1.76135
G1 X119.821 Y99.866 E1.83641
G1 X119.849 Y100.659 E1.91139
G1 X119.797 Y101.45 E1.9863
G1 X119.745 Y101.775 E2.01741
G1 X120.48 Y102.045 E2.0914
G1 X121.193 Y102.392 E2.16634
G1 X121.868 Y102.81 E2.24137
G1 X122.497 Y103.293 E2.31631
G1 X122.96 Y103.721 E2.37589
G1 X123.063 Y103.824 E2.38966
G1 X123.596 Y104.412 E2.46466
G1 X124.066 Y105.051 E2.53962
G1 X124.469 Y105.735 E2.61464
G1 X124.802 Y106.455 E2.6896
G1 X125.06 Y107.205 E2.76455
G1 X125.242 Y107.978 E2.8396
G1 X125.345 Y108.764 E2.91451
G1 X125.37 Y109.394 E2.97409
G1 X125.369 Y112.662 E3.28292
G1 X125.329 Y113.455 E3.35795
G1 X125.209 Y114.239 E3.43291
G1 X125.011 Y115.008 E3.50795
G1 X124.909 Y115.284 E3.53575
G1 X125.06 Y115.722 E3.57953
G1 X125.242 Y116.495 E3.65458
G1 X125.345 Y117.281 E3.72949
G1 X125.37 Y117.911 E3.78907
G1 X125.369 Y121.178 E4.0978
G1 X125.329 Y121.971 E4.17284
G1 X125.209 Y122.755 E4.24779
G1 X125.011 Y123.524 E4.32283
G1 X124.737 Y124.268 E4.39775
G1 X124.389 Y124.981 E4.47273
G1 X123.971 Y125.656 E4.54776
G1 X123.487 Y126.285 E4.62276
G1 X123.035 Y126.772 E4.68555
G1 X122.932 Y126.874 E4.69925
G1 X122.341 Y127.403 E4.7742
G1 X121.7 Y127.87 E4.84915
G1 X121.014 Y128.27 E4.92419
G1 X120.292 Y128.599 E4.99917
G1 X119.541 Y128.854 E5.07412
G1 X118.768 Y129.032 E5.14908
G1 X117.98 Y129.131 E5.22413
G1 X117.391 Y129.153 E5.27983
G1 X114.126 Y129.153 E5.58837
G1 X113.334 Y129.113 E5.66331
G1 X112.549 Y128.994 E5.73834
G1 X111.781 Y128.796 E5.81329
G1 X111.501 Y128.693 E5.84148
G1 X111.062 Y128.844 E5.88535
G1 X110.289 Y129.026 E5.9604
G1 X109.503 Y129.129 E6.03531
G1 X108.873 Y129.154 E6.09489
G1 X105.606 Y129.153 E6.40363
G1 X104.813 Y129.113 E6.47866
G1 X104.029 Y128.993 E6.55361
G1 X103.26 Y128.795 E6.62865
G1 X102.516 Y128.521 E6.70357
G1 X101.803 Y128.173 E6.77855
G1 X101.128 Y127.755 E6.85358
G1 X100.499 Y127.271 E6.92858
G1 X100.012 Y126.819 E6.99137
G1 X99.91 Y126.716 E7.00507
G1 X99.381 Y126.125 E7.08002
G1 X98.914 Y125.484 E7.15497
G1 X98.514 Y124.798 E7.23001
G1 X98.185 Y124.076 E7.30499
G1 X97.93 Y123.325 E7.37994
G1 X97.752 Y122.552 E7.4549
G1 X97.653 Y121.764 E7.52995
G1 X97.631 Y121.175 E7.58565
G1 X97.631 Y117.91 E7.89419
G1 X97.671 Y117.118 E7.96913
G1 X97.79 Y116.333 E8.04416
G1 X97.988 Y115.565 E8.11911
G1 X98.092 Y115.284 E8.14742
G1 X97.951 Y114.884 E8.1875
G1 X97.766 Y114.112 E8.26252
G1 X97.659 Y113.326 E8.33749
G1 X97.631 Y112.662 E8.40029
G1 X97.63 Y109.394 E8.70912
G1 X97.67 Y108.602 E8.78406
G1 X97.789 Y107.817 E8.85909
G1 X97.987 Y107.049 E8.93403
G1 X98.261 Y106.304 E9.00905
G1 X98.608 Y105.591 E9.08398
G1 X99.026 Y104.916 E9.15901
G1 X99.509 Y104.287 E9.23395
G1 X99.937 Y103.824 E9.29354
G1 X100.04 Y103.721 E9.3073
G1 X100.628 Y103.188 E9.3823
G1 X101.267 Y102.718 E9.45726
G1 X101.951 Y102.315 E9.53228
G1 X102.671 Y101.982 E9.60725
G1 X103.251 Y101.782 E9.66522
G1 X103.165 Y101.026 E9.73713
G1 X103.156 Y100.232 E9.81216
G1 X103.226 Y99.442 E9.88711
G1 X103.376 Y98.663 E9.96208
G1 X103.603 Y97.903 E10.03704
G1 X103.905 Y97.169 E10.11204
G1 X104.28 Y96.47 E10.187
G1 X104.723 Y95.811 E10.26204
G1 X105.015 Y95.445 E10.30629
G1 X105.12 Y95.321 E10.32164
G0 F4320 X105.387 Y95.547
G1 F1800 X105.918 Y94.982 E10.39491
G1 X106.505 Y94.474 E10.46827
G1 X107.14 Y94.03 E10.54149
G1 X107.818 Y93.653 E10.6148
G1 X108.531 Y93.348 E10.68809
G1 X109.272 Y93.118 E10.76141
G1 X110.033 Y92.965 E10.83476
G1 X111.13 Y92.885 E10.9387
G1 X111.871 Y92.885 E11.00873
G1 X112.646 Y92.925 E11.08206
G1 X113.412 Y93.044 E11.15532
G1 X114.162 Y93.242 E11.22862
G1 X114.888 Y93.516 E11.30195
G1 X115.581 Y93.863 E11.37519
G1 X116.235 Y94.28 E11.44849
G1 X116.843 Y94.762 E11.52181
G1 X117.398 Y95.304 E11.59512
G1 X117.674 Y95.62 E11.63477
G1 X117.778 Y95.746 E11.6502
G1 X118.241 Y96.369 E11.72356
G1 X118.636 Y97.036 E11.79681
G1 X118.961 Y97.74 E11.87009
G1 X119.212 Y98.474 E11.94339
G1 X119.386 Y99.23 E12.0167
G1 X119.481 Y100 E12.09002
G1 X119.496 Y100.775 E12.16327
G1 X119.432 Y101.548 E12.23657
G1 X119.349 Y102.033 E12.28307
G1 X119.681 Y102.121 E12.31553
G1 X120.407 Y102.394 E12.38882
G1 X121.1 Y102.741 E12.46206
G1 X121.755 Y103.158 E12.53544
G1 X122.363 Y103.639 E12.6087
G1 X122.713 Y103.968 E12.65409
G1 X122.816 Y104.071 E12.66786
G1 X123.335 Y104.647 E12.74113
G1 X123.793 Y105.273 E12.81443
G1 X124.183 Y105.944 E12.88777
G1 X124.503 Y106.65 E12.96102
G1 X124.748 Y107.386 E13.03432
G1 X124.916 Y108.144 E13.10769
G1 X125.005 Y108.914 E13.18094
G1 X125.02 Y109.394 E13.22633
G1 X125.019 Y112.662 E13.53515
G1 X124.979 Y113.437 E13.60849
G1 X124.859 Y114.203 E13.68176
G1 X124.661 Y114.953 E13.75506
G1 X124.539 Y115.276 E13.78769
G1 X124.748 Y115.903 E13.85014
G1 X124.916 Y116.661 E13.92351
G1 X125.005 Y117.431 E13.99676
G1 X125.02 Y117.911 E14.04215
G1 X125.019 Y121.178 E14.35088
G1 X124.979 Y121.953 E14.42421
G1 X124.859 Y122.719 E14.49748
G1 X124.661 Y123.469 E14.57078
G1 X124.387 Y124.195 E14.64412
G1 X124.04 Y124.888 E14.71735
G1 X123.623 Y125.542 E14.79065
G1 X123.141 Y126.15 E14.86397
G1 X122.789 Y126.523 E14.91244
G1 X122.686 Y126.625 E14.92614
G1 X122.107 Y127.142 E14.99949
G1 X121.479 Y127.596 E15.07272
G1 X120.807 Y127.983 E15.146
G1 X120.098 Y128.299 E15.21936
G1 X119.361 Y128.54 E15.29263
G1 X118.603 Y128.705 E15.36594
G1 X117.832 Y128.79 E15.43924
G1 X117.391 Y128.803 E15.48093
G1 X114.126 Y128.803 E15.78948
G1 X113.351 Y128.763 E15.86281
G1 X112.585 Y128.644 E15.93607
G1 X111.835 Y128.446 E16.00937
G1 X111.509 Y128.323 E16.0423
G1 X110.881 Y128.532 E16.10484
G1 X110.123 Y128.7 E16.17821
G1 X109.353 Y128.789 E16.25146
G1 X108.873 Y128.804 E16.29684
G1 X105.606 Y128.803 E16.60558
G1 X104.831 Y128.763 E16.67891
G1 X104.065 Y128.643 E16.75218
G1 X103.315 Y128.445 E16.82548
G1 X102.589 Y128.171 E16.89881
G1 X101.896 Y127.824 E16.97205
G1 X101.242 Y127.407 E17.04535
G1 X100.634 Y126.925 E17.11867
G1 X100.261 Y126.573 E17.16714
G1 X100.159 Y126.47 E17.18084
G1 X99.642 Y125.891 E17.25419
G1 X99.188 Y125.263 E17.32742
G1 X98.801 Y124.591 E17.4007
G1 X98.485 Y123.882 E17.47406
G1 X98.244 Y123.145 E17.54733
G1 X98.079 Y122.387 E17.62064
G1 X97.994 Y121.616 E17.69394
G1 X97.981 Y121.175 E17.73563
G1 X97.981 Y117.91 E18.04418
G1 X98.021 Y117.135 E18.11751
G1 X98.14 Y116.369 E18.19077
G1 X98.338 Y115.619 E18.26407
G1 X98.462 Y115.289 E18.29738
G1 X98.263 Y114.701 E18.35604
G1 X98.091 Y113.945 E18.42931
G1 X97.999 Y113.175 E18.5026
G1 X97.981 Y112.662 E18.5511
G1 X97.98 Y109.394 E18.85993
G1 X98.02 Y108.62 E18.93317
G1 X98.139 Y107.853 E19.00652
G1 X98.337 Y107.103 E19.07982
G1 X98.61 Y106.377 E19.15312
G1 X98.957 Y105.684 E19.22636
G1 X99.374 Y105.029 E19.29974
G1 X99.855 Y104.421 E19.373
G1 X100.184 Y104.071 E19.41839
G1 X100.287 Y103.968 E19.43216
G1 X100.863 Y103.449 E19.50542
G1 X101.489 Y102.991 E19.57872
G1 X102.16 Y102.601 E19.65207
G1 X102.866 Y102.281 E19.72532
G1 X103.602 Y102.036 E19.79862
G1 X103.658 Y102.024 E19.80403
G1 X103.597 Y101.74 E19.83148
G1 X103.513 Y100.969 E19.90477
G1 X103.508 Y100.194 E19.97801
G1 X103.583 Y99.422 E20.05131
G1 X103.737 Y98.661 E20.12468
G1 X103.968 Y97.921 E20.19794
G1 X104.275 Y97.209 E20.27121
G1 X104.653 Y96.531 E20.34457
G1 X105.282 Y95.671 E20.44526
G1 X105.387 Y95.547 E20.46061
G0 F4320 X105.654 Y95.773
G1 F1800 X106.174 Y95.222 E20.53221
G1 X106.748 Y94.728 E20.60377
G1 X107.371 Y94.298 E20.67531
G1 X108.037 Y93.936 E20.74694
G1 X108.736 Y93.646 E20.81846
G1 X109.463 Y93.431 E20.8901
G1 X110.207 Y93.295 E20.96157
G1 X111.13 Y93.235 E21.04898
G1 X111.871 Y93.235 E21.119
G1 X112.627 Y93.275 E21.19055
G1 X113.375 Y93.394 E21.26212
G1 X114.106 Y93.592 E21.33369
G1 X114.813 Y93.866 E21.40534
G1 X115.486 Y94.212 E21.47685
G1 X116.119 Y94.628 E21.54843
G1 X116.705 Y95.108 E21.62002
G1 X117.405 Y95.843 E21.71593
G1 X117.509 Y95.969 E21.73137
G1 X117.959 Y96.577 E21.80285
G1 X118.343 Y97.23 E21.87444
G1 X118.656 Y97.92 E21.94604
G1 X118.895 Y98.639 E22.01764
G1 X119.056 Y99.379 E22.08921
G1 X119.139 Y100.132 E22.1608
G1 X119.141 Y100.889 E22.23234
G1 X119.005 Y101.971 E22.33539
G1 X118.941 Y102.286 E22.36576
G1 X119.625 Y102.47 E22.4327
G1 X120.332 Y102.744 E22.50435
G1 X121.005 Y103.09 E22.57587
G1 X121.638 Y103.505 E22.64739
G1 X122.465 Y104.216 E22.75046
G1 X122.568 Y104.319 E22.76422
G1 X123.075 Y104.882 E22.83582
G1 X123.519 Y105.495 E22.90735
G1 X123.897 Y106.152 E22.97898
G1 X124.203 Y106.844 E23.05048
G1 X124.434 Y107.566 E23.12211
G1 X124.588 Y108.307 E23.19363
G1 X124.67 Y109.394 E23.29665
G1 X124.669 Y112.662 E23.60547
G1 X124.629 Y113.418 E23.67702
G1 X124.509 Y114.166 E23.74861
G1 X124.311 Y114.897 E23.82017
G1 X124.165 Y115.274 E23.85838
G1 X124.203 Y115.361 E23.86735
G1 X124.434 Y116.083 E23.93899
G1 X124.588 Y116.824 E24.01051
G1 X124.67 Y117.911 E24.11352
G1 X124.669 Y121.178 E24.42225
G1 X124.629 Y121.934 E24.49379
G1 X124.509 Y122.682 E24.56538
G1 X124.311 Y123.413 E24.63695
G1 X124.037 Y124.12 E24.70861
G1 X123.691 Y124.793 E24.78012
G1 X123.275 Y125.426 E24.8517
G1 X122.543 Y126.274 E24.95756
G1 X122.44 Y126.376 E24.97126
G1 X121.874 Y126.88 E25.04288
G1 X121.259 Y127.321 E25.11439
G1 X120.6 Y127.695 E25.186
G1 X119.906 Y127.998 E25.25756
G1 X119.183 Y128.225 E25.32917
G1 X118.441 Y128.376 E25.40073
G1 X117.391 Y128.453 E25.50022
G1 X114.126 Y128.453 E25.80876
G1 X113.37 Y128.413 E25.8803
G1 X112.622 Y128.294 E25.95188
G1 X111.891 Y128.096 E26.02345
G1 X111.51 Y127.948 E26.06207
G1 X111.423 Y127.987 E26.07108
G1 X110.701 Y128.218 E26.14272
G1 X109.96 Y128.372 E26.21424
G1 X108.873 Y128.454 E26.31725
G1 X105.606 Y128.453 E26.62598
G1 X104.85 Y128.413 E26.69753
G1 X104.102 Y128.293 E26.76912
G1 X103.371 Y128.095 E26.84068
G1 X102.664 Y127.821 E26.91234
G1 X101.991 Y127.475 E26.98385
G1 X101.358 Y127.059 E27.05543
G1 X100.51 Y126.327 E27.16129
G1 X100.408 Y126.224 E27.17499
G1 X99.904 Y125.658 E27.24661
G1 X99.463 Y125.043 E27.31812
G1 X99.089 Y124.384 E27.38973
G1 X98.786 Y123.69 E27.46129
G1 X98.559 Y122.967 E27.5329
G1 X98.408 Y122.225 E27.60446
G1 X98.331 Y121.175 E27.70395
G1 X98.331 Y117.91 E28.01249
G1 X98.371 Y117.154 E28.08404
G1 X98.49 Y116.406 E28.15561
G1 X98.688 Y115.675 E28.22718
G1 X98.835 Y115.295 E28.26568
G1 X98.811 Y115.24 E28.27135
G1 X98.576 Y114.52 E28.34293
G1 X98.419 Y113.779 E28.4145
G1 X98.331 Y112.662 E28.52039
G1 X98.33 Y109.394 E28.82921
G1 X98.37 Y108.638 E28.90076
G1 X98.489 Y107.89 E28.97233
G1 X98.686 Y107.159 E29.04387
G1 X98.96 Y106.452 E29.11553
G1 X99.306 Y105.779 E29.18704
G1 X99.721 Y105.146 E29.25857
G1 X100.432 Y104.319 E29.36163
G1 X100.535 Y104.216 E29.3754
G1 X101.098 Y103.709 E29.44699
G1 X101.711 Y103.265 E29.51852
G1 X102.368 Y102.887 E29.59015
G1 X103.06 Y102.581 E29.66165
G1 X103.782 Y102.35 E29.73329
G1 X104.074 Y102.289 E29.76148
G1 X103.94 Y101.666 E29.8217
G1 X103.86 Y100.913 E29.89326
G1 X103.86 Y100.156 E29.96479
G1 X103.94 Y99.403 E30.03635
G1 X104.098 Y98.662 E30.10795
G1 X104.334 Y97.943 E30.17946
G1 X104.645 Y97.252 E30.25107
G1 X105.026 Y96.597 E30.32268
G1 X105.549 Y95.897 E30.40525
G1 X105.654 Y95.773 E30.42061
G0 F4320 X105.921 Y96
G1 F1800 X106.429 Y95.463 E30.49046
G1 X106.991 Y94.983 E30.56031
G1 X107.601 Y94.568 E30.63003
G1 X108.254 Y94.221 E30.69991
G1 X108.939 Y93.946 E30.76966
G1 X109.651 Y93.747 E30.83952
G1 X110.379 Y93.626 E30.90926
G1 X111.13 Y93.585 E30.98034
G1 X111.871 Y93.585 E31.05036
G1 X112.609 Y93.625 E31.12021
G1 X113.337 Y93.744 E31.18992
G1 X114.049 Y93.942 E31.25975
G1 X114.735 Y94.215 E31.32952
G1 X115.388 Y94.561 E31.39936
G1 X116 Y94.975 E31.46918
G1 X116.563 Y95.453 E31.53898
G1 X117.135 Y96.065 E31.61814
G1 X117.239 Y96.191 E31.63358
G1 X117.677 Y96.786 E31.7034
G1 X118.049 Y97.424 E31.77319
G1 X118.35 Y98.099 E31.84303
G1 X118.576 Y98.802 E31.91281
G1 X118.725 Y99.525 E31.98257
G1 X118.794 Y100.261 E32.05243
G1 X118.784 Y100.999 E32.12218
G1 X118.662 Y101.901 E32.20819
G1 X118.526 Y102.569 E32.27261
G1 X118.856 Y102.623 E32.30421
G1 X119.568 Y102.82 E32.37402
G1 X120.255 Y103.093 E32.44388
G1 X120.907 Y103.439 E32.51364
G1 X121.519 Y103.853 E32.58346
G1 X122.218 Y104.463 E32.67113
G1 X122.321 Y104.566 E32.6849
G1 X122.814 Y105.116 E32.7547
G1 X123.245 Y105.716 E32.82451
G1 X123.609 Y106.359 E32.89433
G1 X123.901 Y107.037 E32.96409
G1 X124.118 Y107.743 E33.03389
G1 X124.257 Y108.469 E33.10374
G1 X124.32 Y109.394 E33.19136
G1 X124.319 Y112.662 E33.50018
G1 X124.279 Y113.4 E33.57003
G1 X124.159 Y114.129 E33.63985
G1 X123.961 Y114.84 E33.70959
G1 X123.785 Y115.284 E33.75473
G1 X123.901 Y115.554 E33.7825
G1 X124.118 Y116.26 E33.85229
G1 X124.257 Y116.986 E33.92215
G1 X124.32 Y117.911 E34.00976
G1 X124.319 Y121.178 E34.31849
G1 X124.279 Y121.916 E34.38834
G1 X124.159 Y122.645 E34.45815
G1 X123.961 Y123.356 E34.5279
G1 X123.688 Y124.042 E34.59767
G1 X123.342 Y124.695 E34.66751
G1 X122.927 Y125.306 E34.73731
G1 X122.296 Y126.025 E34.82771
G1 X122.193 Y126.127 E34.84141
G1 X121.641 Y126.618 E34.91122
G1 X121.039 Y127.046 E34.98102
G1 X120.395 Y127.407 E35.05079
G1 X119.715 Y127.695 E35.12057
G1 X119.007 Y127.909 E35.19047
G1 X118.281 Y128.045 E35.26027
G1 X117.391 Y128.103 E35.34455
G1 X114.126 Y128.103 E35.6531
G1 X113.388 Y128.063 E35.72294
G1 X112.66 Y127.944 E35.79265
G1 X111.948 Y127.746 E35.86249
G1 X111.501 Y127.568 E35.90795
G1 X111.23 Y127.685 E35.93585
G1 X110.524 Y127.902 E36.00565
G1 X109.798 Y128.041 E36.0755
G1 X108.873 Y128.104 E36.16311
G1 X105.606 Y128.103 E36.47184
G1 X104.868 Y128.063 E36.54169
G1 X104.139 Y127.943 E36.61151
G1 X103.428 Y127.745 E36.68125
G1 X102.742 Y127.472 E36.75102
G1 X102.089 Y127.126 E36.82086
G1 X101.478 Y126.711 E36.89066
G1 X100.759 Y126.08 E36.98106
G1 X100.657 Y125.977 E36.99476
G1 X100.166 Y125.425 E37.06457
G1 X99.738 Y124.823 E37.13437
G1 X99.377 Y124.179 E37.20414
G1 X99.089 Y123.499 E37.27393
G1 X98.875 Y122.791 E37.34382
G1 X98.739 Y122.065 E37.41362
G1 X98.681 Y121.175 E37.49791
G1 X98.681 Y117.91 E37.80645
G1 X98.721 Y117.172 E37.87629
G1 X98.84 Y116.444 E37.946
G1 X99.038 Y115.732 E38.01584
G1 X99.216 Y115.285 E38.06131
G1 X99.112 Y115.046 E38.08594
G1 X98.891 Y114.341 E38.15576
G1 X98.748 Y113.616 E38.22559
G1 X98.681 Y112.662 E38.31596
G1 X98.68 Y109.394 E38.62479
G1 X98.72 Y108.657 E38.69454
G1 X98.839 Y107.928 E38.76434
G1 X99.036 Y107.216 E38.83415
G1 X99.309 Y106.529 E38.90401
G1 X99.655 Y105.877 E38.97376
G1 X100.069 Y105.265 E39.04359
G1 X100.679 Y104.566 E39.13126
G1 X100.782 Y104.463 E39.14502
G1 X101.332 Y103.97 E39.21482
G1 X101.932 Y103.539 E39.28464
G1 X102.575 Y103.175 E39.35446
G1 X103.253 Y102.883 E39.42422
G1 X103.959 Y102.666 E39.49402
G1 X104.503 Y102.562 E39.54636
G1 X104.437 Y102.316 E39.57043
G1 X104.283 Y101.593 E39.64028
G1 X104.208 Y100.858 E39.7101
G1 X104.213 Y100.12 E39.77984
G1 X104.297 Y99.386 E39.84966
G1 X104.461 Y98.666 E39.91944
G1 X104.701 Y97.967 E39.98928
G1 X105.016 Y97.299 E40.05907
G1 X105.4 Y96.668 E40.12888
G1 X105.816 Y96.124 E40.19359
G1 X105.921 Y96 E40.20895
G0 F4320 X106.189 Y96.226
G1 F1800 X106.683 Y95.703 E40.27693
G1 X107.233 Y95.239 E40.34493
G1 X107.831 Y94.839 E40.41292
G1 X108.469 Y94.507 E40.48089
G1 X109.14 Y94.248 E40.54886
G1 X109.836 Y94.066 E40.61684
G1 X110.548 Y93.961 E40.68485
G1 X111.13 Y93.935 E40.73991
