;FLAVOR:UltiGCode
;TIME:739
;MATERIAL:390
;MATERIAL2:0
;NOZZLE_DIAMETER:0.4
;Generated with Cura_SteamEngine 3.3.1
M82 ;absolute extrusion mode

G92 E0
G10
;LAYER_COUNT:109
;LAYER:0
M107
G0 F4320 X107.901 Y100.828 Z0.27
;TYPE:SKIRT
G11
G1 F1800 X108.361 Y100.435 E0.05717
G1 X108.868 Y100.106 E0.11429
G1 X109.414 Y99.847 E0.1714
G1 X109.99 Y99.662 E0.22857
G1 X110.585 Y99.554 E0.28571
G1 X111.099 Y99.525 E0.33436
G1 X111.901 Y99.525 E0.41015
G1 X112.504 Y99.565 E0.46726
G1 X113.097 Y99.684 E0.52442
G1 X113.669 Y99.88 E0.58156
G1 X114.21 Y100.15 E0.63869
G1 X114.711 Y100.489 E0.69586
G1 X115.162 Y100.891 E0.75295
G1 X115.557 Y101.35 E0.81018
G1 X115.805 Y101.714 E0.8518
G1 X119.414 Y107.62 E1.50587
G1 X119.694 Y108.156 E1.56302
G1 X119.902 Y108.724 E1.62018
G1 X120.032 Y109.314 E1.67727
G1 X120.085 Y110.025 E1.74465
G1 X120.052 Y118.051 E2.50311
G1 X120.01 Y118.654 E2.56023
G1 X119.888 Y119.246 E2.61735
G1 X119.689 Y119.817 E2.6745
G1 X119.417 Y120.357 E2.73163
G1 X119.076 Y120.857 E2.78883
G1 X118.672 Y121.306 E2.84591
G1 X118.212 Y121.699 E2.90308
G1 X117.705 Y122.028 E2.96019
G1 X117.158 Y122.287 E3.01739
G1 X116.583 Y122.471 E3.07444
G1 X115.988 Y122.578 E3.13157
G1 X115.459 Y122.607 E3.18163
G1 X107.473 Y122.575 E3.93632
G1 X106.87 Y122.533 E3.99344
G1 X106.277 Y122.411 E4.05065
G1 X105.706 Y122.212 E4.10779
G1 X105.166 Y121.94 E4.16493
G1 X104.667 Y121.599 E4.22205
G1 X104.217 Y121.195 E4.27919
G1 X103.824 Y120.736 E4.3363
G1 X103.495 Y120.228 E4.39349
G1 X103.236 Y119.682 E4.4506
G1 X103.052 Y119.106 E4.50774
G1 X102.945 Y118.511 E4.56487
G1 X102.916 Y117.998 E4.61343
G1 X102.92 Y109.996 E5.36962
G1 X102.96 Y109.392 E5.42682
G1 X103.08 Y108.8 E5.4839
G1 X103.276 Y108.228 E5.54104
G1 X103.635 Y107.542 E5.61421
G1 X105.339 Y104.865 E5.91409
G1 X107.157 Y101.778 E6.25264
G1 X107.498 Y101.278 E6.30983
G1 X107.901 Y100.828 E6.36692
G0 F4320 X108.178 Y101.047
G1 F1800 X108.625 Y100.675 E6.42187
G1 X109.118 Y100.368 E6.47675
G1 X109.649 Y100.132 E6.53167
G1 X110.207 Y99.97 E6.58657
G1 X110.782 Y99.887 E6.64148
G1 X111.099 Y99.875 E6.67145
G1 X111.901 Y99.875 E6.74724
G1 X112.481 Y99.915 E6.80218
G1 X113.049 Y100.034 E6.85702
G1 X113.596 Y100.23 E6.91193
G1 X114.111 Y100.499 E6.96684
G1 X114.584 Y100.837 E7.02178
G1 X115.007 Y101.236 E7.07673
G1 X115.506 Y101.897 E7.15499
G1 X119.115 Y107.803 E7.80907
G1 X119.383 Y108.318 E7.86393
G1 X119.578 Y108.866 E7.9189
G1 X119.696 Y109.435 E7.97381
G1 X119.735 Y110.023 E8.0295
G1 X119.702 Y118.049 E8.78796
G1 X119.66 Y118.629 E8.84292
G1 X119.538 Y119.197 E8.89782
G1 X119.34 Y119.743 E8.9527
G1 X119.069 Y120.257 E9.00761
G1 X118.729 Y120.729 E9.06258
G1 X118.329 Y121.149 E9.11739
G1 X117.874 Y121.511 E9.17234
G1 X117.374 Y121.807 E9.22725
G1 X116.838 Y122.032 E9.28218
G1 X116.276 Y122.181 E9.33712
G1 X115.46 Y122.257 E9.41457
G1 X107.474 Y122.225 E10.16925
G1 X106.895 Y122.183 E10.22411
G1 X106.326 Y122.061 E10.27911
G1 X105.78 Y121.863 E10.33399
G1 X105.266 Y121.592 E10.3889
G1 X104.795 Y121.253 E10.44374
G1 X104.374 Y120.852 E10.49868
G1 X104.012 Y120.397 E10.55363
G1 X103.716 Y119.897 E10.60854
G1 X103.491 Y119.362 E10.66339
G1 X103.342 Y118.8 E10.71833
G1 X103.266 Y117.998 E10.79446
G1 X103.27 Y109.996 E11.55065
G1 X103.31 Y109.416 E11.60559
G1 X103.43 Y108.848 E11.66045
G1 X103.626 Y108.301 E11.71536
G1 X103.931 Y107.73 E11.77653
G1 X105.636 Y105.05 E12.0767
G1 X107.459 Y101.956 E12.41606
G1 X107.787 Y101.476 E12.471
G1 X108.178 Y101.047 E12.52585
G0 F4320 X108.455 Y101.267
G1 F1800 X108.888 Y100.918 E12.57841
G1 X109.366 Y100.634 E12.63095
G1 X109.88 Y100.422 E12.68349
G1 X110.42 Y100.285 E12.73614
G1 X111.099 Y100.225 E12.80056
G1 X111.901 Y100.225 E12.87634
G1 X112.456 Y100.265 E12.92893
G1 X113 Y100.384 E12.98155
G1 X113.52 Y100.58 E13.03407
G1 X114.008 Y100.848 E13.08668
G1 X114.452 Y101.183 E13.13924
G1 X114.843 Y101.579 E13.19183
G1 X115.208 Y102.079 E13.25033
G1 X118.817 Y107.985 E13.9044
G1 X119.072 Y108.48 E13.95702
G1 X119.254 Y109.006 E14.00962
G1 X119.358 Y109.552 E14.06214
G1 X119.385 Y110.022 E14.10663
G1 X119.352 Y118.048 E14.8651
G1 X119.31 Y118.603 E14.91769
G1 X119.188 Y119.146 E14.97029
G1 X118.991 Y119.666 E15.02284
G1 X118.72 Y120.152 E15.07542
G1 X118.383 Y120.595 E15.12802
G1 X117.986 Y120.985 E15.18061
G1 X117.538 Y121.314 E15.23314
G1 X117.046 Y121.575 E15.28577
G1 X116.523 Y121.763 E15.33829
G1 X115.978 Y121.875 E15.39087
G1 X115.461 Y121.907 E15.43982
G1 X107.475 Y121.875 E16.1945
G1 X106.921 Y121.833 E16.247
G1 X106.378 Y121.712 E16.29957
G1 X105.857 Y121.514 E16.35224
G1 X105.371 Y121.244 E16.40478
G1 X104.928 Y120.907 E16.45738
G1 X104.538 Y120.51 E16.50997
G1 X104.209 Y120.061 E16.56258
G1 X103.948 Y119.57 E16.61512
G1 X103.76 Y119.046 E16.66773
G1 X103.649 Y118.501 E16.72029
G1 X103.616 Y117.998 E16.76793
G1 X103.62 Y109.996 E17.52412
G1 X103.66 Y109.441 E17.5767
G1 X103.78 Y108.898 E17.62925
G1 X103.975 Y108.377 E17.68182
G1 X104.226 Y107.918 E17.73126
G1 X105.925 Y105.249 E18.03025
G1 X107.76 Y102.133 E18.37197
G1 X108.076 Y101.675 E18.42456
G1 X108.455 Y101.267 E18.47718
G0 F4320 X108.73 Y101.49
G1 F1800 X109.148 Y101.164 E18.52727
G1 X109.611 Y100.904 E18.57745
G1 X110.108 Y100.717 E18.62764
G1 X110.627 Y100.607 E18.67777
G1 X111.099 Y100.575 E18.72248
G1 X111.901 Y100.575 E18.79827
G1 X112.43 Y100.615 E18.8484
G1 X112.947 Y100.734 E18.89853
G1 X113.441 Y100.929 E18.94872
G1 X113.899 Y101.196 E18.99882
G1 X114.313 Y101.529 E19.04903
G1 X114.671 Y101.92 E19.09913
G1 X114.909 Y102.262 E19.1385
G1 X118.518 Y108.168 E19.79257
G1 X118.76 Y108.64 E19.8427
G1 X118.928 Y109.144 E19.8929
G1 X119.019 Y109.666 E19.94298
G1 X119.035 Y110.02 E19.97646
G1 X119.002 Y118.046 E20.73493
G1 X118.96 Y118.575 E20.78507
G1 X118.839 Y119.092 E20.83525
G1 X118.642 Y119.585 E20.88542
G1 X118.373 Y120.042 E20.93553
G1 X118.038 Y120.454 E20.98571
G1 X117.645 Y120.811 E21.03589
G1 X117.204 Y121.105 E21.08597
G1 X116.723 Y121.33 E21.13616
G1 X116.214 Y121.479 E21.18628
G1 X115.463 Y121.557 E21.25763
G1 X107.477 Y121.525 E22.01231
G1 X106.948 Y121.483 E22.06246
G1 X106.431 Y121.362 E22.11263
G1 X105.939 Y121.165 E22.16272
G1 X105.481 Y120.896 E22.21291
G1 X105.069 Y120.561 E22.26309
G1 X104.712 Y120.169 E22.31319
G1 X104.418 Y119.727 E22.36336
G1 X104.194 Y119.246 E22.4135
G1 X104.044 Y118.737 E22.46365
G1 X103.966 Y117.998 E22.53387
G1 X103.97 Y109.996 E23.29006
G1 X104.01 Y109.467 E23.34019
G1 X104.129 Y108.95 E23.39033
G1 X104.325 Y108.457 E23.44046
G1 X104.521 Y108.105 E23.47854
G1 X106.243 Y105.4 E23.78156
G1 X108.062 Y102.311 E24.12032
G1 X108.365 Y101.875 E24.1705
G1 X108.73 Y101.49 E24.22063
G0 F4320 X109.003 Y101.715
G1 F1800 X109.407 Y101.414 E24.26824
G1 X109.853 Y101.18 E24.31584
G1 X110.33 Y101.02 E24.36338
G1 X110.827 Y100.937 E24.411
G1 X111.099 Y100.925 E24.43673
G1 X111.901 Y100.925 E24.51252
G1 X112.403 Y100.965 E24.5601
G1 X112.892 Y101.084 E24.60766
G1 X113.357 Y101.278 E24.65528
G1 X113.785 Y101.544 E24.7029
G1 X114.165 Y101.874 E24.75046
G1 X114.61 Y102.444 E24.8188
G1 X118.219 Y108.35 E25.47287
G1 X118.447 Y108.8 E25.52054
G1 X118.601 Y109.279 E25.56809
G1 X118.685 Y110.019 E25.63847
G1 X118.652 Y118.045 E26.39693
G1 X118.61 Y118.547 E26.44453
G1 X118.489 Y119.036 E26.49214
G1 X118.293 Y119.499 E26.53965
G1 X118.025 Y119.926 E26.58729
G1 X117.694 Y120.305 E26.63484
G1 X117.306 Y120.627 E26.68249
G1 X116.873 Y120.884 E26.73007
G1 X116.405 Y121.068 E26.77759
G1 X115.913 Y121.177 E26.82522
G1 X115.464 Y121.207 E26.86774
G1 X107.478 Y121.175 E27.62242
G1 X106.976 Y121.133 E27.67003
G1 X106.488 Y121.012 E27.71754
G1 X106.024 Y120.816 E27.76514
G1 X105.597 Y120.548 E27.81278
G1 X105.218 Y120.217 E27.86033
G1 X104.896 Y119.83 E27.90791
G1 X104.64 Y119.396 E27.95553
G1 X104.455 Y118.928 E28.00308
G1 X104.346 Y118.436 E28.0507
G1 X104.316 Y117.998 E28.09219
G1 X104.32 Y109.996 E28.84838
G1 X104.36 Y109.494 E28.89597
G1 X104.479 Y109.005 E28.94353
G1 X104.674 Y108.541 E28.99109
G1 X104.816 Y108.293 E29.0181
G1 X106.539 Y105.585 E29.32141
G1 X108.363 Y102.489 E29.66098
G1 X108.653 Y102.076 E29.70867
G1 X109.003 Y101.715 E29.75619
G10
G0 F4320 X111.323 Y103.394
G0 X111.323 Y104.323
G0 X111.626 Y104.474
G0 X111.594 Y104.38
;TYPE:WALL-OUTER
G11
G1 F1800 X111.686 Y104.305 E29.7674
G1 X111.675 Y104.39
G1 X111.671 Y104.414
G1 X111.613 Y104.81 E29.80523
G1 X111.591 Y104.961 E29.81965
G1 X111.546 Y105.144 E29.83745
G1 X111.501 Y105.323 E29.8549
G1 X111.442 Y105.119
G1 X111.419 Y104.995
G1 X111.377 Y104.775 E29.86112
G1 X111.329 Y104.415 E29.88932
G1 X111.325 Y104.388 E29.8919
G1 X111.314 Y104.306 E29.89972
G1 X111.402 Y104.377
G1 X111.594 Y104.38 E29.90289
G0 F4320 X111.686 Y104.305
G0 X111.676 Y104.387
G10
G0 X111.575 Y104.429
G0 X111.501 Y105.303
G0 X110.749 Y105.855
G0 X109.323 Y109.307
G0 X109.323 Y110.543
G0 X108.53 Y110.878
;TYPE:WALL-INNER
G11
G1 F1800 X108.987 Y110.879 E29.94607
G1 X108.987 Y111.509 E30.00561
G1 X108.356 Y111.509 E30.06524
G1 X108.355 Y111.053 E30.10833
G1 X108.355 Y110.878 E30.12487
G1 X108.53 Y110.878 E30.13557
G0 F4320 X108.18 Y110.528
G1 F1800 X109.337 Y110.529 E30.24491
G1 X109.337 Y111.859 E30.37059
G1 X108.006 Y111.859 E30.49637
G1 X108.005 Y110.703 E30.60561
G1 X108.005 Y110.528 E30.62215
G1 X108.18 Y110.528 E30.63285
G0 F4320 X107.855 Y110.203
;TYPE:WALL-OUTER
G1 F1800 X109.662 Y110.204 E30.80361
G1 X109.662 Y112.184 E30.99072
G1 X107.681 Y112.184 E31.17793
G1 X107.68 Y110.378 E31.34859
G1 X107.68 Y110.203 E31.36513
G1 X107.855 Y110.203 E31.37583
G0 F4320 X108.055 Y110.203
G0 X108.054 Y110.628
G0 X108.576 Y111.051
G0 X108.694 Y111.169
G1 F1800 X108.57 Y111.293 E31.38658
G0 F4320 X108.528 Y111.251
G10
G0 X109.317 Y111.053
G0 X110.558 Y111.053
G0 X112.442 Y111.053
G0 X113.683 Y111.053
G0 X114.645 Y111.053
;TYPE:WALL-INNER
G11
G1 F1800 X114.644 Y111.509 E31.42967
G1 X114.013 Y111.509 E31.4893
G1 X114.013 Y110.879 E31.54884
G1 X114.47 Y110.878 E31.59203
G1 X114.645 Y110.878 E31.60856
G1 X114.645 Y111.053 E31.61927
G0 F4320 X114.995 Y110.703
G1 F1800 X114.994 Y111.859 E31.72851
G1 X113.663 Y111.859 E31.85429
G1 X113.663 Y110.529 E31.97997
G1 X114.82 Y110.528 E32.08931
G1 X114.995 Y110.528 E32.10585
G1 X114.995 Y110.703 E32.11655
G0 F4320 X115.32 Y110.378
;TYPE:WALL-OUTER
G1 F1800 X115.319 Y112.184 E32.28722
G1 X113.338 Y112.184 E32.47442
G1 X113.338 Y110.204 E32.66153
G1 X115.145 Y110.203 E32.83229
G1 X115.32 Y110.203 E32.84883
G1 X115.32 Y110.378 E32.85953
G0 F4320 X115.32 Y110.578
G0 X114.895 Y110.577
G0 X114.47 Y111.253
G0 X114.369 Y111.152
G1 F1800 X114.245 Y111.275 E32.87024
G0 F4320 X114.305 Y111.336
G10
G0 X114.645 Y111.839
G0 X114.645 Y113.08
G0 X114.647 Y114.965
G0 X114.648 Y116.186
G0 X114.645 Y116.71
;TYPE:WALL-INNER
G11
G1 F1800 X114.644 Y117.167 E32.91342
G1 X114.013 Y117.167 E32.97305
G1 X114.013 Y116.536 E33.03268
G1 X114.47 Y116.535 E33.07587
G1 X114.645 Y116.535 E33.09241
G1 X114.645 Y116.71 E33.10311
G0 F4320 X114.995 Y116.36
G1 F1800 X114.994 Y117.517 E33.21244
G1 X113.663 Y117.517 E33.33822
G1 X113.663 Y116.186 E33.464
G1 X114.82 Y116.185 E33.57334
G1 X114.995 Y116.185 E33.58988
G1 X114.995 Y116.36 E33.60058
G0 F4320 X115.32 Y116.035
;TYPE:WALL-OUTER
G1 F1800 X115.319 Y117.842 E33.77134
G1 X113.338 Y117.842 E33.95855
G1 X113.338 Y115.861 E34.14575
G1 X115.145 Y115.86 E34.31651
G1 X115.32 Y115.86 E34.33305
G1 X115.32 Y116.035 E34.34375
G0 F4320 X115.32 Y116.235
G0 X114.895 Y116.234
G0 X114.471 Y116.946
G0 X114.352 Y116.827
G1 F1800 X114.227 Y116.95 E34.35455
G0 F4320 X114.27 Y116.992
G10
G0 X113.683 Y116.993
G0 X112.442 Y116.993
G0 X110.558 Y116.995
G0 X109.337 Y116.996
G0 X108.988 Y116.993
;TYPE:WALL-INNER
G11
G1 F1800 X108.988 Y117.168 E34.37108
G1 X108.813 Y117.168 E34.38179
G1 X108.356 Y117.167 E34.42497
G1 X108.356 Y116.536 E34.4846
G1 X108.987 Y116.536 E34.54423
G1 X108.988 Y116.993 E34.58742
G0 F4320 X109.338 Y117.343
G1 F1800 X109.338 Y117.518 E34.60396
G1 X109.163 Y117.518 E34.61466
G1 X108.006 Y117.517 E34.724
G1 X108.006 Y116.186 E34.84977
G1 X109.337 Y116.186 E34.97555
G1 X109.338 Y117.343 E35.08489
G0 F4320 X109.663 Y117.668
;TYPE:WALL-OUTER
G1 F1800 X109.663 Y117.843 E35.10143
G1 X109.488 Y117.843 E35.11213
G1 X107.681 Y117.842 E35.28289
G1 X107.681 Y115.861 E35.4701
G1 X109.662 Y115.861 E35.6573
G1 X109.663 Y117.668 E35.82806
G0 F4320 X109.663 Y117.843
G0 X109.638 Y117.843
G0 X109.268 Y117.448
G0 X108.814 Y116.981
G0 X108.677 Y116.844
G1 F1800 X108.553 Y116.967 E35.83881
G0 F4320 X108.814 Y116.734
;TYPE:SKIN
G1 F1800 X108.789 Y116.708 E35.84052
G10
G0 F4320 X109.323 Y116.2
G0 X109.323 Y114.965
G0 X110.546 Y113.068
G0 X110.749 Y105.855
G0 X111.501 Y105.303
G0 X111.538 Y105.09
G0 X111.405 Y105.113
;TIME_ELAPSED:20.354250
;LAYER:1
M106 S255
G0 F5760 X111.405 Y105.113 Z0.37
;TYPE:WALL-OUTER
G11
G1 F1139 X111.599 Y105.11 E35.84731
G1 X111.686 Y105.04 E35.85122
G1 X111.675 Y105.12
G1 X111.67 Y105.15
G1 X111.613 Y105.544 E35.86515
G1 X111.591 Y105.695 E35.87049
G1 X111.546 Y105.877 E35.87705
G1 X111.501 Y106.056 E35.88351
G1 X111.442 Y105.852
G1 X111.419 Y105.729
G1 X111.377 Y105.509 E35.88582
G1 X111.329 Y105.146 E35.89634
G1 X111.326 Y105.125
G1 X111.314 Y105.04 E35.89761
G1 X111.405 Y105.113
G0 F5760 X111.599 Y105.11
G0 X111.603 Y105.107
G10
G0 X111.617 Y105.177
G0 X111.501 Y106.036
G0 X110.749 Y106.587
G0 X109.359 Y109.298
G0 X109.359 Y110.534
G0 X108.521 Y110.869
;TYPE:WALL-INNER
G11
G1 F1328.8 X109.023 Y110.87 E35.91518
G1 X109.023 Y111.546 E35.93884
G1 X108.347 Y111.546 E35.9625
G1 X108.346 Y111.044 E35.98007
G1 X108.346 Y110.869 E35.9862
G1 X108.521 Y110.869 E35.99016
G0 F5760 X108.171 Y110.519
G1 F1328.8 X109.373 Y110.52 E36.03223
G1 X109.373 Y111.896 E36.08039
G1 X107.997 Y111.896 E36.12855
G1 X107.996 Y110.694 E36.17062
G1 X107.996 Y110.519 E36.17675
G1 X108.171 Y110.519 E36.18071
G0 F5760 X107.846 Y110.194
;TYPE:WALL-OUTER
G1 F1139 X109.698 Y110.195 E36.24553
G1 X109.698 Y112.221 E36.31644
G1 X107.672 Y112.221 E36.38735
G1 X107.671 Y110.369 E36.45217
G1 X107.671 Y110.194 E36.4583
G1 X107.846 Y110.194 E36.46226
G0 F5760 X108.046 Y110.194
G0 X108.045 Y110.619
G0 X108.726 Y111.041
G0 X108.622 Y111.145
G1 F949.1 X108.746 Y111.269 E36.46738
G0 F5760 X108.849 Y111.166
G10
G0 X109.353 Y111.044
G0 X110.594 Y111.044
G0 X112.406 Y111.044
G0 X113.647 Y111.044
G0 X114.654 Y111.044
;TYPE:WALL-INNER
G11
G1 F1328.8 X114.653 Y111.546 E36.48495
G1 X113.977 Y111.546 E36.50861
G1 X113.977 Y110.87 E36.53227
G1 X114.479 Y110.869 E36.54984
G1 X114.654 Y110.869 E36.55597
G1 X114.654 Y111.044 E36.55993
G0 F5760 X115.004 Y110.694
G1 F1328.8 X115.003 Y111.896 E36.602
G1 X113.627 Y111.896 E36.65016
G1 X113.627 Y110.52 E36.69832
G1 X114.829 Y110.519 E36.74039
G1 X115.004 Y110.519 E36.74652
G1 X115.004 Y110.694 E36.75048
G0 F5760 X115.329 Y110.369
;TYPE:WALL-OUTER
G1 F1139 X115.328 Y112.221 E36.8153
G1 X113.302 Y112.221 E36.88621
G1 X113.302 Y110.195 E36.95712
G1 X115.154 Y110.194 E37.02194
G1 X115.329 Y110.194 E37.02806
G1 X115.329 Y110.369 E37.03203
G0 F5760 X115.329 Y110.569
G0 X114.904 Y110.568
G0 X114.419 Y111.041
G0 X114.283 Y111.176
G1 F949.1 X114.406 Y111.301 E37.03718
G0 F5760 X114.479 Y111.229
G10
G0 X114.654 Y111.876
G0 X114.654 Y113.117
G0 X114.656 Y114.929
G0 X114.657 Y116.15
G0 X114.654 Y116.674
;TYPE:WALL-INNER
G11
G1 F1328.8 X114.653 Y117.176 E37.05475
G1 X113.977 Y117.176 E37.07841
G1 X113.977 Y116.5 E37.10207
G1 X114.479 Y116.499 E37.11964
G1 X114.654 Y116.499 E37.12577
G1 X114.654 Y116.674 E37.12973
G0 F5760 X115.004 Y116.324
G1 F1328.8 X115.003 Y117.526 E37.1718
G1 X113.627 Y117.526 E37.21996
G1 X113.627 Y116.15 E37.26812
